/* XPM */
static char *texture[] = {
"128 128 128 2",
"AA c #1C1C1A",
"AB c #1B1B19",
"AC c #E2DDCE",
"AD c #1B1B18",
"AE c #1D1D1B",
"AF c #1C1C19",
"AG c #1A1A18",
"AH c #12110F",
"AI c #1D1D1C",
"AJ c #E3DECF",
"AK c #1C1C1B",
"AL c #191816",
"AM c #1D1C1B",
"AN c #1A1917",
"AO c #1B1A18",
"AP c #262521",
"AQ c #161513",
"AR c #373632",
"AS c #0B0B09",
"AT c #1A1A17",
"AU c #E4DFD0",
"AV c #44423D",
"AW c #10100E",
"AX c #A8A8A5",
"AY c #2E2D29",
"AZ c #1C1B19",
"Aa c #6F6D69",
"Ab c #3B3A36",
"Ac c #1E1D1B",
"Ad c #181715",
"Ae c #161411",
"Af c #1F1E1C",
"Ag c #0D0C0B",
"Ah c #84827A",
"Ai c #242320",
"Aj c #21211F",
"Ak c #E0DBCB",
"Al c #4E4C45",
"Am c #DAD5C5",
"An c #181815",
"Ao c #3F3E3A",
"Ap c #1C1D1B",
"Aq c #21201D",
"Ar c #1B1C1A",
"As c #20201E",
"At c #E6E1D2",
"Au c #1E1E1D",
"Av c #5C5A53",
"Aw c #1E1E1C",
"Ax c #C6C1B0",
"Ay c #2A2723",
"Az c #171614",
"A0 c #35332E",
"A1 c #464540",
"A2 c #55534C",
"A3 c #191917",
"A4 c #7D7A74",
"A5 c #33302A",
"A6 c #1E1D1A",
"A7 c #0F0F0D",
"A8 c #191916",
"A9 c #3D3C38",
"A! c #24201B",
"A# c #1D1D1A",
"A$ c #959183",
"A% c #2C2A26",
"A& c #141312",
"A( c #B5B0A1",
"A) c #4A4741",
"A* c #24221E",
"A+ c #D0CBBB",
"A, c #302F2C",
"A- c #1F1F1E",
"A. c #3A3731",
"A/ c #1E1E1B",
"A: c #272723",
"A; c #27231E",
"A< c #201D19",
"A= c #1F1F1D",
"A> c #131311",
"A? c #1B1B1A",
"A@ c #676560",
"A[ c #33322F",
"A] c #211F1B",
"A^ c #0E0D0B",
"A_ c #23231F",
"A{ c #1B1A17",
"A| c #171715",
"A} c #423F39",
"A~ c #1C1B18",
"BA c #201E1B",
"BB c #161614",
"BC c #23211D",
"BD c #181613",
"BE c #14120F",
"BF c #22221F",
"BG c #25231F",
"BH c #1B1916",
"BI c #1E1C18",
"BJ c #E3DECE",
"BK c #A4A3A1",
"BL c #22211D",
"BM c #201F1D",
"BN c #2A2927",
"BO c #1C1B1A",
"BP c #1A1815",
"BQ c #1D1C19",
"BR c #1D1E1D",
"BS c #1F1F1C",
"BT c #E2DECE",
"BU c #1D1D1D",
"BV c #080705",
"BW c #221F1C",
"BX c #201F1C",
"BY c #1D1B18",
"BZ c #1A1713",
"Ba c #1A1B18",
"Bb c #1E1F1D",
"Bc c #1A1A19",
"Bd c #20211F",
"Be c #1C1C1C",
"Bf c #1A1B19",
"Bg c #1C1C18",
"Bh c #191A17",
"Bi c #1F201E",
"Bj c #1B1B17",
"Bk c #191915",
"Bl c #1C1A19",
"AJBKBKBKBKBKAXAXAXBKBKBKBKBKAXAXBKBKBKAXAXAXBKBKBKBKAXAXAXBKBKBKBKAXAXAXBKBKBKBKAXAXAXAXAXBKBKBKBKAXAXAXBKAXAXAXAXAXAXAXAXAXAXBKBKAXBKBKAXAXAXAXAXAXAXAXAXAXAXAXAXAXAXAXBKAXAXBKAXAXAXAXAXAXBKBKBKBKBKAXAXAXBKBKBKAXAXAXAXBKBKAXAXAXAXAXAXBKAXAXAXBKAXAXAXAXBKA+",
"BKBVA7AWAHAHA^A^A7A^ASA^AWAWAHA7A^A^AWA>A>A8BVBVBBA>A&A>AHAWA7AWA7AHAQA&AHA>A>A>A>AQAQA&A&A&AHA7AHA&A&A&A>A>A>AQA&A>AHA&AHA>A8BVBVA8A>A&AQBEAHA>AQA&A&A&AWA>A&A>AWAHA>AHA7A>A&AWA7A>AQAQA&A&A>A7A7AWAHAHA>A>AeA7BVAQAdAHAHA^A^A>A7AWAHAWAHASA7AHAHAgAWA&AHA>BVAa",
"BKAWAwADAFBbATAdATAMBPADA/A/AFAAApADADBbAuAiALAzBFA-A-ABATA/AwAEAKAwAsA-A-A-A-AuA-BiAsAjAjBiAuAEA=AsBiAsA-A-A-A-AsBMA6AEAwA=A:A&A>BNA-A-A-BQATA-AsBMBiA-BRAuBbAuA/AuA=BSA=AsA-BbAFBbA-BdAsAIAAAcAEA/A=BSAwBbAjA8ALAiAcAEAEA#AcBbAEA#AAAAABABAMAMAcANADBSAfAAASAh",
"BKA7BiADAdANAzAQA|ATA3A|ABABAnAdAGANATBOAOBXA#A>BSAFA?AOAnABAFBaAIApAKAKAMArAKBUAIAEBUAuBRAIApBUApAAAIAIBRAIAcAEBXAMBHAOA~AcAiAHA>AYAIAKBOBQAZAuApApAuBUAIAKAKAKAKAKAMAEBRAuAIAMA?A?AwBRApA3AnAFAFABA#ATALAAAfAQANBFATA{ANAAAGAnAFANANAOAnAGBaATA3AdA8AFAOA3ASA4",
"BKAHA=ApALAQAzAzAGA3ADAGAQANADAeA3AABaAGAGA/BFA^AEANBcAKBPA3ABApAIAKApAKABABAKAIBeA-AuAIBRAEAKAIAKAAApAIAwAIBUAKAcAMAAAFANAcAPAHAHAYAIA?BOABAKAIApBUAEAIBUAKArA?AKBeApAEAEAfBMAfAKABADBcArAAAGAdAnABAdAdAZAZAcAHALAiAGATBPApAFADArA8AzAGAZADADATAeA3ADADAzBBA^Ah",
"AXAHAEAFAnAQAdALAGATAGABA8AzAdAGABAAA8AnAZAEAiA^AAAEABA?ANADBfAKAIAIAMAKATABAKBeBeAIAIAIAEA?ArBeAIAAAAAIAAAEAIAAA6AKAAAABOAwAPAHAHBNAuAEBOAOAKAMAuBRAEA#AKAIAFABAMBOAKAIApAFA6BMAIAIAGALAKBRBhA8ANA8ALBaAAAfA=AHA6BiBfAGA8ArAAArAAA8AdABAnAdAOAGA|AOAOAdA|AMAgA4",
"AXAHA#ALAQAeAdATATABABAGAGAzBBA3ABAnBBABABABA:A7A3BdA?A?AQATA?AKBOAEAKAKABAAAFAIBUBUBeAKAABOAIBeBeBeApAMApAIAEAGABAAAAAMAKA=AiAHAWBNBUAIAIAMAKAuAIBRAuArAKAKBOAMAMAKA?AwAGA3AIAwAKAIApABA?BcA3ArAAABADAnA|BMA3AHAPAwArAIABBaALABAAALAdArALAdBaAAAOAnATALALAMASAh",
"AXAHAZAzAeBBA8AOAGAnANATATAGAnAQAnA|ALABAFAGAyAQAQAsAOAGBZA#AfAABOBOArAKABBOA#AcBRAKAKA?BOAAAMApAOAKAcAuAuApAwAEArAKAMAMABA=AiAWAWAYBUAuAfBUAuA=AwBMAfAKAcAMBOAIAEA?ABABANAGAuAuAuAIAwAEAFAEAABfA3BQAZAnA|BSAQAHAyBSAZABABArBkAOAAA8AzABA~AzAGAGAZALANATAnAOA7Ah",
"AXAWAABhA&AzAnANATA&AQAGATAzA|BcBfAGADABAAABA:A|A&A=ANA8BQBMAqA6AcAZAOAcA#AEAcBMA-AIA_AKABABAKBUBOAKAIBMAjArAjAfAKA_A/AEAAAwAPAWA7A%BGAfAqBMA-AsAjA_AEAZAsBUAwA-AKBcAAAEAKBXBLAIAjAsBOANArA=AFAZAnABAwAFALAfA|AQAPBQBQATAFAAABA{AAABAGADBgALAFA|AGAFATAGA|AEAHAh",
"AXAWA3A8AQAdBBALAGAeA|BaA3BBALABA3A3AnAGAZArAiANAHAwAwA/BYAZA6AfAcAAAZAfA?AKAuAsAsAfAsA?AAApAKA=AEBeBeA-AjAKAfAMAcAiAfAfAABLAPA7A7AYA:AwBLA=AsBFAsAjABAMBMBeBUAIAAA=AsA-AIAsAuBUAjAwBcABAMAZAAATALAFA#ANAQBSBBAzAiAZAEAEAMAMAFABANADArADBaAGAEA3ALA|AnAOA|AAAHAh",
"AXAWAzATANAeALAGAGAdAzA8ANABABAQAQAzAQBhAGBcAiA~AWAfAjAFATA/A/AKAEAKBRAEA3AfAPAjAsAIA?AIA-A-AsAjAcAKBeBUA_A_AcAfBXAcAMAcAjAPA;A7A7A0BFAPAPArAiBdAIAjAcAOBbA-A?AOA?BbBdAuAcAuBeA-AjBcA?AEAZAMAEABABAFAdA3AZBCA>AQAPAZAMAAAMAFA/A{AeANAZABAdAeBfABAeAeAzABArBHA7Ah",
"AXAWADBgADAzAdALA3A3AnAGABABAGATANALA3A#BgBcAfAqAWA/A_ALAMBMA6AZAEAAAKAKAMBMAwAwAIAuAIBRAAAKA-A-AwBSAEAwAqAPBABABQAsAfAqA_A*AyAHAWA,A-AjAiA]AqAqArAuBOAOBRAwBMAEBRAsAuAEAIA?AZAcBMBXAIAABXAsAAAOAwA#ANABAcA*A7AfAjABAAA?A?AAA#AFAdA8AZATABAzA3ABAdANALAzADAZA^Ah",
"BKAHA=ANAzA|AzAdAGANALABAGAnA8AFAnANA3A6A~BOBcA:AHADAiAnBYAcAMAEAAAMAIAIAIAMAOA?AcAfAMAIBOBIAwAuAIBSAuA!BXA_BABAAOA=BCBGA*AqAyA&AWA,A-BUA/BLA]A]BOA?AOABAAAFBAAIBLAjAKArArAOA{AZAcA*BSArAqAqAZAMAcBQAAAAA6AfA7AiAEABA?BOAZABArAGAnALAAAZAAA3AOABAdBBANAdABAEA7Ah",
"AXAHBQAQAdANAzAQAnADALBBATA8ALABATABABAGAGAZAKA:AHA8A:AABHA#A/AfAAAIBUBSAsAuABAfBMAjBFAiAIBSA/BeAIAIAwBCA*BXAcA*BWAMAIAfA*BGA%AHAWARAjAMBIBjApAAAqBLBXA#A*BWBWBSBWBCBQA]A#BYA]BOAMAAA?ABA=AEAcBFA~ABAEAAAwA#A7AyA=ABAAAAA3AnAMA8A{BjAzBPATADAdALAGANABADABAEA7Ah",
"AXAWAdAzA|AGAQAQATABADA8A|ALALADA8A8AKAMAAA?ABAPA&ALA:ABA6AFAcA~A{AfBMA]AMAsAiBMAsAPAjA=BRBiAMAAAMAMAcAfA*A6BOA_BGAfAEAcAfBLBGAHAWARAjAuBAA<A<AcBAA*BLA6BXBABAA<A6AcA]BWA6AOBQAMAcBQAOAGABAwAcA#ADABAEAMBMAfAWBNA=AAAKAKAZBHAdBPA#ADALADANAdA|ANAAAAA8AzAnAMA7Ah",
"AXAHAFAzAQAdAnBDALAAAAADAzAeALAIANA{AAANBcAABOAPATA&A:AMAuAMAOAOAZAfAfAZAKAsA_A=A=AiA_BQBCA]BQAqBQBIBXBLA_BXAfAqA*AcA~AAAcAjAyAeAWA[AsAuAwBAA]A6BQAqBLBABOABBgBABSAqA!A6A/A/BgBABGBIBQBQBIA]A6ANAnBHAMAwA*ANBEBNBRAAABAGABADAzALAEArArAAAGAQATAGAGArBaAnAQAMA7Ah",
"AXA>BRAzAeANAABPAzAAABBaALAQAQBeBcApADBEA&AZBOAjAiAHBNBMAcANAQAFBMBMAMAOAEBMAfAfApA/BXA{BCBAAfAqBLA]BXAPAjA_A]A<BIAGA|AOAfAiAYAHAHA[BMAMAOATAfBQA6AqAqA]AAA6A]A/AqBCA6A#AEA/A<A6APBAA=A#A6BAAOAOAdBPAMBSA*AHAfA:AGAAA8AHAzA~BOATAFApAFABApANAOA8ABALAEAZBEA#AWAh",
"AXA>AOAOANAQANABBaADABAAA3BHAZAIBUAwA>BgAbBHA3AjA:BEA%AsA&BAAbAdBcAqAfAfBMA-AIAqBCBCA#BXBLBSBFAPAiAiBGBGAqAiA]A<BYA>AlAYAdAqAPA7AWARBFA&A5AbA>AOA6AqAqBLBXBLBLA_BCA*BSBSBABAA<AqA]AcAfBWAMAOALBCA9BHA|BSA*AWAwBNAnAsA%APBEAnAAABABApAMAMANABAFBaBOAEApAZATAwAWAh",
"AXAQBYAZABAdAOAGA3ALA~A#AABPA#AuAIA=AHA~AbAdA|AsBNAHBNAjBEA{AbBDA?A*AqBMA_AwAwA*A;A*BSBFAiBCA*APBGBLBCBGAiA_AiAiA<AeAbBGAHBMAPAWAWARAiAQAYA0A>AqBCAiAjA_A_AiBFBLBCBLAjBAA]A]BAAsA<BABAA!A#A6A~A<AbAeBBA]A*AWA_APAQAjA5BYAWATAAAAAIBfAsAwAnA/AcArAFAMAABaBOAuAHAh",
"AXA>A/AKANBkAFAdAnAQAdA#ApADApAwAAAFA|BBA~A~A#AcA:A^A_AyAOAeBHAeBMBGA*APAPA_BGA;BABSBGBGBCA]APAiA;A<A<A_A*BAAPAPA*BDAeBEBPAiA%BEAWARA*BYBPAeBIAPA*BFA_A*AqA*A*BCBXBMA!BIBAAjA<A<A!A<A~BQAiBGBSAeA]A>ABBGAyAgAyBFBBBDBIAHALA#AAA#A#AFA#ApADA#AEAZBHAZAMAZBHBMAHAh",
"AXA>AEANA8AnAABPBHBHAzAGAfAFAAA=AFBQA/ANANBMBMANBFAgBMBNAwAcAnAOAjAiA*A_AiA:BGBGA_A_BGA*BWA*APAPAPAiAiAPAiBCA:AiBWBQBPBYBLBFAPBEAWA[BLA]A6BYA*AyAPAPBGBCBGA;BGAPAjAjAPAjBSBWA<BIBCA]BLBXBLBCAqA8AdATA=A_BAASAPBLA~ALBZA{A/ApApA#BQBQA#ApAMAFAEAEAdApAOANBDA6AWAh",
"AXAWAKAeALANA#A{BHAMAQAzAwAFABBbBaA6AqAfA=AjAMA>AwAWA&AAAEBFBFAsA=AqAqBUAuAjAIAsAPAiAiA!BWAPAPA:A:A:A:APAPAiA:BWA<AjAqA;APBXBAAWAgA3BSA_AsA_APA:APAiAiAjAPAPA_A:AiAjA:AiA<BIBLBYBWBFAjBABAA<A6AEBSA/BMA/A|A^ALA8A#AfApAEAfAcAEApAFAMA#A#AMAFAwAEAeBQA|AQAeAGA^Ah",
"BKBVASBVASASASASASASASASASASASBVBVAgASBVASA^A^AgA7A7ASASASAgA^AgAgAgAgAgAgASAgAgAgASASASASASAgA^AgASAgA^AgASAgAgAgAgAgA^A7A^A^ASASASASASASASAgAgAgAgAgAgA^A7AgASAgAgAgAgAgASAgAgASAgASASA^A^AgAgAgA7AgAgAgAgAgASAgA7AgBVASASASASASASASASASASASASASASASBVASA^BVA4",
"AXAWAzAeAzAdBgADADAcBQAFA#AfA6BHABANBPAnA&AeBEAHAHBEAWAWAWBEA>AWAWAWAWAHAHA7AHAHA>AHAWA7AHAHA>AHBEAWAWAHAHAWAWA7A7AHAeAeA&AHAWAWAHA7AWAWAHAHA&A>AWAWAWAHAHAHAWA7AWAHAWAWAWAWAWAWAWAWAHAHAWA7AWAHAHAHAHAWAHAHAHAWA>AHAQA8ALBIA~BPAOA{BHA6A{A~BHAdBgBHALANA#BXA7Ah",
"AXAyA%A%AYA%A,AYA%A,A5A[A[A0A0AYA[AYA5ARBFAcBIBYA~BHBYA]BXA/A#ApAFA~A~AAA6BIBSBMAqAjA]BABLBCAqBABWBWBWAqBFA<A<A<A]BABXA]BAA]A]BLBFBWA6A~A6BCAqBXA]BLBLAqAqA6BQAfAsBAA<AcA6A<A/A6A<BIBIA<A{A~BIBQBQA6A]BABQA~BQAfBLA3AjA0ARA[A,AYARA0A,ARA,A[AYA%A5A[AYAYA,A5APA$",
"AXAeBHA]AwBABZAeA8AABZBHA]A6AsA]BPBIAsA_ALBBA0A}AYAYA5A5A5A5A5A5A,A5A5A5A5A,AYA0A0A,A0A.A.A.A.A0A5A0A0A0A5A0A5A0A0A.A.AbA5ARA9A0A[A}ARA0A0A}A0A0A0A0A.A5A0A0A0A0A.A0AYA0A0A5A0A5A5A0A5A5AYA5A0A,A5A.A5AYA0AYAYA}A0AQA?A_BGAjBAAqAiBFAjAjA-AsBMAfAMBFA<A]AjBXAeAh",
"AXA3BXBIA6A#A{BZBHBXA<BAA<A6A/A<BZBIBFAjA|AQAPA.A,A,A5AYA,AYA5A5A5A5A5A5A5A0A5A.A.A0A.A.A}AbA.AbA9A}A9ARARA.A0A.A.A.A.A.A.A.AbA}AVA}A.A.A.A.A.A.A.AVA}A5ARA0A5A0A.A0A5A0A0A5A5A5AYA5A5A5A5A5A5A0A5A5AYA0A0A,A[A5A;A>A?AjA]A*BCA]AjAjBdBMBLAqA-BSBABFBXA]BFAiBEAh",
"AXBcAiBHBIAfAwBPBYA!BGAiA<A]BIBIBZA<BFBFA3BBA*AyAYA,A%AYAYAYA5A5A%AYA5A5A5A0A0A0A.A.A.A.A}A9A.A9A1AVA}A.A.A.A.A.A.A.A.A.A.A.A.A2AvAVA.A.A.A.A.A.A.AlAVAYA.A0A5A5A0A0A5A0A0A5A5A5A5A5A5A5A5A5A5A0A5A5A5A5AYAYA,AYBWAHA?BFA<APA;A<AqA_AqA=BGBLBMBMAqAjAsA<AqAiAQAh",
"AXBVA>AWAWAWAWAWAWA>A>AHAHAHAHAHAHAHAHA>AWAgBCAyA5AlA&BPAcBGA:APAPAPAPAiBGAPAPAPAiAPAPAPA:A:A:A:A:APAiAPAPA:A:A:A:A:AyA:A:AyA:BNA%A:A:A:A:A:APAiAiAPAPA_APA:A:A:APAiAiAiAPAPAPAiAiAPAPA:APAPA:BNAYBNBQAQAQA}A0A5A!ASAHBBAQAQAQAQAeA&AeA&BEAHBEAHBEBEBEAHAHAQBVA4",
"BKASALA&BBAdBEAHBEA|AzAnA|AeAeAQAQA|BBAQAWASBHAPA%A)AHAdAqAiA:BNBNBNBNBNA,AYAYAYAYAYAYAYBNA%A%AYAYAYAYAYAYAYAYA,A,A,A,A,A,A,A,A,AYAYA%AYAYAYAYAYAYBNBNBNA%AYAYAYA%BNAYAYAYAYAYAYAYAYA%AyA%A%A%AYAYA%AsA>BDA)A5A5BHA^A&AQAzA|A|A&BBAzA8ALAnBBBBAzBBAzBBBBBBA8BVA4",
"AXBBBFBZAMBbBDAeBPBbBiAjAjA/BgADAOBQA#BHAHBVAeAyAyA9AOAOA:AYA,ARARARARAbAVAVAVAVAVAVA}AoAoA9AoAVAVAoA}AVAVAVA}A}AVAVAVAVAVAVAVA1A1AoAoAoA9AoAoAoAoAoA9AbAoAoAoA9A9A9AoAoAoAoAoA}A}AoAoAoARA[A[A0AYAYBNAQBCAlAYAYAHAWA|BBAGAnALBBADAfAqBdAsA/A=BbA/AwA/AwBbAjA>Ah",
"AXA|BiBDBOAIBDANBOAwA-AsAjA6AQAQAQAQAEAcAQASBDA%AyA}A5BBAjA,ARA0AbARAbAoAoAVA1A1A)A)A)A1AVA)A)A)AVAVAVA1A1A1A1A1AlA)A)A)A)A1A1A1A1AVAVAVAVAVAVA1AVAVA1AVA1AVAVAVAVAVA1A1A1A1A1A)A1AbAoA}A}ARAbAbA.AYAPA3A%AVA%A%AeA7ANADAdBXAFAHA3BFBSBSA{ApAIBRADAFA/A/BRAsAHAh",
"AXAQBMBZA~A/BZA{AKAEAuBdA_AfAQA|A0AYAzBQAnAgA&AyAYA.A.A&AqA,ARARA}AbA)A2A2AvAaAaAaA4A4A4AaA4A4A4AaAaAaA4A4A4A4A4A4A4A4A4A4AaAaAaAaAaAaAaAaAaAaAaAaAaAaAaAaAaAaAaAaAaAaAaAaAaAaAaAaAvAvAvAlA1AoAoA.AYAPAnA,A}AyAyAWAHA#AEBIA}A0AHA|AjA=A6A~AEAIBRADA#AwAwAwAsAHAh",
"AXA&AsALA{AFAQBHApAAAsA/A_AsA>AHA.A}AWAzAfAWASBIAYA0A}BBAcA,A0AbAlA0A@AhA4A$A(AxAxAxAxAxAxAxAxAxAxAxA+A+AxA+A+A+A+AxAxAxA+AxAxAxAxAxAxAxAxAxAxAxAxAxAxAxAxAxAxAxAxAxAxAxAxAxAxA(A(A$AhAhA@AlA1AoAbA%A#BQA}A.AyAyAgAHAsBXAqAVBCBVA&AsA/BYBQAIBRAEBHAcA/AwBRAsAHAh",
"AXBBBiAnArApANA~AIAEA_AqAjBFAZA7AGA6AeA<BIAHASA{AYA,AVBPAMBNA[ARAoA1AvA4AhA$A+AmAmAmAmAmAmAmAmAmAmAmAmAmAmAmAmAmAmAmAmAmAmAmAmAmAmAmAmAmAmAmAmAmAmAmAmAmAmAmAmAmAmAmAmAmAmAmAmAmA+A$AhAhA@A2AbA0A0A,A~AfAVA0APA<A^AQAqAqANBXAQA^A#AjAfAcAAAEAwAEANAMApAEAIA-AWAh",
"AXAQA=AEAAAMAcAMAAAEAjBFBGAPA_BEA7AHBHBWBYAeASBYAYA%AVA]AMA:A,A,AbAlA@AhA$A$AkBJAUAtAtAtAtAtAtAtAtAtAtAtAtAUAUAUAUAUAUAJAJAUAUAUAtAtAtAtAtAtAtAUAtAtAtAtAtAtAtAtAtAtAtAJBJAtAtAtAmA$AhAhA@A2AYA,A[A,AZBLA)AyA:BDAgA|AsAjBAA>A>ABAjA]AcAwAwAcA#AAAnApAEApAIA-AWAh",
"AXA&AsAuAMAMAEA#AZAMAsA=BCBFA:A]BHBCAPBGBIBPA^A~A%APAVBGBgAyA!AYA.AlA@AhAhA$A+AkAmAUBJAJAJAUAUAUAUAJAJAJAJBJBTBJACACACACACBTACBTAJAJAJAJAUAJAJAJAJAJAJAJAJAJAJAJAJAUAUAUAUAJACAkA+A$AhAhA@AVA,A5AYA,A8BGA}APAYA>AgALBMA!BLAqAfAuAjA<AEAEAEAcA#ADADAwA/AwAIA-AWAh",
"AXAQA=AcApALBOAFABABApAwBLAsAiBXA/BLA*AqBWANAgAzAyAyA}AyBHA*A;A,ARAlAvAhA$A$A+AkAkAUAUAUAUAUAUAUAUAUAUAUAUAUAJAJBTAJACACBTBTACAJAUAUAUAUAUAUAJAUAUAUAUAUAUAJAJBTAJAJBTAUACBJACAkAxA$A$AhA@AVAYA%AyAyA~AYAVAyA%AHAWAOAsA<BAAqBWAfAfAMApAEAIAZAMAAAFA#AwAAAAAsAHAh",
"AXBBAfAwAAAFAEALBkABAKAEAiAsA~A{A!BWAwA6AqATA7AWA;A%A}AYAeBAA,A[ARAlA2A4AhA$AxAkBTAtAUAUAJAUAUAUAUAUAUAUAUAUAJAJACBTACAJBTAJAJAJAUAUAUAUAUAUAUAUAUAJAJAUAUAUAUAJBTBTAkACBJACAmAkA(A$A$A4AvA9AYAYA%A<A#A0A1AyA:A7AHAOA=AwBAA]AqAjAwAEApAcAuADAZAwAcAwAwATAEBdAHAh",
"AXAQAsAuBOAZAAAGADAZAEApAAAEALBDBHAcA/A/AsAFAzAgA6A%A.A5BDA_ARARARA)AlAaAhA$AxAtAUAtAUAtAtAJAUAUAUAUAUAJAJAJAJBJBTACACACACAJAJAJAJAUAUAUAJAUAUAUAUAUAJAJAJAJAJAUAJBJBTACAkAUAtAkA(A$AhAaAlAoARA[A[BIA/A.AVA%A:AgAWBYAcBXA<A{A=AfAMAMAfA_A=A#A#AEAEAIAIAKAwAjAHAh",
"AXAQABAIAAABAAA{AFAMAIA-BLA#AcA{A~A_BiADA!AfAdASAZA%AYA.BIAqARARARA)A)AvAhA$A(AmAmAkAmAkACAUAUAUBTBTBTBTBTBTBTACACACACACACBTAJAUAUAJBJAJBTBTBTAJAJAJAJBTAJAkAkAkAkAkAkAmAmAmAkAmBKA$A4AaAlAbARARA[BYBFA9A.A%BlAgA>BIA!A<A<BQA-AsA/AAAwAiAIApAIBQAFAwAEA/BRAsAHAh",
"AXA&AuAIAIAKAIA{AOApAuAiA_AAAEBLBFA:BGBIA!AqBBASAFA%AyA}A!AMA[AyA0AbA.AvAhA$BKAxAxA+A+AmAmAUAtAtBTAkAkAkBTBTAJAkAkAkACBTBTACAUAUAtAUBJAJBTBTBJACBJAUAUAUAtAkAmAmAmAmAmAmAmAmA+A+A$AhA4AaAlA,A[ARA,AZA%A}A%AYAWAgAQA]A*BABIBQAMAsBFAEAwAiAwBeAEAABQA/AFA/AuAsAWAh",
"AXA&A-AIAAAAAIADANAuBdBdBUBUAIBGAjA*A;BWAMBRA|A^A|AyAyA1A;AcA[A.AbARA)A2AvAvAvA@A@AaA@A@A@A@A@AaAaA@A@AaAaAaA@A@A@A@A@A@AaA@AaA@A@A@A@A@A@AaA@A@A@AaAaAaAaA@A@A@A@A@A@AaAaA@A@A@AvAvAvAvA2AYA[A0AYANA0A)A;A%AHA7AGAMBYA#A!BIBcA-AjAMABAqAwAKAMAEAEBiAwArAIAjAWA4",
"AXAQA-BRBRAEAIAOAAA-A-BRBUAIA=AqA=BMBXAABAAfALA7AHAyAyAlA%AAA,ARAbAbA)AlA1A1AVAVA)AlAlA)A)A)A)A)AlAlAlAlAlA)A)A)AlAlAlAlA)A)A)AVA)AlA)AlAlA)AlAlAlA)A)A)A)AlA)A)AlAlAlAlAlA)A1AVA1A)AlAlA1AYARA0APAcAbAVBWAPA7AHAEBAA<A6A]A6AuBdAEAOAdAAA=BOAMA/AEAfBRArApBdAWA4",
"AXAQA-BRAuBUABAEAIBUAuBUApAuAiA?A#AcApA6A;A!BDA7AgBGAyAvA.A6A:A[A[A0ARARARAVARAoA1A1AVA1A1A}A}AoAlAlA)AlA2A1A)A1A1AlAlA)A1A1A1AVAoAVA1AlA1AVAVA)AVAVA)A1AVAVA1AlAlAlA)A)A)AVAVA1AVAVA9ARA,A,A,A,BLAPA9A}AqBLA7AHBWA*A!BIA6AjBdAsAfAZATAZAcAOAAAEApATArAIAwA=A7Ah",
"AXA&AiAwAIBUApAABUBiAuA-AiA-AuAAAZAAAEAcAyBCA~A>A^A;A;AlA5BIBNA0A5A0A[A[A,A,ARAbAbARARAbAoA[ARARAbAbAoAbA9AbAVAbARAbAbARARARAbAbARARARAbAoA1AbAbAbARARARARAbAbAbARARARA,A[AbARAoAVARA[A[A[A[A%AyA_AcA.A}A*A!A7AWA<APA_BYBIBMAjAjAsAwADAEA-BUAuAIAIAKApApAIA-AWAh",
"AXBBAjAEAIBRAIA?AwBdAuAuAiA-AuAEArAZAcBXAyA!A<A|A7AqAPA}A5A6AYAbA0ARARA[A[AbAoA9A9A9AbAoAVAVA1AVAoAVAoAoAoAoA1AVA9A9A9AoAbAbA9AbAbA1AVAVA1A)AVAoA}AoA9AoAoAoA9AoAoAbA9ARAbA9AoAVAVAbARARARARA[A,AjBHA.A}AyBIA7A&A]A;A;BXA/AwAsBXAjAiAfBOAIBUBUAKBUAuAIBRBUAsAHAh",
"AXBBAjAuA-AIAAAAAEAjBbAIAIAuA-AwAIAIA/A6A;A<A]BRAgBBAPA5AYBIAPARA[A[AbAVAoA1A1AVA9AoA9AVA1AlAlA)A1A1AoA1A1AVAVA1A)A1AVAoAoAVAoARAbAlA1AVA1AVA1A1A1A)A)A)AVAVAoAoAVAVAoAVA1A1A)A}A9A9A9A9AbA9AbAbAqBYA0AbAyAWAgA3A_A;A;BGAcAEAKAsAjAuAEAuBMAcAwAEBUAwAIBRAuAsAHAh",
"AXA|AsAIAIAuAIBUAIBUBeAKAKA-APBCAwAcBIA*APBXA!A<A7A>AyA5A}A;A~A%BNBNAVA1AvA4AaA4A$A$A$A$A$A$A$A$A$A$A$A$A$A$A$A$A$A$A$A$A$A$A$A$A$A$A$A$A$A$A$A$A$A$A$A$A$A$A$A$A$A$A$A$A$A$A$AaA@A@AlA9AoARARARAQA0A.AYA;A7AHBAAPAPAPA:BSA=AMAcA=BUAsAsBdA-AEADAIAuA-AuAEA/AWAh",
"AXA|AuAIApAuBUBUAsAuAKA=BeA-AiAPA=A/A]AyAiAsA!BYA7AHA5A5A)AyA&A%A%BNA1A2A@AhAhA$AxAxA+AxAxAxAxAxAxA+AxAxAxAxAxAxAxAxAxAxAxAxAxAxA+AxA+A+AxAxAxAxA+AxAxAxAxAxAxAxAxAxAxAxAxAxA(AhA4A4AvA1A[A,A[AYAeA}A9AyA;A^A>AqA;BGA_APBXA=AAAMAjAsAiAIAEA=AKA?AIBRBbAuAFAsA>Ah",
"AXA|BdAuBUBUAMAIBdAuBUA:AIA-BFBLBbBRA_AyBCA*A_AAA7AHA5AyA)A;AWA0A[A[AlAvA@A4A$A$AkACAtAtAJAUAJAkAtAtAUAtAtAtAtAUAJAJAJACAJACACACAJAJAJAJAJAJAUAJAJACAJAJAJAJACACACACACACAkAmAmA$AhA4A@A2A%AyA,BNA&A}A}A:APA^AHAsA!A!BGA*BAAwBOAEAIBMAjA-AIBRAKAEBeAIAIAEAIAsA>Ah",
"AXBBAsAuAuBUAOBOBeBeBRBdApAuBbAEAMAjAiAqA*A*APBdA>AWA%A*AlA5A7A%A,A%A9A2AvA4A$A$AmAkACACAkACACACACACACAJBTACBJACBTACACACBTACACAJAJAJAJAJAJACAJACACACACACACACACACACACAkAkAmAmAmA$A$A4A@AoAPAYA[A:A&A1A9AyAMASA|BAA;AiBFAcA/ArBOAMAcAuAIAIAMAKAMAEBOAIAZBOAIA-AHAh",
"AXBBBdAuA-BRBRAIBUBUBUBUBUAIAIAIA/AjAiAcAPAiAiAjA&A7AcA<A}A0BPA%A,APAYAlA2A4A$A$AmAkAkAkAkAJAUACACBTBTACACACBJBJACACBJBJACAJAJBJAUAJAUAUAJAJAJACBJBJBJBJAJBJBJACACACACAkAkAUA+A$A$AaAvA9BNARA,BFBZAVA0A;BYASA3A]BGBFBdAEAjArA?BUBbA-BRAIAKAIAuAMArAEBHABAIBiAHAh",
"AXBBBFA-AuBUAKAGApApBeAKBUABBaApA_AiAjABBCBFA_A!AdAgA7A<A0A0A6AYA[A,A,A1A2A4A$A$A+AkAkAkAUAJAJACBTBTAJACBJACACBJACACBJAJAJBJAJAJAJAUAUAUAUAUBJAJBJAJAJAJBJBJAJBJACBJACACAkBTA+A$AhAaA2A9ARAbA%BgA<A9A0A;AOA7A3A!BGBdBFBFAjABA?AIA-AsAIAcAKAuAwApApAZANApBOA=AWAh",
"AXA&AsBRAIBRAKAGAKAKArBfArA?A?AKAiAiAuBOBLBFAqBAAGAWAHAyA}A}BIAjAYAYAYAoA2A4A$A$A+AkACAkAkACACACBTACAJBJACBTBJACBJBJACBJACBJBJBJAJAUAUAUAUAJAJACACAJAJBJBJBJAJAJBTBTACACAkACAxA$A4AaA2A9A,A5AYA8AyA9A0APA&A7A6BCA*BFBSA/BdAAAuBbAsAuA?AEBbAIA?A?AKA?ABAEAAA=AWA4",
"AXA>AEBRBRAKAKAFAIAKApAGArBUBbApAjAsA?AcBCBdAqAqArA7AHA,A0A)A!A?AyA%A[AVA2AaA$A$AxACAkAkAJACACAUAkAkACACACACACACACACACACACACACBTBJAJAJAJAJAJAJBTBTACBJBJBJAJAJAJAJAJACACAkAkAxA$AhAaA2A9A5A,A%BBA0A9AyAPA7AWA!A*BCAqBQAqAjAMBdBdA=AEBSA*AMAKArA?AKApApAMAEA-AHAh",
"AXA&AcAwBbAKAKABApAIApAKBeAuAjAuAuA-AIA/BWBLBLBWAFAHAHA%AyA)A%ALAPA%A,AVAlA@AhA$A(AmAmAmAkAkAkAkAkACACAkAkAkAkAkAkAkAkAkAkAkAkAkACACACACACAkAkAkAkACACACACACACAkAkAkAkAkAmAmBKA$A4A@AlAbA[A[A:A8A0A}AYA<ASBEA<BCA!A<BWAPAsAKA-AjA=AMAIAsAKAKAKAAAKAIAKAAApA=AHAh",
"AXA>A-AIA~AFArAOA?AAA?BcA?AuBFBFAIAjBFA#A*BCBFA/AMA&A^A;A%AVAPALA,A,A,AVA}AvA4AhBKA+A+A+A+A+A+A+AmAmAmA+A+A+A+AmAmAmA+A+A+A+A+A+A+A+A+A+A+A+A+A+A+AmAmA+A+A+A+A+A+A+A+A+A+A+A$AhA4AvA9ARA,A,AiAFAbAbA5BYASAQAqA*A!BCBFAiAcAIAjA-AjAcBOA?AKA?AnBcBUAIAKAKBhAjAHAh",
"AXA>A-AIBDALApA8AGAFABBcBeBUA-APAIA=AqAwA*A!APBNA]AQA^BYAPAVAYA/AYA[ARAVAlAlA2AvAvA@A@AvA@AvAvAvAvAvAvA@A@AvAvA@A@A@AvA@A@AvAvAvAvAvAvAvAvAvA@A@AvA@AvA@A@A@A@AvAvAvAvAvAvAvA2AvAvA2A2A.A,AYAPA#AlAYBNANASBDA!A]BWAiBRAiAsA-AcA?BMA=AKBOAIAKANAZA-AuAEAIAGAjAHAh",
"AXA>AuAKABBOAEAKAIAuAcAABUBUBRAjAKA=AiBUApA]BAAqA!BDA^ALAjA}A0A~A%A[A[A[AbAoA)AlAlAlA)A1AlAlA1A1AVA1A)A)A2AlAlAlAlA)AlAlAlAlA1AVA1AVA)A)AlAlAlAlAlAlA)A1A)A)AlA)A)A1A1A1A)A1AVA1A)A1ARA,A[A%AqBSA2AyAPAQAgBZA!A*A]AiBSBFA=BiAIApAuAIAMAKAKAIAKAKAfAuAIA#AAAsAHAh",
"AXA&A=ApArArAwA?ABAuAGADBbAKBUAIA?A=AiBUAuAcAcA=BMA8AgANAPA5AbAqBNAYA%A[AYAYARAbAbA9AoAoA9AVA}A9A9A9AbA9AbA9A9A9A.AoAoARARA1AbAbA9AbAoAbAVA}AbAoAbA9AoA.ARAoAoARAoARA9ARAbAbARARA.A,A,A,A%A%AAA_A)A*AyA&AgABA_A*A!A*A!AjAuAuAKAuAKBfAIAuAKApAKAKApAIAKABApBMAHA4",
"AXBBAjAAAAAKAuAGA3AEAAAKBRBRApAIArA/A_BUAwAMAAA6AfA3A^AdAyA5A}BLAPA%A%A[A,A,A,AbAbA[AoAbARAoAbA,AbA9A[AoARA[ARARAoAVARA[ARAoAbARAbA9A[ARA9ARAbAbA,AbA}ARA,A[AbARAoARA[A[ARA9ARA[A[A[AYA,AyA%A=A:A1A!AyAeAgA~BLBFA;BWA<AjAsAKAABFBbAKBeBUApBeAKAKAKApApAFAAAwAWAh",
"AXBBA-ANAdAOBUAEAEAFA~BRA-AIAKAAAMAKAqBSAKALA3A6A<BHAWAgA%AYAlAyAQBNA[A[A[A[AoAbA9A9AbARAbA9AbAbAbAbAbAoAbA9AbA9A9A9A9AoA9A9A9AoAoA9A9A9A9A9AoA9AbA9A}A}AoAoAoA9AbAbAbA9AoAVAVARA0ARA,A[AbBNAEA0AVA;BIAgAHA<BAAsA=AuAEAjA=BcAjAiAuALALBUA?ArAEAKAKAAAFADA8AFA7Ah",
"AXBBAsALAzAOBUBUAEAAA?A?A3AuBRArApArAjA_ApABBOAcA<BIAHASA%A:A)AYA&AiA,ARAoAVAVA)AlAvAvA2AvAvAvAvAvAvAvAvAvAvAvAvAvAvAvAvAvAvAvAvAvAvAvAvAvAvAvAvAvAvAvAvAvAvAvAvA2A2AvA2A2A2A2AlA1AVARARARAPATA0AVAyBYAgAHA6AfAfAfBMAqBFBFA?AsBFAEAnA8ABABArApAKAKAAADAGAnAfAWAh",
"AXA&AsApATALBeAjA=AIAIBeAnA-BFAuAIArAsBFA?AKAKAwAPAqA&AgBGA*A)A0AeA]AYARA1A2A1AhA4A$A(A(A(A(A(A(A(A(A(A(A(A(A(A(A(A(A(A(A(A(A(A(A(A(A(A(A(A(A(A(A(A(A(A(A(A(A(A(BKBKBKA$A$AhA4A4AlAlA0ARA.AfBBA}A}AyBHAgA&AsA*A]A]BWA]BbA=ArAKA_AIAKAGAQABBeAKApAIBDAdAKAEA-AWAh",
"AXBBAsAIANAzAGAfBSAuAuAEBcArA=A-AuAAAcA/A~BIA6A!BCA_AQAgBXBWA}A0BDBNA0A5AoA2A)AhAhBKAxAxAxAxAxAxAxAxAxAxAxAxAxAxAxAxAxA+A+A+AxAxAxAxAxAxAxAxAxAxA+A+AxAxAxAxAxAxAxAxAxAxA(AhAhA4A2AlA,A0ARBMA~AVA9AyAdASAQBLA;BWAwA]A~BRAuAAA?AsAuAAAFAnABAAAIAKAZANA~ApAEAsAHAh",
"AXA|AsAIAOAzAQALA#BbAIAKBRAAAABcAuAEAIAAAMAcA6A!AqA!BZA7A3BGA0A.BIAPARAoAbAlAlAhA$A(AtAUAtACAtAtAtAtAtAtAtAtAtAtAtAtAtAtAtAtAtAtAtAtAtAtAtAtAtAtAtAtAtAtAUBJAtAtAtAJACAtA+AhA$A4A@A1ARARAYANAyAVA5A;A7A7AZBFBRAjBWBGAOAuAEA{AKA-AuAEAAABA?AAALABA~AEAOABAEAsAHAh",
"AXA|BdAAAdBhALANA#AwA/AEAKAuAMAGA-A-AwA*BGAMAsAjBGA!BPAgAWAPAyA)BWAjA[A,ARAVA2A$A$BKAkAkACAkAkACACAkACACACACACACACACACACACAJACACBJBJBTBJBJBJACBJBJACBTAkAkAkAkAkAkAkAmAkA+AhAhAaA@AVA,A[A%AzAYA)A%A;A^AHAZBLAqA*A;A]BRBRAKA?BdAqBXArAGAOAAAOAdA?AEAAALABAEA=AWAh",
"AXA|AjAABDABAOAOA#BRApBRBRAuAuAuAsA-BRAjBCBWA]BFA*A!BIA^ASA*A;A2A;A=A[AYARA9A2A$A$A$AmAkACACACACACACACAJAJAJBJACACACBTBJAJAJAJAJAJAJAUAUAJAUAJAJAUAJBTACACACACAkAkAkAmAkAxAhAhA@A@AVA,A,A%A|A5A1A;A;A^BEBYA!AiAiBGAMA-AuAuA-BbA6BMABAGADArAcA#ArAIAwA#AAAEA=AWAh",
"AXA|AjAuArABAQALApA?A?AAAjAIAfA-AuAuBeAuA=AfAcA6A!AjBAAWAgA*A;A2A%AqA%A!APAoA2AhA$A$A+ACACAkACACAJAJACBJAJACACACACACACACAJACBJBJAJAJAJAJAJAJAUAJACACACACACACACACAkAkAkAmAxAhA$AvAvA0A;A;BNAOA0A}A;BAASBBAiA_BLBLA<BYBABbBbAKA-BdA-ADArApAIAIAEAKAIApADAAA{A-AWAh",
"AXA|BdAEAAArAdALArAGAKAKBSBOAMAOA-A-AKAfAsBQAABIA<AfA6A>AWAPA*AlA5AjA:A!AyA9A2A4A$AhA+AkAJACACACAJACBTAJACACACACACAkACACACACACACBTAJAJAJAJAUAUAJAJBTACACACBTBTACAmAkAmAkA(AhA$AvAvA5A;AYBNAcA0A.APBIAgALAiAsA]BCA]BIA<ApBbAAAKAuAuADAAAuAIAIApArAKA8ANA{BPA-A^A4",
"AXBBAsAEAFAAAAAMA8A>ArA?A?AKAMBDAsAsApAMAcBHAGAsBIA<A<AzAHBIA*A)A5BMA:A,A[ARA1A@AhAhAxAmAmAmAmAkAmAkAkAkAkAkAmAmAkAkAkAkAkAkAkAkAkAkAkACACACAkAkAkAkAkAkAkAmAmAkAmAmAmAmA(AhA$A@A)AbA0ARAiAPA.A%AyBEAHBHA!BbBWBGAiA?ArBOBOAAA?ABAKABAMAMAFApBUAMA?AnA#AeAeAfASA4",
"AXBBBSA/AAArAMA#ANAQABBcA?BeBcBPBWA=AKAAA?BDA~BAA<A]BXA~A7A&AyA}A5BIAiARA9ARA9A@AhAhAxAmA+A+AkAtAmAtAtAmACBJAkAmAtAtAtAUACACAtAtAtAtAtAtAtAtAtBJAkAkAtAtAJAkAmAkAkAmAmAkBKAhA4A2AVARAbAbA_BAA.A%AYBEAHA<A!BLA*AqAcAcBOBIBHBOAuAAAAAGAAAEAAApAMBeAKBaAOAeBDAsASA4",
"AXBBAsAwA/A#AMApAAArADA?ArBfA?A6BAAcAKAKA3AeBIBIBAA!AjAcA^AHA%A.A.BYA-A9A9AbA)A2AvA@A4A4AaA4A4AhA4A4A4A4A4A4A4A4A4A4A4A4A4A4A4A4A4AhAhAhAhA4AhA4AaA4A4A4A4A4A4A4A4A4A4AaA@AvAvA2A)ARARARAsBLA}AyA%A7A>A=AiAqA6AcBYA]BOBYBPAEAsAOALABAEAqAKBeApAKA~AAALAeABA-AWAh",
"AXBBA-AwAsA/AEAEAAA8ANArA?A3A|AOA3AIAfAuA?BDBHBWBdA;A*AfAWAHAYAYA}BCAfARARA9AlAlA1AlA2AlAlA2AvA2AlAlA2A2AlAlAlA2A2AlAlA2A2AlAlA2A2A2A2A2A2A1A2A2A)AlAlA)A2AlAlA)A2AlA1AVA)AlAlA2A)A[ARA0AAAyA)A;A*ASA>BRAiA6ANAZA]A]A3ALApAZBHBZAnALAEBMAAAABcAnAzA3ALBPAMAMA^Ah",
"AXBBAuAwAcAwAEArAMAQBBBgBfAdAzAABYBABXBFBRAABSAqBdBCBCAwAHAHA%A;A}AyBOA[A[A[A0AbAoAbARAoAoAVAVAVAbAoAoAoAoAVAoAVAoA1AVAoAVA9AVA}A}A)AoA9AVA1AoAoA)AVA9AoA1AVAoAoAoARAbAbAbA9AbARARARARA,AzA%AlA;A]AgAWBhBCA<A~AZA]A6BOAAAIBHBDBDANAQAGAAADArApA3AeBEBDAZA?BHA^Ah",
"AXA|AFAIAuAAAIAKA?ALAnA<AnBBABAcA<BHBYAFAAABAcBCAqBWBCBSAeBEA!A;AVA%AOAYAYA[ARAbAbARA.AbAbARARAoAbARARAbAbAbAbAbARAbAbAbAbAoA1AbAbAoAoAbAbA1AbARAoAVA9AbA}A9A.A9ARA[ARA.ARARA0A[ARA0A0AYBZA5A}A;A!AgA&AFA!A!A=AfBbA<A6ApAdALAAAOAAABAnAnBQA{AMBZBDAEAOAOANA6AWAh",
"AXBBAwBRAEA8AIAIA?ATAOA~ArBBAeA#A]AMA6AwBSAMA6A<A]A!AqA6AeAgBHA;AlAyBEBNA[ARAVAoARARA9AVAVA9AbAVAoAoA9A}AVAVAVAVA}AoAoA}A9AVA)AVAVAVAVAVAoAVAoAoAoAVAVAoAoAoAoAoA9AbA9AoAoARA[ARAbARA,AYBHAyA.A;A<AgAQA6A!AsBMAqBSBIBPAQA>ALAAAAAMBRAAADA=A=AMA<AOAAAABHA{AfAWAh",
"AXA&AuBUAIAEAIA#AMABAAA=AwA|BEAMA=ArBYA<A<AdAOBQAcAjBFA!BZA7AdA;AlAYAzA,AbAVA1AoA9A)AlA2AvA2A2A2AvAvA2AvAvAvAvAvAvA2AvAvA2AvAvAvAvA2A2A2A2A2A2A2A2A2AvA2A2A2A2A2A2A2A2A2AlA}A[A}AVAbA9A,BHAYA)A;BDAgAnBAA!AIAqBAA#BPAeBZANBPBHAZAfA-A-AEAcAfA]A<BEAOAKBOAMBMAWAh",
"AXAQAAAKApApAAAZA#AOAOBdAwAOBDBQAcALBDBZBHBEALAfAcAjAjA!A{A>BDA;A.A.A<A,A9ARAlAoAvAhAhA$A(A(A(A(A(A(A(A(A(A(A(A(A(A(A(A(A(A(A(A(A(A(A(A(A(A(A(A(A(A(A(A(A(A(A(A(A(AXA(A$A4A4A1A.AlA5ARAYBWA0A0AyAHAWA3BLA<BIBWA6ADA{BPBPAeBDA~AcAcAuBOA8AzBHA6BZBEAOAKABA8AsAWAh",
"AXAQA6AKApAOABA|AnBjBHAuAAALADBfAGA|AeAHAQAIA<A!BABCA!BGA/AWA7AyA0A.A;A:ARA[AbA1AaAhAhA(A+A+A+A+A+AmA+AmAmA+A+A+A+A+A+A+A+A+A+A+A+A+A+A+A+A+A+A+A+A+A+AmA+A+A+A+A+A+A+A$A4A4AvA)A9A0A[AsA!A}A%A;AWBEANA=A]A<BYBZBPAfAdAHBEBPAZAMBDA~AiAnA^AZBMANAQBOArABALA#A^Ah",
"AXBBA=AEAAAFAMA|ALA{BDAIAAANAABSAFAOAdAeAdAcBIA<A~BLAiBGA]AHAgAyAYA}A%BiA,AyA[A1A@AhA$A(BJAtAtAtAtAtAtAtAtAtAtAUAUAtAUAtAtAUAUAUAUAUAUAtAtAtAtAtAtAUAtAtAtAtAtAtAtAtAUA$AhA4A@A)A[A%AYAfA;A)AyA*A7BEAOAuAfBAA#BHBDBZBEA^BDBYAAA{BPAFAcA7AHA6A/ATALA3BcArANAEA7Ah",
"AXBBA-ApAEArA?BfA?AOAQBRApAEAEAsAsAfA-A-BHBDAwBdAKAsAiA_BWAeA^AyAPAVA5A#A,APA5A)AvAhAhBKAkACAUAUAUAUAUAJAJAJACACACACACACAkACACACAkACACACACBJAJACACBJBJBTBJAUAUAJAJAkAkA$A4A4AvAlA,A<A%A=APA2A%AiAgAHAcA-AqBWA/BYBEBEA{A>BZAcAFBHA/AwAdBEA~AwAdBDAMBDA8ApAAA/AWAh",
"AXBBAuAAAAAFA?A?AKAAAGBdAwA{ANADAMBMAqAcAOBDBDA<AjA<A!A;BCBDA^A!APA}AYBDAYA,AYA1A2A4A$BKAmBTAUAUAtAtAtAUAUAJAJBJAJBTAJAJBTBJBTACACACBTAJAJAUAJAJBJBJAUAUAUAUAJAUBJAmAkA$AhA4AvA)A[A%AyALAYA}AyA<ASBDAEBOBZBIA=BYBPBPBDAeBHANADAEBPAQA|BIBQAAAdAdAAAOABBRAEAFAWAh",
"AXBBBMAABaABABAZBOA?AIAjA-ALAeA8AKBSBWAAA{ALAeBIAfBPA!A;BGA3A^BIAyA9A%AeAYARA%AVAlAaA$BKAmAJAUAUAUAUAtAUAJAJAJAJAJBJAJBTBTACACACBTBTBJBJBJBJBJBJAJBJAUAUAUAUAUBJBJACAmA$AhAaA2AVA,A;BGBPAbA0A;BYAgATApA~BDAeAZA6BSBDAHBHBDAdALAOBDBEAnAEAFAZAzA8AEAIAFAcAAATAWAh",
"AXA|BFAEA8ArABADABA?ANAEBRBQAZArBiAwAcAABgA6A#BHAHA>AeA{BAAOAHAQAPA5A5BPA%ARA[AoA)AaAhA$A+AtAtAtAUAtAtAUAtAUAUBTAJAUAJAJAUAJAJAUAJAJAUAUAUAUAUAUBJBJAUAtAUAtAtAUAUACA+AhAhAaA)A9A[ARAPAeAVA0A!BYA7AcAQBHA%BEA7BDBHAeBHAcBZAFBDBDBYBYAAA#AMALATAKA#AIA{ADArAcAWAh",
"AXAQAiAIAGA8ArA#ArAOAZAqAwA{BOAKA6AcA=A6BZBIA=BHAHArAoAyBDBQAWAHBGA0A5BZBCA%A,AbAVAaAhA$A+AkAmAmAmAmAmAkAkAmAmAJAmAmAmAmAmAmAmAmAmAmAmAmAmAmAmAmAkAkAmAkAkAkAmAmAmAmA+AhA4A@AVARA0A,AiAeAVA0BIAeAWA#AHA%A9ASBEA{BZBDA~AcBHA6BPBZBPAeANA6AfBIAIAcAcAcBOABABAwA7Ah",
"AXA>ADAAALAQA?A#AAA{AZAjAEALAOAKA~ABBMAfBZBIBMA6AeA&AbA!A7BYA^A^A;ARA0BYBIAyAYARAoA@A4AhA(AxAxA(A(A(A(AxAxA(AxAxAxA(A(A(A(A(A(A(A(A(A(A(A(A(A(A(AxAxA(A(AxA(A(A(A(A(A(AhA4AvAVA0A5AYAjAeA}A5A<AHAWA{AHA:A0ASAQBjBZAeBHA6AeBPA{BYBDBEBDBYA<AfAIAEAMAMAKAMBHBSAWAh",
"AXA&BQBSArAOA3AEAwALAFA=AEADAFAAABAZA~AEBZBIBIA6A~BEA7AWBDBZAHASA;A5AbAyAjA[A[ARAlA2AlAlA2AvAvAvAvA@AvAvAvAvAvAvAvAvAvA2A2A2A2A2A2A2A2A2A2A2AlA2A2A2A2A2AvA2AlAlAlAlA2A2A2A2A2A.ARAYAqBHA9A5A!ASAHAFBPBEAWAzBHBZBZBZBDAeAeAeAeAeBEAeAeAeBDA/AZBPBPAAABAOA{BQA^A4",
"AXA^ALALAzBBA&BBA|AeAzALA|BBAzAQAeAzAzA|AQBDAzAzAdAeAeAeAeA&AWAgAPA,A9AYAnA,A[ARAVA1AoAoA1A1A)A1A1AlAlA)A)A1A1A1A1A)A1A1A1A1A1A1A1AVAVAVA1A)A1A1A1A)A1AoA1A)A)AVA}AVAVAVA9AoA9AbARBNAnA_A.AYAqAgAWAeAeBEAeAQAeBEAeAeBEAHBEAHAWBEBEBEBEBEAeALAdA>A>A|AzAQBBAdBVA4",
"BKBVA7ASASASASASAgAgAgASASASASASAgAgA^AgAgAgAgAgAgASA^AgASBVASASBCBNA.A5BEBNA%A[A[A[A0ARAbA0AbAbAbARAbARARARARARA0AbARARAbARARARARARARA0ARAbAbAbA.AbARA,ARAbAbAbAbAbARA0A[A[A,A.A0AyAQAyA5AyAfASASBVASASASAgASAgASASASASASASAgASASASASAgAgAgAgASASAgAgAgASA7BVA4",
"AXA>AcAOAZAZAMAAAEAwAEABAAAMAFA?AEAEA6A6AMBOATA~AcBAAcAcBMA]AOA>BXAwA5A0BEAjAPBNA:AiAPA:BNAYA,BNBNBNBNA:A:A:AyBNA:AyBNAyA:A:A:APAPAPAiAiAiBFA:A:BNA:AiAjAiAPA:A:A:BNBNA:APA:A:BNAiAFAWA0AYAiAqA&AOBYA~BOAOA{BMAfA/AcAfAMBABAATA6AcAwAfAcAcAEAZADA6AcAcAAAOAcA7Ah",
"AXAjBNA:BNAYBNBNBNAYBNBNBNBNBNAYBNBNAYAYBNBNA%A%A%A,A[A[A[A5A:A|ALA]AYAYAeAyA}A0A0A.A.A9AVA)A1AVA}AVA}AVA}A}A}A}AVAoAVA}A9A9AoAoAVAoAVA}A}A}A.A9AVA}A9A}AbAbA}A.A}A1AbA9A.A0ARA0ARA5A|A.AYBWBHANA:A%AyBNAYA%AYA5A5A,AYBNAYBNBNA%AyAYAYAYBNBNBNA:A:BNAyA:A:BNAZAh",
"AXA>BcA3AGAMA?BcAOBcA3A3BcAOAABSAZABAwAOBPApAiA!BOAMA*A*BIBZAMA>BEA!AyA%A!A}AlA.A}AlAlAlA2A2AlA2A2A2A2AvA2A2AlAlA2AlA2AlAlAlAlAlA2AlA2AlA2A2A}A)AlA)AlAvAlAlA2A}A)AlA}A)AVA.AVA}A}A9A%A.AyA<AWA>AjA3AOAIBGBGAcA]A!AcAAAEAEABAiAqAQAGAAAAAZAZAZALAnAEAGAnANAsAWAh",
"AXAQA6AcBbBbAuANBOAsAEA8A=AfAsBSAjBiAqAPAiBdBCA!AiAjA<A<AqBWA!A3AdA;A%A%AYA,BNAyAYA[AyAyAYAyA;AyAyA%A%APA;APAyAyAPBNAyA;A%AyBFAYAyAPBdA;AyA%AyA;APAyA;A;AyAyA;AyA!BWA5AyAyAyAyAyAPA;A%AYA_A]ALAMAyA:A!APAPAPAPA*A]BGAyAqA/AsBFAqAsA=AfAqADBMBAA=BiAfAfAwABAiAQAh",
"BKASAQA&A&A&AeAHAHA&A&AWA&A&A&A>A&A&AeAQBBAQAeBEAeAeBEBEA&BEAeA&A>A%A%A;A!A;A;A;A;A;A!A]BLA!A!A;A;A;A;A;A;A;A;A;A;A;A;A!A;A!A!A;A!A!A!A!A!BGA;A;BGAPA*A!A;A;A!A;A*A!AyBCBCA;A;BGBGA!A*BGA*A;AeA>BDBBAeAzBBAQAQAeAeAeAQA&A>A&AeAeAQA&AeAQA&AeA&A&A&A&A&A&BEAnASA4",
"BKBVA7A^A^AgAgAgASAgASAgAgAgAgASASAgAgASAgAgAgAgASASASASASASAgA7AHA*A!A]BIBIA<A]A]BIA<A6A<A<A<A!A!A!BCBGA*BCA!A!A!A!A<BWBWA]A<BZBZA]A!A!A!A!A!A!A!A!A!A!A!A!A!A!BWA!A]BAAfA<A<BABXBIA<A<A!A!AHAgASASASASAgASASASAgASASAgAgAgAgAgASAgASAgA^A^AgAgAgAgA^A^A^AWBVA4",
"BKAgAOA|BBAdAdA>AQANAzBBALAzAnAQA&ALANAeAzAdAdAzBDBDAQAQAzA>BBArABA7AWALALBlALBcANALAzALA|ALA3BBA|A|AdAQA|BPAdAQA|AnAzAHAnABA3ASASBYBHAzAeBHAOALANALAnA3A3BBBBAdALA|AnA|A|BBAQAQAQAQA|ATA>AWAnAzAeAHBEBEBEAeBEAeBDAeBBAFAQBEA>AQA>BEAeALA|A3AdBDBDBDADALAdAdASA4",
"AXA{ATAZAOA8AGAGATABABBBA3AGADATAGABAFAnANALATA~A{BPBYAeAdAyAyAzAjAfA^AKArAZA0BAAQApBSAqAjBCAqA]A]AfAqAqA/AqA]A6BAArA]A5BCAEBFAnAWA:A~AyA5A{BOAcAMBMAqAZBMBXBABCBCAABAA<A<ADABA6BQAAA=A_AWAAA6AeBZA6BZAeA~BEBDA{BHBZBPAZANBZBkA8AdAnANADABArAZBHBHAOAFAZALAZA7Ah",
"AXAqA8AMAZANABAAAZAAAAAzA3ApApApA#A#AEADABBkA6AjAABQBABDAQA5AYAHAjAyAHBdBiBPA.A6A&BFA_APA:A;BGAPBGBCBGAPBFA*A*A*BGAEBAA9BGA~AyBYA>A5A6A0AoA8AOA_BLAiBGA]A_APAiAPAPAqBGA!BCBSATA0A0AHAiAPAWA:BXBEA5A%AQAeAsAeBHAcAZBHA{ABADBHA{ADABAOAAAAA#AAApAZAFAFABAAA|A#AHAh",
"BKASAEApAdALAAAFAOA8A#BQATA3AAApArATAEA=AAAMA/AfAAAAAMAdA^AdBHAeAqA,A&A/BFALA>AeAcAPA*A;APAPAqA_BLBFA_AiA]AFA_A*BWA_BEA#AQBAAYBPA>A.A;AdBEAQAjBGBCA*A*AiAPBGAiAiBLAPBGBCBGBLAdBLA]A&BLAPA&AYAqBEA%BIA^AdAfBHAfAMBgArArABABATAeATArAnABAAA{BkA/ATAAApABAZA|A6AHAh",
"BKA^AEApAOA{AAAFAGAnBgAZADATAMADABBaBjAAAMAMA~AZAAAMAIBOBZAeBDBIAcAYBBAAA_BYBPBIAPBGAiA*BGAPAjAiA*AqBWA*AqBSA*A*A*BCA~AQBIAPA%BPA&A.AyA<BPBIAPBGA*AiA_A_BGBGBFAiA_BLAiA*A*BWBAANBPBWBCA]AQA,BSANBEAHBDA/BABYApA6AAAZAFAAABAGAnABAFA{ADAAADAGAEADABA#BjA3ALA/A7A4",
"AXA>BSAMAAABAFAFAGAnBaAFAFAAAMBkATATAnAZArAAA/AcANAMAIBRA6A6BIA<ArBNAQAFAyA!BCA]BGBGBGBAA!APAPBGAiBGA*BCAPAPBCBCBCA*BGA<BCAPBNA{A&A.APA*BCBGAPAPBCAiBLBLBFAPBXBCBLA#AiA]A!BLAPBWA6AqBWA]AdA5A6A6BABIAfBIA<AOA~BIAAAFAABOArBgArAFAFAZAFAAArAAAAAcAAABAzBBAAAsA^A4",
"AXA>A=A8ABA8AOAFAGBaArAAAAAOArADAFArBaADALAZAwAAAOAFAZAABQBbBCA]AuAPBHA&BGA*A_BLA/A6A]A{BYAjA*BGA_BFAiA_A*BAADBCA6BIA]BWBWA*A%BDA&A.A;BAAqBCA*BGAFAfAPA*AiAqAfBXBXBFA#AEAqAfAFA6AfAcAjAGAzAYAqAwBeAIAEA~A{BPBPAAArAAApABArAFAFAFBaADAFAMAAAAAAAOAnADA3A8AFAFAgAh",
"AXAQBbA3BgATA3ADADADABAFAMA8ABAFATADApAMAdAGAKAAA/AFADAOAFAfBCBXBSA*BHAHAiBFA_AjBfAGA<AOA<AcBLBCA6AqA_A-BABYA#BCA~BQAqBLBLA*A%AeAHA[BFAwAqBLAiBMBcAfAiAjAqAfBMAcBMBLA/AcAcBOBhA/AsBXA:BhBDAyBAAEBeAIAAAMBQBHBPArAFADATBgADBhAGAFATATAFA~ADArAAATAdATADAGAFBgA^Ah",
"AXAdA=ApAnALAFATAOABADABAAAFAZADBDALAEA/AGBfArAZA/AFAOABADAfAsBSA/A-ALA&A:BLA*BMAKAqAiAfAiAsAEA6BMA!A;BFBLA*A*A!BSA_BLA*AqA*A%BDAWAYAKAqA_AwAiAjA_BFAAAMAEAcAMAOAcA6A*AMAZADArBCBGA*APA3ADAPBfAABABQAAAFBAAfABABAFAFABAFBgANATABABAMA#AFBaADABABABAzA3ABAFBMAWAh",
"AXA&ABAAAnA8AAALAnADAZBPAOA#AZAAATATAFABABBfA?ANA3AGBcADA~AcAIAqAqApBLAdAPBAAjA-AjAiA_A-AuAiAfAjAiAqAfA_AjBLAqBWA!BLAqBCAjA_A%BZAWA[BCBXA_AjAqAiAjAfAjAcABA/BCBCAfBWA*BCBXAABLA*A]A]APAOAjAiADA#AfAAAFADBQBIAZABA~A~AFADA{A~ALBhA3ApAFAFATArATAQA8ATANBaADBSASA4",
"BKAWAOAFAABhABA{A3ADABALAOAAAFAMAFBaABArABBcBfADA3A3BhAGA{ADArAfAfBcA:A?BXA6A=AqAfAjAPAcA-BGBCBWBABQBHBOAjA/AsA_BCBbBFAqBLAiA:AeAWA[A]A/BFAiA_A_AcAcBFA-AwAsAPAiAsAcA/A_BLAMAPBGAjAcAiAOBLAMBIADBcADATAFAAAFANBkBjA~AAAAAOBaAGAGAnAnArAEADAFAnA>ANApAOA{ALAsBVA4",
"BKA^A#BgADA8ANADADATATBaATAZA#AAAFADATAAADANAnAGABAdAdA3ANAOANAMBQANA:AZBPA*AfAjAKA-BFAEBMAiBFBIA6AcA6AcBFAfAcA=AqAfAqBXA]A*APA>AWA,BOBRAqA_AiAfBcAMBMAfAjBLA_BFBbArABBbBMAFA_APAjAfBLA{APAZBIAZAZATA8AMAFAZA8BZABABAZABAzA|BaABA3A8AZAOAAAFAnAdAOA3AGAOAdAsBVA4",
"BKASBSADAdA~AdAdALAGA3ATAzATAFAFA#A3AnABAMA8AQALAMBZBDAdABADBQA#AZA{APBXA>AyA?AKAKApAAAZBQA#BSAwAiA=AfAMAsANAwAAA#A]A]BMAfAqA:AeA7AYAKAwAuAKAKAKBOA?ATAOAqBFAAAEAMAOADArAFA~A#BXABBCBZALBNADAfAMBjA{AMAMBgADAQANADADAFALAeALABA3AGAFADALA~ANAdA8A8AnAGATATA_BVA4",
"BKBVBbAFA8BHAOABADALANAGANAAAFAFAFAFBOABADADATATAZALAQALBfA~A~BfADATA_A6A&A:AEAKAMAFBOAZA~AAApAwBMA=ABA?AZA/AsBQA{AfA=AZA=BSAyAeA7A%AcA?AKAKAAAZANA?ABAAA=AsBRBbAZA{AAAAA#BQADAFAABCAzA|APAAAFABAOAFAcANBDADA8ABAZATANA|AGABALAzAnAOADABAZALAnATBaAGATATAFATAgAh",
"AXBVApA#AFANA&A|ABANAOAOAOAOAZANANArABAAABBgAOBYADA8BaAOAGAFA~AGAFAEA/ADAeA:AKAfBfBhA?AFAZBbApAuA=AiBiArBSAiA_A#BgA_ADBHBMAqA;BEAWAYAIBcBcA?A?AOAdAOAcAsAEApBiAEATBQAABbBQAOAnAZBOAfAQAQAPBcADADA#AAAOALBDAZAGABA~ANAzAnAOAGA|AnATATADABALATBhAnABAzAdAnAMAHAgAh",
"AXAWBBAEALALAnBhABATATAGAGANATAzANA~BfABBgAFBQBIArA3BhATA{ADAGABAMAAADBXBDA_AEADAGBaBfAnADArAGBHANABAAAGAEAEA#AFADAOAdA6AGAwBGAHA7BNA3AdATAAAAAAANAOAEAEAOAAA/AOADAZADA{AZBQA6AMAwA*A7A/A=AGA<BhBhA~BHA{ADBOAGA{A{ATATAGAnALA3ALATBDArABAGADAGAGABAnA8ANALBEA^A4",
"AXBHA&AAALAzA3AGA3A8AGA|A8AGAGAeAQANADADA8BjA#ANA3AOA8ATADBaATAAABATA~BLA{BFAwALAGA{AFAnADArANBPANANAZADApA?ABADABANA|A/ABAAA_AeA^APAOAdALAAADAABPA{AZAFADBSBSA#AZATA{BZADA{A#BOAfA*A^A_AfAGA6ABA>BPA{AGAGAGATAnA3ArAGAzBhAGAGAzAdA3AGALAZA8AGBaATATA3ADBEAnBEA4",
"AXALAHA8AOAnATAnA8BhAGAGABAGAOBhA8AGBaADAOAFA6A{ALAGAGATANAGA3ATA{A{ANA_AZAfAfBfArBaADABALAOADADATADAZArAAArArADAcArBhANATBjA*BEA7A,AKBcA?AKABAMAOAGAMBAA~BSAPBFAMANBPAZAFADA~ADBMBGA^AiBMA3AAAZATA8AGAGANAGBaABABAGAGAGATAGA3AdBZADATAzANArA#ADANBaA3AOAHBQBEA4",
"AXAeBBA>AAAOA|AeA|A|AdABAOALAGAnAQAdALBBADAEAMABAAAnATATA8ATALAdA{A/A8AqANBYAfAOA~ABABATAeANA~ABAFAZAZBgAAABADBjA{AFBaANA{BIBCBEA7A%AMBcABABAMAMBOBcAMBCAMAfAjAfATBPATAGAGA3BZA{A/AFA^AqAfA3ADAZBgABA3AOBcATATABA?AOABABA8ADAzAQBfAGAnADABApANAzAGAzAQA8A7A_ASA4",
"AXAHAsAWALALAeA>AdA8ALAGANBDAZAnBEAdAnA|AGANATATAAAdAGANALAGATA8A8AEBhBbANA>AcA~BPBHA~ALA8ATAGABABBaADATAFA~ABABAAAZAOAGBfAFBCAWA^A:AcAKAKABApAABOAGBOBMA3BcBcA3AdAGAAA8AdA8ANAOA6BDA>BXA{ANA~A{ADAMAzALAOADABADApBaBaAZATAGAnAzAGA3AnAOATA8AdBDAzAeAdAeA&BMBVA4",
"AXA^A_A7AQAzA|AeALArALANATAdA8ADABANALAdA|AzAnA3BfADAFANAzATBhA8AeAnAGA=AfAgAAAAANALATALA8BhATABADADADA3BfBaABArABAFANALADArBFA^A7AYA3A{BAABArArABALANABA|A?AKAdA3AAAFA8AQAnAZAGBAAeAMBLAQAdAZA8AGAGAQAnAOBjADABAMA8ATABALATALBaBaADADABAdAQAOAAAeBPA~A7ArA~BVA4",
"BKASAfALAHAZADAQAeAGAGANAdArADATANAGAGAzAzArALAnADA8BaA3ANA8A8AdAnABALA/AqAWA=AZAFArBaADBPATABADABABADATBaBcAGADABABAZAQADADAfAWA^A:AnA&A|ABABAEALANADAAAOAAAAABAFAAADATAQA>AZA~A#A&AOAsA8AnALABAGA8AeAGA?A{ANAFABAAApA8ANAOAOADABAnA|ADA{AFAFA8AOA6A{A^BbAOBVA4",
"BKASA{BSAWA8ADAnBBA3AGANA3AGAFA8BBAdALA8ArAAA3AnA|AdAGAOANAdA3AdATBfATAGAqAHA3A#ANAGADATBZALArABABABBcAGAABfBaABAFAAAFADAFAFAcAWAgAPABALAGABABAKADArAAABANA3ABABAFAFATANALAdBaADABAHADAsAGALAeANABATA|AGAAA~ANAGAOBHADAzBBBhABAZALA|ADAFAZAZALAQAdBQA&AnA6AdBVA4",
"BKA^AdAsAWBBABATAnAdAQAzAOADABAGAQAeAzAnABATATAnBEAzAnA3AdBBAnATBaA3AGAnAiAHBBAMATANAOArBPBHArAKAAArAZADAAAFATArAEA#ADADABAFBIA7AgAPAEAAAAAAAAAAAAAKAAABA8AGBaAGAZADA8AnANADATATATA7AOA/ATADBPANA3A|ArABADAFABANAGALBPBBA7AdAFAnA>A|ArAAArADAeA&BPA{A^BlATALASA4",
"BKA^BDA6AdA7A3AQBBAeAzA8ALAdAdAQAzATAdAdAAA8A3ATALAQBBA3BBA|ANATAdAeA3A3A6AeBBA#AdBPA{ATATAZAKAEAFABAGATAAABA?AAApA#AFA8ATAFAfAWAgAPAAADABAAAEA/AEAEAFABAZAKAEA/AKAGAOBfA3AdALATAzAdAfALATADAOAFAGAzAzABAZAOA|ATABAzAQALAQANA8AQA8AdAnA{BDAeAeAeBZAzBEAcAQALASA4",
"BKA^AdAQBQA^AnAzBEBEAnADAGBBAdA&ALAFAnAzABATATATAOAeA|AGAQAzAdA3AnBDATAGAMBBA&A/ANADBXAZAOAZArAKAAAZATAnAAABAKAAArApAABYAfADA=A7AgA:AAAAABAAApA#ApApAFAFAAApADA~AZADABA#ANBYAPANAQAdAjAdAzALAOAZA#ALAeABAAAOAzA{ABAdAQANBgAnAnBBAZAdAdA{AeAeAeBZAfA&AQA/AeA{ASA4",
"AXA^AdAQAEA7AQAzBEA>AzAQAAAAADAdAQALAnAQAdAFADATADANA3AQAQAQAzABAZAGANA?BSA8A7AFAAAGA{A~A{ABAdADAIALAzATA?ApAAAFAnApAGAdA:BBAwA7AgAPAzA_AzAIABAwAAAAAAAAAAADALATAAANArA#ANAQBEAMAQA&AfBDA8ANANAAA6ALALAOAFABBkADABAnAeAFAFBDAeBDBDBDANAMA8BEAeBBAOA>AfANALAZASA4",
"BKA^ATAQALAQAQAnAeA|AQAQAGAdAzA|AQA8ANAQA8AAAZAOALAZAGAeA3A3ATABA3AZATABAwA=A7A{AGAGAQAnAzAZAAAIABAnANBeAKAAAAANAQA?ArAQA&ArBAA^AgA:AOAzAzAIA{AEAKAMBOAEAGBhBOAFABAzADAAANAdA&AMAQAzBAAdALANAOAABhA8AOADAGAAA8ArABAdAQAFAAAdAeBDAeANApAFANAeBDANAzBEAqAdAdANASA4",
"BKA7AOBPANBMA&AOAAApAnAnAEAzAzAOBZANAAANBHAAAfAMAOA/AwApAGA/A/A#AABSA/AuBQBFA>A6BQAEBRAEAcAwA-AsA6ANAuBbBMAuAuAEAMAwAuA=A=AsAjAHAWAYBMAzADA-AwBMBbAuAEAwA#AAA-A=AZADAwAEBRBbBiBSAHAwA:AwAZA~A6A/AEBRAwAFAZA/AwA=A#AOAMBSA/ADAdALA{BQBiBSAFBYAcAfA&ANBLAdANAZAWAh",
"BKBVASBVBVA7BVASA^BVBVBVBVBVBVBVBVBVASASBVBVASA^ASASASASBVAgA7ASA^A^A7AgAgAzBVASA7ASAgAgA^A7A^AHA^A^AWAHAHAWAHA7AHA7A7AWAWAWA&BVBVA=A7A7AHAHAHAHA7AgA7A^A^A^AgASAgA7AgAWAWA7AWAHBVAWAHASASASASASA^A^ASASASA7ASASA^ASASASASASBVBVASASASASASBVA^AgBVBEAgBVASAgBVA4",
"A+A@AaA@A@AaAaA@AaA@AaAaA@A@A@A@A@AaAaAaAaAaAaAaAaAaAaAaAaAaAaAaAaAaAaAaAaAaAaAaAaAaAaAaAaAaAaAaAaAaAaAaAaAaAaAaAaAaAaAaAaAaAaAaAaA4AaAaAaAaAaAaAaAaAaAaAaAaAaAaAaAaAaAaAaAaAaAaA@AaAaAaAaAaAaAaAaAaAaA@AaAaAaAaAaAaAaA@A@A@A@A@AaAaAaAaAaA@A@A@A@AaA@A@A@AaA@AX"
};
