/* XPM */
static char *texture[] = {
"128 128 128 2",
"AA c #34302B",
"AB c #8E8C89",
"AC c #504B44",
"AD c #3C3733",
"AE c #2D2924",
"AF c #302B27",
"AG c #3B3632",
"AH c #332F2A",
"AI c #49453F",
"AJ c #403C37",
"AK c #3A3632",
"AL c #302C27",
"AM c #3B3733",
"AN c #312C28",
"AO c #2E2925",
"AP c #2F2A26",
"AQ c #3E3935",
"AR c #35302C",
"AS c #3D3834",
"AT c #231E19",
"AU c #3C3834",
"AV c #27221D",
"AW c #423E39",
"AX c #3D3935",
"AY c #312D28",
"AZ c #332E29",
"Aa c #393531",
"Ab c #393430",
"Ac c #37322D",
"Ad c #28241F",
"Ae c #38342F",
"Af c #3F3A36",
"Ag c #36312C",
"Ah c #47423C",
"Ai c #3E3A36",
"Aj c #1E1915",
"Ak c #2B2722",
"Al c #3B3732",
"Am c #241F1A",
"An c #413C37",
"Ao c #291210",
"Ap c #3A3531",
"Aq c #2A2520",
"Ar c #2C2722",
"As c #2C2823",
"At c #221D18",
"Au c #37332E",
"Av c #2E2A25",
"Aw c #3F3B36",
"Ax c #36322D",
"Ay c #322E29",
"Az c #1A1511",
"A0 c #17130F",
"A1 c #2A2621",
"A2 c #201B17",
"A3 c #15100D",
"A4 c #2C1C18",
"A5 c #120E0B",
"A6 c #352F29",
"A7 c #38332F",
"A8 c #2F2B26",
"A9 c #35312C",
"A! c #322D29",
"A# c #45413B",
"A$ c #392C27",
"A% c #322D28",
"A& c #3D3833",
"A( c #3C3833",
"A) c #3B3631",
"A* c #211C18",
"A+ c #3A3530",
"A, c #2E2A26",
"A- c #2D2822",
"A. c #1C1813",
"A/ c #35221E",
"A: c #26211B",
"A; c #3D3934",
"A< c #44403A",
"A= c #2D2824",
"A> c #0F0B09",
"A? c #38332D",
"A@ c #312721",
"A[ c #24201B",
"A] c #302B26",
"A^ c #2E2924",
"A_ c #403B35",
"A{ c #433F3A",
"A| c #433D37",
"A} c #312C27",
"A~ c #3E3934",
"BA c #29241E",
"BB c #67635E",
"BC c #2F2B27",
"BD c #38312C",
"BE c #221E19",
"BF c #2F2A25",
"BG c #3B3731",
"BH c #3E3A34",
"BI c #2F2C27",
"BJ c #3A332E",
"BK c #342C27",
"BL c #2D221E",
"BM c #2D2A24",
"BN c #2E2B25",
"BO c #3D3835",
"BP c #3E342F",
"BQ c #403833",
"BR c #3D3732",
"BS c #3B342F",
"BT c #38342E",
"BU c #3E3833",
"BV c #302D28",
"BW c #2F2A23",
"BX c #322B26",
"BY c #39352F",
"BZ c #3B3833",
"Ba c #302A25",
"Bb c #332C27",
"Bc c #312A25",
"Bd c #3A3731",
"Be c #302C26",
"Bf c #2F2A27",
"Bg c #3E3B36",
"Bh c #271915",
"Bi c #403A35",
"Bj c #2E2824",
"Bk c #2F2B25",
"Bl c #2F2925",
"ABABABABABABABABABABABABABABABABABABABABABABABABABABABABABABABABABABABABABABABABABABABABABABABABABABABABABABABABABABABABABABABABABABABABABABABABABABABABABABABABABABABABABABABABABABABABABABABABABABABABABABABABABABABABABABABABABABABABABABABABABABABABABABABAB",
"A#A5A5A0AzA3A3A>A5A5A>A0AzA0A0AzAzA.AzAzAzA0A.AzA2AjA0A>AzATAtA2A2A.A.AzA3A0AzA0AzA.A0AjA0A5A3A5A5A5A5A5A5A5A5A5A5A>A5A5A5A3A0AzA>AjArAVA.AzA.BEAmA*AVBEAjA.A.BAAdA[AVAkA[A[A[AVAVAmAdAVA2ATA[A:A:A*AmAtA.A>A>A0AzA.A0A0AzA0A.AzAzAzA0AjAzA3A0A3A3AzA0AzAzA0A3A5",
"A#AjA}A-ANAkATAtA-BEAVArAdA1AqA:AkA,AYANALArAEBdA*AFA%A0BkAHAEAFA=A1AvBCBCBIAYA%ANA%AZAFATA*A[A*A*A2A*A*A*A*A*A2A*A*AtAtAtBEATAmA0AeAeAkA1A[AkAFAyAAAHAyA8AsAyAZAHAyAYBIBVAyA!AyAyAZAyALALAvAsAqARANAPBCA%AjBEA6A1AIAdA*A=AyAYAEAPA!AEAAAPBAAmAdA%AVAdA-AdBEA%Ar",
"A{AdAeAmA-BAA2BEAEAVArAdAVA1AdAVAkAkBNBFAPArA:AHAjALA!A0BIA,A1AWAsAdAPAOA=BFBNBNA^BFA^AEA[AjA2A2A.A2A2AjAjAjAjAjAjAjAjA2A2A2A2A2A3AFA8BEAhAkAqANAvA!BVAEAvA1AOAFBCAFAOAdA,A,A8AFAFAOBeALAsAdAVAdA1A#A1AdBaAzAVA+AdAHA.A2AvAYALAPAvA8AEAYAsAmAmAVA!AqAdA:BEA:AgAr",
"ACA[AmAjAdAVA2A-AvANBWAtA:A}AqAdAdAVAEAEBfAPA.A0AqAZA1A0AyAHA[A2A2A=APAOA=AOBMBIBaArA1A[AkAqA.A2AzAmATA.AjAjA.AjAjAjAjA2A2A2A2AjA>AqA^A[AdAmBaAZA=ANBMAVAPAsAEAvAvA]A,BNBlA,A,AFA}AqAEAFAOArA=AsA.AjAjAkA-A3AdA~ArA0A0AqAHAYAFAvAOAVA1AyA1AmAmAVA!ANAdA.AmAFAAAm",
"ACAjAjAjA:A1ArAmBIAFA-AqA1AdA=AsAVAdAvAsA^ArAVAVA=A!BaA0AYARA1BEAdAPAvAPAvA,APAkAOA1AsArAPA2A0A.AVA[A.AjAjAjAjAjAjAjA2A2AjAjAjA.A>AYAHAdATAVA}AFA,AVBEAVAFAEAvAvAsA,AsAEAOAEA,APAOAOA=A^BlA-BNA,A2A2ArA}A]A0AjARAPArAtAdAqANALArAkAsAvAVAkA]AVAdArAVAmAdA[AVAAAV",
"ACA2ATAmAdBFA}ATAkAvA-BFBNAdAEBMAdAdA8AEAEAVALAyANA!AFA3BeAHAOBCA8AEAsALArAsAOAkArAkAqA-A*AjA[A.A1AdA.AjAjAjAjA2A2AjA2A2A2A2AjAjA5AsAYAsArArBeAFAsATA[A1A8AsAVAdAOBjAEAEAEAOA,AvA=AqAEAOAOAOBMBMAVBCA,AkA^A0A.A]AVAmAVArAdA=AOAdAsBNArAVA=BCAkAkA=AdA*AdAdA[AFA1",
"ACAVA^AkA*AsAHAqAkAOArAYBNA1AvBMBMAsAEBCAvBAA8AYA%A8A:A5AuAxA=AFAPAPBNALAsAEAPAEAEAEAkAVA2AVAPAqA[AAAmAjAjA2AjAjA2A2A2AjA*A2A.A.A5A*BMBMAEAvAsAWAxA:A^BNBMA1A[BAAOAOA-AEAvAsAPAvAEAqA^A]AdAdBIBIBIAvAVAmA1A.AjAdA.AmAkA8AEAOA8AdBNBMAVA,BNBNA8AvAPALA1A-APAEA}A-",
"ACAmA]A=AdAEBVAvAdAEARBNBNAEAvBMA1AqBNAPAqAEANA}ALAFA1A3A1AYA,ALA}BCAAAYAkAOArAqBMA1AkA1A8AyA,AmA.AVAmAjA2A2AjAjA2A2A2AjAjAjAjAjA5AvAHAsA^AOAsA?BVAsA^AkBMA1AdBaA8AOA=A9AHAyA,AsAEA1BAA^AdA1BIBNBIAYAmA2A2A3A.AsAqAOAEAqA]BiBFALAyBVAvAOA,BVAeA}BFAvBaAYANANA=A=",
"ACA[AFBFA-A]AEBMA2AVAABCBIBfAOA,A=AkAEA8AdAEAFAPAPA!ALA3AdALBNAFAFA8A!A8AEA=AdAdAsAsAkAkAvA1AdAzA.A2A*A2A2A2AjAjAjA.AjAjAjAjA.AjA3A9A9A1AsAEAEBNArAkA8ArAEAkAsA-AsA1APBTAEAxAYAkAqA*A2AdAkAPArA:AkAdBEA:A.A>BEBGAvA=AOAkAPBXA:AvAYBNA^A,A]ALBVAEAOA=AOAFA,AEA1AO",
"ACAqAYAOAqA8AsBMBMAsAOAvBMAPAOAFAkBEAsAvAkA=APA-AsANAvA3A9AxBMA]AvA8AOAPAOAOAEAvAOAOAPAkAVA1AqA*A8AvBFAVAjAjAjA2AjA.AjAjAjAzA.AtA3AxBTAkAsA=AEAvA-A=A=AsAEAsAkAsAkAkAYAwAYBYA+BIAqAtA[AdA-AqATAtA.A*ArALA-A3BEBGA1AOAvBCA%A}A[A8BIAVAdAFAFBMAkA1ArAOBFA1AqBIAYA^",
"ACAqA%A]AvAEAkAEA,AvAOAEAsAOAPA,AdA[AEAEAkBMBIALAFA8A=A0AHA9BNBNAEBCAPA1ArAPAOAqAPALAkAVAPA}A1A1BFALA]A[AjAzA.AjA.AjA.AjA.AjAjAjA3AYA9A=ArA1A=AvAEAvALAqAdAEAsArAkAdAkA%AZAAAHAEArA:APAHA[A.AzA.A2A1AOArA]A.A[A9AVAkA1A=AyAvAqAFAdAsALANAZAvAxAHAkAVAdBMAsALAPBF",
"ACAVA1AvAEA-A1AsA=APAOAEAkAkALAyAVAdA8AvBMAsBMANAYAEAdAzAHAAA,BCBMAEAvAkAvA8A^AdBCBCBNA}AZAEA:APA1BFA-AmAtA.AjAjA.AjA.AzA.AtAtAjA3AsA%ArAsAkAEBMAEAEBIAsAVAsAEAdAdAkArAvA^BjAFAvAyAVAPA=A3AzAjAkAVAOAOA1A^AjAmAAAdAdAsAvAYA8APArA1BVAAANAOAvAuA%A,A1AkBNA1BjAPAP",
"ACAqAvAvBFA-AEA9A,AyAgAsBeAsALBVAsArAvA8A8A8AFAFBfAYAyAzA9A9A=BCAFA,AkA8ANALAYA8A8A,BCAPAFAvAOBFAdAqAkBEA-A:A2AjAjAtA2A.AjAjAjA*A5AeAuAqAEA8AvBIAEAEBMAPA1AEA,A1AkA,AEAvA]A]BFAsAOA=AVA*A*AjA.AEA1A1A=A8AZAzAqAfAdArAsAEA!ANAOA8AHAHAFAFAPAFA=AkAxALAsAsAkA,AFAO",
"ACAdA-A^AOA=A1BVBCANAFBMAHAOBCAEAvA,ALALA8AsA8AkBCANANA0A9AAAsA8A8A8A+A]AFALBVA8APAFAvAOAqAVAOA^AkAkAkA2A2A2AjA.AjAmAgA%A*A.A.AjA>AyA9AkAvAvAvA,BMAOAOA8A,A,AEA,BCAFAvAvA]BIAsA8AsATAjAVALArA2AqAdATA-AAAVA5AVBiArAsA1AsA!ANAOAsAEANA]AFAPAvA=ArALAPAEAsAkA=AFAO",
"ACAVA=BNBNAsAqBMBNAFA=AEBVA,BCAEAEBMAyAYA1AqAPAkAYAqAVAzBYA9AsA,AEBNAuAFANAYBIAvAPAEAsAvAdBAAvAdAkA1A[A2A.A.A2A[A[ATAyAHAVAjA.A.A>AeA)ArBFA^BFAvA,AOAPALAPAvAOA-AsAkAEA]BkBIA%BkAqA2AjAtAVAVAVAqAdBAArAAAVA5A:A_AkAsA1A1AFA=AFAEBMBVBIAOAOAEAOARA=AFAOA1AkAsAPAs",
"ACAVAvBNBMA-A8AdAsAEA=AkAsAEAvAEAOAEBMAEAOA8ALAvArAdA2A0AAAHA=A,AvBNAEAqALALBIBNBFA=AOAvAVA^AyAVBEAmAjA2AjAjA2AbA7A^AVArAkAjA1AmA5AcAeArAEA=AOA,BfBNBIAFAPA^AEA^AdAjAmAYBNBMAHA.A*AKA9A-A1A:AVA8AOAVAZAOAZAzA:BJAdBMA1AdANA=AEAEBMBIBIAkAEALBAA^ANAPAEA1AsA=BNAs",
"ACAVAPBNA,BFBNAkArAEAdA[BNAFA,AEA,BMBMBNBCBNA8APAkAsA=A3A;A+AOAFALBIA,BMALA8BMBNAOAOAFA]ALANAPA2AzA7BWAtAjBEBFAqAFANA[AqAsAdA:AjA5AYA9AsBMA^A^A8BIBIBIBFAEAEBMA1AYA9A[AdALA^AVA1BFAZA%AOAOBkA}A%AYAEBCAsA}AzAdA<AEAsAvAYA1AdBFAyAyAvBIAEAAAYANA,AFAOAOA=AkArAPAO",
"AIA:A!APAFAvAvBFA^AvAEBNAAAHA8BIAvBCBNAFA8BIAvAOA,AFAFA3AMAaAvARBCArBCBfA]A8ALAEAsA^APA}A%A8AdAjA2AKBcA:AjAjAPA:A-AYA[ArA]A]A[ATA5AxBTAsBMAEBFALBIBIBFAPAOA,AvALAxBZAdA:BAAqAFAOAHAZA8AkA^APALA}A8ALALA-ArA3BEBHBVAvBMBIAdA1AgA?AYA,A^ALAHBNA9AAA8BlAsA1AkA=APA,",
"ACA=AFBFA-A,APAEA^AEA,BCA8APALBVAEA,AFAPBCBVBkBlAFAkA[AzBIAHAPAcAEA1APA,AvAvAHAHA]A]A}A=A]BkAmAtAkANA!AVA*AzA*AOA]ANBAAVAcA)A^AjA3AOARA,AvAPAOBNBNAvAvAFAPAvA8AlAVAqA1A3AVAaAFArAZA9AcBlAPAEArAOALAFAAA:AmA3A.AHBVBYAEAVAHAZAPA,A]A,AVBaAOAVArA}AFAPAOA8BCA=BFBa",
"ACArA}A=A[AqBeAEA-AgAsAkA8A8AOAEAOA,AqAkAFAFA,AVAVATArAzAwAaAEBVA,APAPA8AcAGA?A%ALBaA]ArAEAZAdAdANAPAqA1AjA*A}ANAFANAqA1A=AZANA^A3AxA+AOAPAPA=AYALA,ALAFA%ACAEAqA[A2AzAFBTAHANA^A-A}AsAkBCA=ANA)BaA1AqA[ATA5A1BiBMAuAYAdBIALAEBIANA8AdAPBIBFAVAEALA,AEAPANAPAyAL",
"ACAqA^A1ArA=AvBMA=ASAyA,AOA,AEAsALA=AdAOA8AFANBgAYA1AFA3AwAaBMAyBMBCAFAFAbAnApAEAPAPAOAdArA6BJA?AAArAmA%A*A:AgAYANA}APAEBeAFA!A6A3BYBGAEA8AEALA!ALA8AYALA!A<AdAjBHA|A*A{A9AHA9AHA]APAVAZALBFAYAeAAAZA2BEA1A3AdAGA:AsAvAqBIALANA!A!AOA=ALBIBVA^AFAFAFAPAPAFANAHAN",
"ACAkANAYA8AOBIBTAPA!ALAFAvAvA8BNAYBCAOAPAvBFA!A{ALAHBfA3A;AaAsBNBIALALAvArAbAaAkAPANAVAPAOA<ACA,AOArBeAABeA-AFAFANA^AqARACA*AFAeA3BZAlAsAvBFBfBfA8AYAFALAFANAvAEAeAuArAHAEA9A|BGAeANA9AgAbAYA-APAPA^A:ArAVA5AdA+ArArAOAPBIALBCALA!ALANAYBVBMA(AAAFANANANAFAFAZAN",
"ACAkANBVA,A^ALBTAEBfAFA8A8A8BIBIBCAPAsAOAvA]ANAvAqAFALA3AaAuAsBMBIALAyA=AsARAgAvAEA!ALAYA]AeAGAkAyA%A^AYBWArAkAyAyBMBIAVAVA2BeA%A5AKAKAkAOA^A,BfALAFAFA8A8ANA%AaAxALAqA1A9BIBHAAAZA!ALAOAxAAAOA8AOA1AdAyA:A>AVAlAOAOAOBfAFA}ALAEA8ANBCAYA8AkA(AAA!A!ANANANANAyAF",
"ACAqA]AABYAPAPAYBfBCA]A,A,A,AOBNAFAOAsAOAEANANAZANBCAHA0AaA7AsAEAsAvALALArBlA}BCAqArAkA,AqAOAPAEAeAHAkAsArBAA1AAAHBVAyAdAmAkA]AsA5A)A?A1A8BFAOAPALANA}A^ALAZAAASAyAPAVAjAuBVBABAA8A%ALA-ALARAFALAPAPALArAyAjAVAwA]ALAPAvAFA}AFA1A=ANAvAEAPArAaAuA!ANAFALAYAyAZAF",
"ACA1APBYAxA=AkBCANAFBfBfA8AEAkAEAPA,AkArA]AvANAyAYAHAHA3AyAAAsA,BNBIALAkAdA!ANAqA1A1AEAkBEA1APAFAYBVBIARAVBEAvALAYAvAvAdA^AvANAYA5AwADAkA8A,AOBfALANAFAFAkBlAZA!A1AqA0AzA=AxA.AzA[AOAsBFAFAyAZAOAkAOANAdANA.BFA#ArBfA8AOA,AOAVAdA]AFA8AqAEAOAsAsAyALA8AFALAYAHAN",
"ACArA8AAA!APA8ANAFAFA}AFBfAEAOANAPBCAEA=A8BNBIAYAYAyALA3AHARAsAPBIBVANAsAsAHAFBFAsArAOA8A=ArAAA7AYAYA%A}AmA:AYALAOBCAYAdAPAOA%AyA5AMAlAkA,APAPAOANAyAPAPA^AqA+A}A-AAAVA2AdAKA9A:A[AhA?AOALAFA]AEBjA-AVAOA^A0AkAiAdA!AOA!ALAPAkAsANANBCAEAVAEAOAEAFAPAvAvAFALA!A%",
"ACBjBIALBCAOAOAvBCAPANA,AEBCALARAFAPA,AOAFBIBIBIA8AyA8A5AKAeAsA,BVBVA8ALAAAxAYAPA!BfANBCA=AFBGAiALAYAHAkATAdAyBFBFAyA9AOA=ArA%AYA5AAA?AsBFAPBCBCAAAyBCARAHANA#AgANAAARA]A!A<ALBEAdAIBDAqAOAPAqA:A1AkA*A-BAAzAqA~AqAcANAZAFAEANANAPBIAEAsAVAOANANANA,A8ALANANAyAN",
"ACAqA8AOBCAvAOAOAsAPAFAOAOBCA8ANAFA,AEAOAFAOALA,ArAAAYA5AAA9BMBNAEAEANAEANAyALALALAYA9APAZAlA%ALANALAyA-AqAkBCALA9AFAPALAFANA!AYA5A&A)AsAPAPAFANAyANAZAHAPAcAJA9AHALAyAeAxAyAmATAVAuA%AVA.AqANBAA.ArArAtA[A0AmBYBCAEARAxAdATANAPArA1AkAkBAAqAPALAFAPBCALAYAYAZA}",
"ACAdA8AEA,AOA,A=A(AYAFAPAvAPALBVAFAvAuAyArBfBCA8BCAHA!A5ApAbAsBNA,AkAkArA8AFALAFBVAHAFAPANA^A}ARAFAYAyAEA^BMAvAPAYA=ANAYAZAHARA6A5AiBGAsBCBCAFANAEAPARAOANAAA+AaAZA%AHA9APAPA1A-AkAAAcA1A*AmAqA=A[BFAFAVAqA0AdAnALArAYAAAYA1A*AOAkAEBIBaAqAVAqAPAFAPAPANAYANAZAy",
"ACAdBVA=ArA=A=ArAuBCALAEAOAFBCAkAPA^A&A9A,AFANA}APAHAZA5AnBOA=A,A,APA,AvAyBCAPAPAYBVBFA]AZA-ALAKA!AZAYAOAOAOAOAOAFAFAYANA%AYAeAgA5AJAQAEA8ALBFAOAkAkA!A!AZAkAPAFAFA%A!A}BbALA!A!AAALA,BAA6AgA1BaAZAZAHA}A-A0AqAWAsAPAOAFArA-AqBCAdAyA8AFAqAHA8A,AYAPA=BVANAYAZA!",
"ACAdBIAsArA=ArA[AzA1BCAkAOAFAPAkAPA]AvBMAFAFAFAFAFANAFA3AXAUAOA,AOBCA!BCA!AyAyA!AyARAFAYAlA~ALAgAfBGAHA,APAYA%ALA8AAAbAcAYAZARA%A5AwA&AEA8A]AYAFBTA9ANAZA!AHAZAPA}AZBHBHAHA]A}ALBVAAAbA1AHA6A6A%ARAAAHANA2A5AdASAqBCAPAyAFA]A1A2A[AEAFA9AYBGARA!AYAkArAYA!A!AZAY",
"ACAdBNBNBMAEA=AkAOAOA,AOAOAFAPArAFA8AOAYBIAFAFA]AFAFAOA3AiAUAEAEA=ALANAPALAaAPArA9AxAAA!A)A&AFAAAfARA8ANAFA9A&AFA}AZARARAYAZAZA]A3AJAnANAYANANAAA9A!A!A!AHAgAAANAyAGBgBgAAAFAAAyALAeBHA]AOBDAgANBaAHAHAFA2A5AqAJAkA8A8A!AuAaAOAVAdAEAZAYA,A%AFA!AYA,ALAyA!ANAyA%",
"ACAqALBNBMBMAvA,APAvA,APBFA8A8BfANALANAYALALAFAPAFANAPA0AlAlAvA=A=AyAAAOAvA9AxAEAuA9AcAZA^ALA9AYAWA}AOARARALBeANAZAZA]AFA%A%A6AYA3A&AIADA}ANAZAxAuAHANARAfAcAHA]AuA(AgAlA!ANAAAeBVAEAEA]AEA_BRARArAAARAPBAA0AdA_AsAyA8AYAbA7AsAVANAYAHAdAEAYAPBfAZA!ANA!A!A!AyAN",
"ACAdALBNBNBMAvAYBNAOAFALAYA8A8AFA=AFAOAOAFANANA]AFAZA%A3AQA+A,AEAPBCAvAyAxApA7AHAAA!ARBaARAuAxAKA?ANAOAZAcA6A1AAAZA]AZArAkA}A6ALA5AWA#AAA!AZAHAHBeAYApAfA~ANA8A6AAAAA!A7AcALAYAHAHAAAOALBFALAcBFAsAkA9ANBAA0AVADA1A8A,A!ARA9AVAVALALAYAOAvBVAaAgAPAFALAYAYA!A!AL",
"ACAqALA,AvAOAPBMAkA,BCA!AHA8ALAOAqAYA=A-A]A]AFAZA}AZBbA5AiAxA1AZAYALA8AxAQAfAAAZAZAyAZAHAlApA6A9ALAPANALAAAgA}AAAZA%A8AqA%AvAHAyA0A{A<AYA!ANAYAYA8AvASAJAcA=AkAcA%AHAAA}A9AyALBIAAA7AOA%A]AFAHAqA^A8AYA!A-A0AdAlAVA=A-ALAAARAYAyA!BVBIALAFAeAeAAAEAOAFALALA!AZA}",
"ACAqA,AsBfAEAPAEBIAAALAKAHAEA!ARA^AHALAOA]AkBCBBA^AcA)A>A{A9BIBBAyAdAGAxAAA)A7APA?A~AfAJAcBlBaAFA]BFAAA!AvA}AHAAAcAgAdA9BBA*AcA+A0AIAIAqACBRA:ARAYBfAbAcAsAPALBTA?BHA|AYAPAbANBNA8A7AeAKAHA7AHAOAeBBAkA1BeAzAEAfA[ACARA*AcAKAZAHA!ANANA}AFAHAAAFAqAOAcAFA,AYAZAN",
"ACAdA!A}AsAYAHA8A1AYALA9AsAEALAyAEArAPAPAFAPArAwA^AeA)A>BZA9A=AwA,A!AcAZAHA9AHA9AGA;AiAAALA%AZA]AFANA}AYAHAaAHAZAcA)AqA[A#A:AgA7AzA#A<AEBTA:AVA%A]AxAcAcArBFAyAxA9AcA?ANANAaBCBVAyA+ApAgAZAgAHAuA-A|ArA%A%AzAHAhAdAaA[A:AHAeAKAxA7ALBFAPAPAYAYAFArAOANA}AyANAyAL",
"ACAvBHA}A1AHAgA^AVAsAZAxAsA=A-A]AsA[APBFAFAYAdAmAEA?ApA5AnBZAdAjAYAKALA!AYAXAbAGApAFAFAFBCAYARALAxAHBFA%AuADAZAHAZA)AEAzA.ANA7AHA0AIAhAHA[AjA=A1BFA+AbARBFBWAAAyAZAPA=AFAAAfAyAHALAyARBFA9ANA6AeAqAtA]A~AAA0AZAIA1A*AjAEARA)A+A+AlBjA-A=AFA%A%BFAvBFA-A6A+A,AyA8",
"BBAcA{AHARBRAIA&AZApA+AyA<AlA8AfAbAHARAJAcA-AeAeApA+A1AzA_AhA7AcAYBFAaA{A<AIAhAIA+BKA|AIAhBQBQAhAIAIAcAaAKA&AIApA)BUA}A-A?AxAgBLA3A&BHAcA(BFAPAyA;ASAhAIA<BbAlAJAfApBlAWA#AWAIA#A)ADAGAQAWAWAlA^ARA:AnBSA-AjAdA<AAA9AAAyAAAZA;A<AWAnAfAhACAhA#A{AnAWAWBGBYAWBGA~",
"ACA[AyAsArBCAyAAA*AVAdA[AAAEBEAdAdAqAdAOAdA:AvAkA1AqA*A.AmBkAvAqA*AjAdAHA6AAAxA?BFBABeAgA?A@A@AxAYARArAkAqArBYA^AqAdA[BAA-AqAtAjA0A0A2AVAsAqAqA!BCAdAyA9A!BAAkAsAsBlAqAyA,AkAAAAArAkAkBeAAAgBWA[BAA.BjA-AVAtA0AjAdAdAkA1AqAVAdAsAYAHAxAeAaAHANALAHAyAHA-BAAHA]A^",
"AJA5AjAjA.AzA0A5A3A5A5A3A3A0A3A3A0AzAzA3AzA2AjAzA3A3AzAzAjA2AjAzA3A3AzA.A.A.AzAzAtA*AjAjA.A3A>A3A>AzAtAzA0A.AzA3A>A>A0AjA.A.AzA3A3A5A>A>A5AjA2A.AzAzA3A5A3A.AzAzA.A2A2A0A5A5A5AzA.A.AzA2A2AzA.AjA.AzA5AzAjAzA.A0A5A3A.AjA3A5A>A3A.A.AtAzA3A3A>A>A0A0AzAtA2A.A.A3",
"BBAhAIAhAZBWA<A8A5A[A<A<ArA.A-AIAnAQA]A:ArBLA-AHApAsAzA0AjA?A&BjBLA:BPAhBTAgBQBAA)AIACAhAWAWA@BhA$A$A@AgAnBJA:BKBKA@A$A@BXA_A$A4A3A>AgAIAhBHA6AhACACAIAhAcA9AAAhACAhA:A<AWAGAJA+AHAIA|BHAqAcA_A@A@BSBRAeAtA.AzA]AIBHBWBAA)A&ArAsA|A?BAA-BLA:BjAMBGA|BGBGA)A+BRAm",
"BBAnA#AfAZBWAMA7AmAVBSBRAqA2ArA<AcA7ARA]BFA-BlAgAlAcAqA5ArBTA9A6BbA@BQA<AeAZBGAFAbAnA#AfAKAIACA$BPBDA@A6ADA+BWBDBDBKBXBKBDBQBQBKA5A[BHAWA{A~BGA<AIAhA{AhAaAaA?AnAhAJAOA(AWAaAWAKAcAhAhA~AEA9AwBcA@AnA&AgA:A0AmA|AIAJBXA-AeAlANA%AfA?A-A^BWBAA6A|AWAWAfAbA9AbASBa",
"ACBjA!AdAqAdAOAZAcAVBEATAjA*BEAsAVBAAcAbAYArBFBFA%BGA+A>AcAZAdARBcA6AKA?A!AOAZAAANA8A-A1A-AlA|AgA!AqA1AYA^AYA]A=A}A%A1A6AuANAfBGA5AWAnBCBCAAAuBCAYA9AAAxBfAaBTA}AEAYA7AkA+A!A8AeAfAHAZAZAHAsAuA8BAA9A}A}AEA5A,ACAZAcAgAyAEAPAvA%A]BFAAAZAHAqAZAuArAqAAAYAsAcAQA%",
"ACA8AuAPAdAVAqA=AZAYA[A*A2AsAqAVAgARA9AZANA1AEACAfBjBJA5ArA:A+BBBFAgA)AZA_AhAnA~AZA^A%ApAuA6ARBZAZAAAAA!BaBXAgAHAeA?AqA&BBAmAABUA3ACAIA&BBAAAkARAEAYA7A7AKA9AHAZApA%A7AeAQAiAgA9AxAcARA7AbAcA]APAZBBA6AHAeAzAdAnA}BBAIA[AHANAPA}ANAgAgA%A?AkAEAHA!A!A=A!ARA}A{AQ",
"ACA-AHA!AkAkAdArAAAPAmAjAVAAAqAkAZA}A^A%AHAYAqA<AyAdA+A0A?BXA%AIA*ANA6BJAhAIA<A|AxAPANAaAxBcA$AxAgA7AAANA@BcA?AeAlA7ArBNACA.ARA_A0ACAIA)ACAdAEAbANA7ApAxAbAyA9ARAcA?ADAeAbAKAcAgAAANA!AxA7AHAZAFAVACAVAcA<A2AEAWA=ACAZAVARAZAyAFAFAuAgA7A)AkAYARAFA!AOA9ApARAlAG",
"BBA]A^AZAYAHA,AvAZA[AzAVBaBAA1AbAPArA:BEA%ASAVAjAmAFAZA0AIA|AtA3AdA$A/AhA{AwAhA_AMBUBKA!ARA$A$AHApAKA%A@AcAxAAAfA~AeARA2A>BEA~A?A5AWA{BCA.AdAQAKAYANA?BUARA1AAA~AAA{A#AxAyAHAZADA&AVA=APANARAlAZA*A0AmA_A#ATA^A_AdAjA0AHAAARA-A:AsAyAaA{AHA:AxAbA^AFA]AaAwAlAZAR",
"ACArAgA)A9AAA!APALA.AjA1A+A^AeAdAmAVAdA[AgA=A-APANA!ALA0AnAWBNBaBJA4BQAJBdA~BHA<AeBUBiA@AoA4BDA9AFAZAZAcAbAxAZAlAnBUA!A8AyARAgA%A>AWAIAaAeAKAwAaAuAVBFAcBFBVAuAJAQA|BKBAAyAYAMAWA(AFAaAAAyAaAUA!AYAuA7AwADA.A%AIAEAPA1AAAAA_AHAkALAZA!ALA1AYALALA8AFApAaA9A7AZAk",
"ACA^A?A+AHA(AyAFA8A*AAA9AYAOAZA*AkA%A9AsANArAEA!ARA9AFA3BXBSAAA6BSA$BDBDBHA?BXA#A~AwA&A/AoA@BDAAA%ARARAaAxARA?A~BiASAHAHAbAlBTA6A>AIAIAuAaAKADA~A&A9A(A?AdAbAGAiAJA_A%A1ANAYAUA#AGAPA~A9A}A^A]AKAcAWAGAfAcA0AkA#AYANANAcAbAfAKAuAuAAAZARAsAaARALAFA8ASApALAAARA!",
"BBA7A&AxAEA+AYA8A8ANAvApA-AkAqA*AwA<AVBCBFAgAOA]A+A_AeA5A4A@BbApAeBgA4AoACBQBhA{AWAWA6AoA4AxAxAAAuAlAgAZA~AQAfAnA+A%AxA?ARADAWA)A5A(AwAxAGADAyAGASAUASAUA9AeADAfAfAfAXAHAYAZA!ADA9AOA&AaAHAVBWAbAiAXBOAQARA.AmBYAAA!A7AGAWAiBRAeAxBMA9AnAHARAAALAFAOAbAfAyA=ADAl",
"BBA^AyA+A[AHAAANA,ALAHBAA*AmAtAqAZA?AkAHAkAAAFAcA&BUAAA>BABKAbApA/ARA!A@BPA@BKAWAUA(AaA4A@AGA?A6AGARA}A!AQA)A)A|A_A6AHAbAGApA#BQA3AaAwAuADAbA+AcApA9ASAwBOA]AAA#AaAfAnAwANAZADAZArAgAWAnAQAHBeA%AiAfASAWAuA0ArA|AxAfAAAaAGBXAbAbAxAxAeASADASAXAuAFAgADAaA1A^AnBR",
"BBAVA=ALAdA!ANA!AsArAFBAA!BjA.A2ATA^AvA!AgA9A]A%AQApAZA>AWBDAkA6A/ARBXA/A/A4A$AGBcA7BgBLBbBJA$BPA#A;BFAcA~AcAAA|A~A+A+AeAfASA<A)A5A(A#AaAbARASASAeAAAQAKAgAgAGA#AKAfA{AhBeAFAHA8BFARA{AJAbAZArARA;ASA)AhBHA3AZACAbAiAgAeAeBXAbApAUAKAlAGAGADAuA7ARA!A)A9A[AsASAR",
"AIAjAVBAAeA}A-A:AdAFArA=AaAOA-AqAaA7ALAdAZA}ALAGADAWAhA5BWA@A:A%A%AcA4A4AoAoA/BKAoA6AeA9AeBLBLAJAWBgAeA;AQAgA-AJA<A)A)ApAQAQAhA?A>AWAIAbAxAZAbA?ARAiAQAPBAAiAQAQAJADAJBgA^AcA^AaA+A-AbAQAyAyAAAKAUAlAaAWAiAzA-AIA7ARADAMAlAiA+ADA{AuAeARA9AMAkAAAnA}ARAxAkArA7Aq",
"ACA=AlAxAxAeBCArANARAZA9AgARARAZARAcAZBAAcA7A7A)AuBRBJA3A2BLA4A4AAA@A4AoAoAoAoA4ApAbAeAlAaBJBPAMA?AcApAGApApA?ARAuAgAAA6A+AgA<A)A>A#AhAaAMADAUAbAKAGAQAuA1AbAfAeADAiAiA;AaBYBGAHAVA9AfAlAaAQADAiAUA(AMAJA?A0AgACAYA;AcAuA;AiAlAcAKBdA;A7AEAkAuAuAwADAbAxAcAAAcAM",
"ACAAAaAAAaA%AyAxA7AuAxAHASApAZAgA}AxA;AxAKA7A]A(A9AgBSA>A?A$A4A@A!BLAoAoAoAoAoA$A7BDBKBSBgAcBJAlAxAMApAbAgA7AQAcAHAAAxA6A+AGAnADA>AIAIA7AXAXADAiApAGAUAxArAbAcAHA&AJAiAiAUAgBHA-AqANAlASAeAXAiAGA(AUAlA&AeA0BSACAgAwAeAbAUAMAnAgAeA#AQAAAaAYANA+AnAfBRA=ARAwANAa",
"ACBAAVAEAxBjAHAbAeAgAFAOADAgA^AAAZA9AAAgA7A%A]A;AbA&A;A>BHBQARARA4A4AoAoAoAoA/A|AGAbBLBKAUAgARAaAuA;AbAyAAALApAAA7ApA7AHAaAXA_AcA5AwA{AxAUASApAQAKAGADAuAAAKAuAlAaAaAfA;A+AlA%AkAHAYApAiAYAxAJAMAQApApBHA?AzBlA#AxBdAwA~ASAuAKAAAuAJA7AgADAKBfAAADApAbA=ANAKAvA1",
"AIAmBAA2A}AsAaAHAuBCAqAuA7APARAMAAA9AVAYAABAAgA9A&AWBgA3A6AwAuAZA4BLA4AoAoA4AIAhA$BDARA9AeAMAaA%AMBZAEA[AAARA7AGAQAKAyADAXA)AIA{A>AIAIAxBZAJAlAKAMADAUASBOADAQAUAFAaAiA7AuAQAHAqALAeAQAGAqA}AQAwBgAcAKAIAhA3BFAIAAAXAyALAJAAAYAHAbAHAeAWAFAYAiAcAAAHAyAMAiAHA1AG",
"ACANAGAgAYAHAcAbAKAaAuApAKARARAbAuA7A9AABCAtAAAxAgA+A9A0AIA#AAARApA@A@AfA/A$BQA/A|BPAuAbA7A$BXBXAwAUAqA@AaApAZAuAUAMAgA6A?BGAIAfA>AIAhAyAlAiAaAJAUADAXAUA;AQADAKApAJAlAbAiApA^A-ADAGAUAlAuAxBYAXA+AlAXAhA)A5AdA<A9A9AvAaAXAMAbApAGA{AJBOAeAGASAUAUAMAYAcADASAgBO",
"BBA9AQAKARAgA7AMARAbAKApAKApAbAcAuAuAbAxAZBkAeA7AuAJAfA0A|A$BcA7AMA$BJBOA4A6BRA4AnADAaAaBSA$AcA)AWAiAHBJAXAGANAbAXASAaApAaAaBUAbA3A{A{AyAeASA)AWAiAGASAMAnAnApAMAJAiAKAiAwAXA(AxASBOASAGADA6A+A_A|AIAWA|BSA0AdA&AkAxAxAKAMAxAuA;ADAWBHAGAiAxAKAXAUBOAgASADAeA(AD",
"BBAxADAgA!A!ARAbAHAeAaApApAeAeAxAAAAAKAGAxAaAgAXAXA#AIA3AgA6BXA7A$A$A{A$A4AbAUA$AMAMBcBKBZAaAuAlA7ADAbAAAXA7AOAaAGAGASBOAUAbAMAGA5AWAIAMAUAlAUAUAMAUAGAnAnAMA+AKBZAMASAwAXBUAfAwAGAXA(AGApAeA(AQAfA{AfA;AcAzBAA_AsAbAUAMARA9AuADADApAcADAQAeAMBOAUAxApAwAaAAA(Ap",
"ACAHAGAHA1ALANAgBHBdA9ApAbA7AuAcAAAHApAlApAeA?AnAUA|AhA3AIAWAHAaA6BRAXBDBJAiAbADAiAWBKBXAMAKA7A7A7AGAcA}ADASAeA&AbApAQAXAfADAQARA>AhAIAXAnBZAXAXAaAbAMAUAMADASAKBdAMAiAwAiAQAGApAlASADAGAGAlA;A;ASAUAGAJAAA3BFACA&ApAbApAgAuAaAMADAlAeAGApAaAUADAMAyAeAXAaAaADAl",
"BBBIAgAuAAAuAAAqBZAHA!ADAKA7AeAxAgAeBdAbAGAeAnBQBSBgAWAzBJAnARA/AeA7AcA$ApAKA$BJA@BDASAbAKAfBRAGBSA+AbAeA(AMAaAfBQA~AUAXAfAKA#AcA5AUAWBHAhBOAXAJBTBcAMAGAUASAUAlAfAQAGAeA;AQADADA&ADAKAlA<A;AKA(A;ASApAIBHA3A]ACAKAUAuAaAxA7AxA(AKAGAXAGA;A#AJA(AyAKAGAwAnA+A9A(",
"BBAuAeAuA8AbAuAdBZAHAAAxARAcA6AcAuA6BDAaAlA+AMA$A@BOBPA0A@A#AbA$AZAuARA/AbAMA4A/BKA@A$ApAKAIAhAKA&AgA7AeAuA9AGAJAJAGAGA;BGBYAWAgA5AWA#BYAnAQBOAXBYA6AlAbAUAUAGApAnAiAcAuAiAiASAeADAGAGAGA{AwAKAMASA&A7A#BYA3AOAIAaBRAQAKAAA9ALAUAbAGAXAMAJAIAnA;AgApAGAUApA6AeAD",
"BBAAAeAcA-AaAcAqAaAeAuAuAcARA@BDA7BKAZBZADA7AXBSAcA?A/A>ACACAMAUA4A@BXA$A?AlA4A@AXAcA/A/A/A<A<AlAcApASAbBbBXAwAeAGASAQAKAgBYBHBYA>ACACAuAMAUAUAWAfA&AwAQAXAUBOA;AlAXAiAwAXAUAMADADAHBXAUAbAuAlAGAlAlA;BRA%AzA6ACAwAnAcA7AMAxAAAiAlAKADAMAKA)A&AnAWAeAMBZA}BXA{AD",
"BBAFAZAuA9AxAxAvA!AZARAeAuAxBDBDAbAbAcAaAbAeA6A6AcBRAuA>ACAIAbBOA4A4A@A$A4A/A@BQBKA6A@A/BLBdA&A&A^AxAMAaA+A?AwApAGAQBUApBHA&A_BHA5AIACA|AMAUA(A{AGAeAlAXAiAXAXAwAMA(ASAKAGBdAXAUA7A]BkAXAKAKAfAGApA(A#A_A9AzA-A<AKA(AYAxAXAuA7ApAbA)A(ASA~BDAlAJAnA)AKASAeAeAWAD",
"ACBfAgAKAbAYAyANAAA:A}AAArAuBGA)AGBDAoBDAAA?BhBcAKA)AeA>A$A$A$A/AcAiA/AoAoA4BQA/BQBSApAbBdAJAXAGA-A9AaApAXAXAMA#A<AJAGARAcA)AWAGA0AiAhAMAMAUAUAXALAsA9AaA(ApASADAeAeAXAaAlAGAMAKAKAlAXAMAUAiA~AbAAAXA&AhA(A0A:AnAbAKA1BVADA7AyAvAAA&ASAQAwA?AeAWA;AQAxARAwAaAHAl",
"ACANAcAHAgAuA!ANARBFAAAcAHBDA4BKAGA7A$BKA9A/AoBKBKA$A{A3BQBQBLA@ApA/A4AoAoAoA/BQA$A$AbApBcA@A+AKAxAZAeAlA+A(ApA;AhAQA&AAA?AlA<BUA3AIACAAARAxAiARAsAAAGAbAxAeAfASAGAUA<AWAlAGAUAUASA;A(A;AGAGADADAbAMAbA#A?A3AVAhAbASAgA7ASAcAAANAHASAKBOAwA?A)AJBUAQAMApAXApANA%",
"ACANAHAsAcAbAAAyAgAcAcA7A+ARBLBJA?AcAbBKBKA4AoBLA$BPA$A0ACA#A4ANBcA4AoAoAoAoAoBPA$BDAGApBbBKBRAbAMBWA6BOAKAQAbA7A(AxA&AnA~AeAhA_A3ACACAHAcA7AiAlARAxAKAaAFADAwAiAXAQA<AWASAiAUAMAUAfAQAUAlAMADAXAXAUAaAwAcA3AEACAbBRASADAfA7AuARAZAXAKA(AeAAAwAfAlADAiAGAbADAAAK",
"BBBfAYAeAKA7ANArAYAZAlA7AeAaAKBSBKA4AcARA4AoAoA4A/A/A$A.AIBSBLARA@A4AoAoAoAoA/A/BQAMA4BKBZA7A@AuAJA(BTAeA!AHA7AgA(A#ADADAGAcA<BiA5AIAIAxAKAMAMAiAQAuA,AxAcAcAaAiA;A(ASASAiAwAwAUAXAfAWAwBdADAMAMADASAKAGA6A0AAACADA~AfA;ADAQAGAHA!AbAGASAZAxAfASAyA7BOAxA9AaBZAf",
"BBAHAxAaApAuAyAkALBbBDBdBJA?AKAnA@A4A7BKA4AoAoA4A4A4BKAzAhBDA4BDBcA/A4AoAoA4A$A$BSAKBLBJAMBKBXAaAWA_AxA?AAAeAaAeADA|A&ApA(A;AIAiA>AIAIAxAKAKAKAfAJAbBCAyARAAAuAlADAGAQAiAiAfASAlAfAfA{AJAlAGBOAUADAGApADARA0AEACAGAwAfAGAKAfApA-APAcAxA9AZBTAQAbA8AKAXA(ADAeA;AS",
"BBAAAxApAuBFAgA1AABlA4BgBTARA)BYAoA@BbA4A/AoAoAoAoA4A/A0A/A/A/A/A$A$A/AoA4A/A$AlAcADBUASBJA6AiASAWAwBTAAAYAaAeAJASAcASA;ASAWAIA+A>A#AhAbAXAaAMAUA#AQA8ALApAwAcAHBGAeADADAiAiArAuAJAQA;ASAMA7AXBOApAuAGAQAgA.AzA6AwAQAJAuAeAfAABEARA&AEAkARA9AUAZA9AWApAhA{AcAfAS",
"BBAFAHAaA!A!A]AAA@A}AHBJA/A/ARBdA-BLBhAoA4AoAoAoAoAoA4A0AoA$BPBPAWA/BKA4A/A$BPAbBDADBSA+AgA6AGApA)AlAKARBJBHAWBUAlA7A<AwADBUAIBUA>A{AhBTBGAKASBdA(ASAcA9AKAhA~AvARAiAKASA;AxAAA;A<ASASASADA%A6ASApAaAKBOAcAzAtA+AZAeAgAcAcAGAuAYAWA|A}AYAsAHAbA9AMAwA;A|AGA;AJAQ",
"ACA!AlAGAEAgAFAaA@AZAxBJBDA@BXBXAZBjAoAoAoAzAoAzAoAoAoAzBhA$AJAiADBdAuA/A/AGBJASA$BSAwAGARBDBRA7AgAaAMAQAIAhA#BRAKAaA#AJAlA(AIAfA>A#AIBYA(AMA~AuAxAfApA!AZAIA#AkAkAWAnAgAAAaBZA<A#ADAUASAQA}A-AXAUAUAGASA9A3APAIAdAFAqAeARARA)AAAKAlAAAyA=AAAbAJAGAGAXA;ASASAfAf",
"BBARA)AXAuAZA1AHAlA6A@A)AaBJA4AoBhAKA$A4AoAzAoAzAoAoAoA3BQBPA$BUA?AcAeBJBRA7ARA7BUBJAGAbA7A#AIADA|BgA(AWAIAJBZA;AGAnAfAbAwAWAhA~A5AWAIBZAXAGADAhA<AgAgBRApBTAhAyAjA[ACAjAaAIAIAIA~AGA+BDA7AAAcASA(AUAUAQA%A3A1AhA!AAAkANAHARA?AtAAASA-AVAyA1BAA^BAAgA;ASAJAxADAQ",
"BBAgADADAQAZAVBLA9BcBcAeA7BSBKBLA6A7BPA/AoAoAzAzAoAoAoA3A4A$A$A$A6AbAXA$A4BhA@ApAwBPA@AcBdADAQBRAhAIAWAfAMBPA(BdAJAhAwAeAfAQAWAwA5ACACAUAbASAXAhA<ArAlAfASAZAJAyAjA2A6BWA_AiA~AGA+AQBGAZA~A6A~A;AlADADAcBbA0AVA_AyAAArA1A1AdBAA:ApA7AVA:A1ArBAAVAcA(AUA&ASAGAfAU",
"BBAHAaAlA7ARBcBLAxBaBlBjAbAuAuAUBZBSA/A/AoAoAoAoAoAoAoAzA/A4AoA/A6A$BJAaA@A/AoA4AnBJBXAbA;AnAQBRAJAQAeA&AwBUA~BQAnA&A)ApAGARAIAhA5AIACAbA7AuADBGA)BDAaApAlAIAgATA:AqAmACAhA?AeA|AfA#A?A+A&A(AnBTAHAfASA;A?A0A:BQBVAOA1AZAAArAqApAWA)AaAqAjAxADAAARAXA+BDBJAGAfAS",
"BBA!AuA&BjAZARBjA9AZA6BbA4BLA6AuAcA/A$BJA$A/AoAoA4A4A4A3A$A/AoA$A;A;A)AcAuBJBDA/BQA)BDAMBRAJAnASBSBJA(AlA;A(AWBiAnA?AGAMAKAgA{A_A3AIACApAbA9AlBUASA~AJAfA~A#A+BWAdAhA6ACAhAWAbAnA_AIA&AWAfAcA!ARA)AnAgA~AcAzAVBQALAdAAADAxAYAYAbAJBUASApArAZADADAEAcAiBGA(AlAXAM",
"BBARA~A&AaA)A6AOAABXBJBJA4AoA4AHA6A$A;BDBDA/AoAoA4A@A/A0A4A/A@BQBPBPA+ARAMASAJARBiA|BQASApAfA|AXBDBSAUAGA(AJAiAnA_AlAiA7AxAeAlAeA3ACACASADAGAcAlAwAwA{A(A}AQAQAWBWBSA6BiAhA<AlA;AfAhAhAnA_ARAyA{AnAeAgAbBXA0BkAIAgA-AAApALAxALAuAWA{AQAQBFANAGApAcAGAQAKAxA7AUAa",
"BBARA(A(AXAeA!ARARA6A$BHBDAoA4A%AgAGBDA4AoAoAoAoAoA4A/A0A$A$A&A$A4A/ASAQA;BQBJA7AGBiA_ADASBQBPBgBPBJBDA?BGAWA{AeA)AnAKA-BWAgA<A~A3ACACAQAyA1AgA(ASAJAnAfAeAlAhACAZA]A]ATARA;AwAJAWAqA6AwAbAgAAAhAZAmA9AuAsA0A]ACA+A6AqBCAbA9AHA7AwAnAfAGBlA6AGAcBaAZAgA}AEA9BOAD",
"BBAAAMAKA!AeBJBhARAbA$A$AIA4A4BKBRApA/AoBLAoA4A<BhA/A/A3ACA|A6BBA:BhAfAwA{AnBSASBKBDAiAQA#BDA$AWA_AgA6A@A_A{A{BJA?A+AEAHBBAsA&A#AzAIACAOBBA?AVAfAWAJBUA(AJAIA)AYAAA6A^A:AGAgAIAlAEBTA+AwAQA%AwAAAVBBAEAvAHA0BaAIA]BBAuBEAUA!AYALAZAQAWADA}A1AIAIA[A!AZAVAYAeAnAp",
"BBAcADA)BSAaBJA/BJAeA@A4BPA4A4AcAiBDAoA4BKA4BhBDBLAfA$A0A|BQBKACAdA@A~ASAWAWAbA)A6AgA~ASBUBLA4BSAQAfBQBDA_AJA{A6BcAAAEAHBBBCAnAhA3A{AIA:BBBSAFBJA&AnA|A_AJAwAyA%BSAeAYATAfAQAfBGA6A~BGAfAJAgAlAuA*BBALAHAcA0AOAIA]ACAyAVA7ANAgAHAgAfAWASAHAqAhAIArARA%AHAJASAfAg",
"BBASBiA+BHBGA6A4A?AuA!BhBLA4AoBgAJA@A/A$A$AKAoBhAbA<A$A0BPAhBcA5AqAMA)BGA{A_AWAaAxAKAeASA/BLAVBhBUA&AwBHBUAWA|BbAJA7AAAkA2AKACAhA>A;AWAEA.AZAhAcBTA{A|AnASAyA:A}A~A+A,AjA&AIAVA}AfBWA-AcA#AIApAGAjA5A9AWA?AzAEAhAyAtAmA!A7AxAuAeAiAfA<AnARBAA]A_A~AGA&AwAfA(AGAp",
"ACA!AfA{AnA@BLBKA{BPA/BPBDBLBQA$A4AoA4BQBDAKBDBJA@A@BhA0A$A$A@A6BLA/A@A$A@BQACAhACAhAIBPACAhBcBQA|AhBQAIAIAJAZArAbAaArBXA~A{AhA?A3BABeBCAxA?A6A?BRA~A_A{BaAkARAnAIAJAFBbA^ApAbASAWA}BGA)AZBKA6ARAkBeAaA_BKA2AVBbBABAAVAdAVBAAmBAA-BSAZBcA6BKAIAhBDA6AcBDAcA?A}Bl",
"ACAVAuAWAwBLBLAuAhBPA4A_A6A4A|BLAoBhA4BDARAKAJA$A4BhAjA0AzBhA@AbA/BhA@A/AoA6AhBPA$BPAhA$ACACA$A<A|BPA$AIAhAAAVBAARAbA:BKAMBOBGA-A.AjA[AqALA}A-BWAgAxA~AJBEATA7A#AIAnAABTAtAdAuAMA;AeA{AKATAtA:AdAEAxApAgBLAtA*A:AtAtATAmA2A2A2AmAVA}AVA:BcBeAhBGA-AqA^BWAkAvArAk",
"AaA>A>A5A0AzA5A>A>A>A>A3A3A>A>A3A3A>A>A>A5A3A3AzAzA0AzAzA3A>A>A0AzA0A5A>A>A>A5A3A0A0A0A0AzA0A>A>A3A0A0A>A>A>A>A5A0A.A.A3A>A>A>A3AzA0A>A>A>A3A0A0A0A3A5A>A>A>A>A5A0A3A3A0A3A>A>A>A0A.AzA0A5A5A5A5A0AzA0AzAzAjAzA>A>A>A5A3A3A0A0A5A5A5A5A5A3A3A3A>A>A>A5A5A>A>A0Az",
"BBAbARBaBKBDAwA/A@AuARAoBLAiBQA4A4AXA?ARA6A6BRBPAhBJAoA0A3BLA$A_BQA/BJAgARA6A@BQBXBLAjA:A:A@A$BhA4A6BJBSBPA@A%BWBPBDBRA<BGBGA+ATA0AVA#A<AgAJA)AIAhAhAIAhA#AcA&A#A<A<AwBHAwASAlA+BUAhAIBRBGA?BWBGBTA_AhA|A-A.AjAvAAALAdA%AnBKBWA+AIBJAqA6AJAWA&A+A^A&A)AcApA)BRBL",
"BBACAIBiBQA|ACACBPAIACA$BQACACBPBPACAIAhBPA|ACACACACA/A3A4BPBPAIACA$A|ACACACA|ACA|BQBLA@A@A$BQA/A$BQAIACACBQA<A<ACAhACACACACACA6A3A_BBBBACACAIACACACBBBBBBAIACACACACACACACACACAIAhACBBACAIACAhACA<ACACACBXA0BEAhA|BiAZBiACBUBJACBBAhBPAIACACACACA<ACACAhACAIAhBL",
"BBA4A/BDA4BXA6A$AoBKAcAlA_A$BDAiBXA4A4BLAoA/A$BLANA~AfA5ACAWAjAzA-ArArAKAaAWAiAxBHA#A?AtAHBcBLATA-AmArAxAsA-ArAeAJAWAWBXBEAyAAAaA5ACACAMAaAaADAbAGAKARAbAMBkAZA&A&A%AKBdA?AAAfA}BkAeBkAAA%BGAnBbA^A[AqA1AqA5ALAIA.AzAtA-AiA?ADAbBjA]AXAxAWAnBdAxBSAJBTBeAZA%AqA.",
"ACA4A/AuA6BKA4A$BbBLBKAGA/A/ASBDAoAoA@AwA$A/A/ACAtBaAcA0BQBDBbACBAArBKBGAJAnBiA)A~A~AwA6BWA6BLBAAVBAAAA-A9BTBDBeA7AwA8A?ACAkAKA<A3AUAIA(ACAwAKAQApAnAaAuAMA+AcAQAJAcAXA(AyAQAwAaAuAgA+A%A?A<AnA%A+BBAkAqA1A5A[BJAVBBBGA*AHBUAQAABFArAAAGA|A|AnBIA]AfA)A9AeAgBAAj",
"ACA4A/BDBDA@AoBcAuA4A/A?AoA@BDA4A4A4A#A<BPA4A4BBBhA@A6A0A$A$BGBBAVBXBJA&AWA&BHA_BGA_A#BUAgA6A:A1ATA-A&BXAYA_BJA%AcA;A1AxBBAqAfAIA0AUA#AYACA9AbAJAeAWAfA+AMAbAbAGAJAGAwBHAAAfAJA;BTAbA+A}AeA{AfBbAcBBAsAkA^A3A*BKAqBBAwA2AHAGBUARA^BABeAiA&BHAfBFBAAeADA9A9AbAVAt",
"ACAoA@A@BSBhAoAoBKA/A/BDBJA$AoA/BDA)A|AWAiAHAzA3A@AlANA3ACACAgAzAqAKAJAUASBbBDAWAWBHAHA_AhA6AVA%AjAAAJADAeBDA&AfApADAAAjATBbAJA(AzA#A#AHA[A2A)AfAQAUBgAwAeAAAiAfAwAJAwAKAXAlAwAwA&AxA9ApA}AcAnAaAjAjAdAuA6A0AmA6ATAjAjATA:A7AWAQA]A:AVAeAWAhA#BTA-A]ApA<AeAVA:At",
"ACA4A/A4ADBKAoAoA4A/A4A/A4A/A/A$AXAJA$A$BRA+AqA@AbApANA5A#A|A@A@BUAiAJAABFBXBDAnA|BDAZApAKBSA$A^BDA_BiAeAiAxA-AGASASA9BbBDAuAJA&A0AWAIAbAHA9BUASBUAaAXAJA(BYAQAfAiBOAXAyAXAcAwAwAeBeA+ADAeA&ADAcBkA6A&AiARAzBAA6A*ATA*AmATA-AbAGA^AVA[A!A_BHAJA&BKAdAgAnA%AtA[A*",
"ACBLA4A4A$A@A4A0AoAoAoAoAoA4BPAJAiAJA/A/A6BdAlA$AKAnBPA3A$A$BKBDA&A{A<A<BKA6BHA#BKA:A6A)AvBLA@A}AhA#A~AKA%A6AtA9AiAwAuA_AWA+A{BUA>A<AIAKAGA?A~A&A~AnAQAQAQAcA9AWAwAUAWBgAMANBHAfA)AuAGAJAnAnBRBYAcAnAnBOANAzAVBbA2AmATAmATAtA^A)A-AmA*BAAgAgAbBSA6A*A^ApAdA2AmA*",
"ACBLAoAoA4AoAoA4AzAzAoAoAoBUAWAeAGA(A_A/A@AMA+A)AUAWA6A5AIAhARA(AJAnAnACACA%AWA_A6A6BSBTA&ARAmAwBABPA6A:AKAnASA:A6AWAiAJAnAQA#AQA>A{AIAaAMA&AfAgA;AhAfAMADA%AAA#AWAQA{A<AXARA~A&AiAuAAAQAwA~A6AuADASA+AJAgAzAdBDA2ATAtAtATAmATBUAgA2ATA2A-BWA:BABAAtA:AVATAtATA*",
"ACA@AoAoAoAoAoAoAzA0AoA4A/A/A@AaAlADAiBJBPAlADBSAwAJA6A5BRAhBKA{AXA(AnA<A;A+A<AWAwBPBJA&A#A~AZAiAgBRA&ArAqAnAnBGAgBbA)AnAJAfAnAGA3A{AhAbA(AfAfA;BYA<A|AGBOAeA,AxAlAXAQAfA)A;AiAfADAxA+A9AGAKA^A;AwA(AgAnA%A0A2A-ATAmATAtATBEBEArBAAtAVAtAVAVAmA:ATAtATATBEBEBEA2",
"ACBLA4AoAoAoAoAzAzAzAoBhA/A4A$BXBLA~ASAnAJA(AUBGAUBHBGA5BQACADAGAMAGA~BHAlBGAnA#AWA(A)AJA&A6AxAeAJAfA#AZA?AnAgA]BWA:A%BUBRA+AfAbA3AJAhAaBTBGAiAwA(A&A&AaASAeAAAiASAXAXAfAwAwAfAiApAcAlAgAXASAKAiAiAiA(A(BlA0A2A-AmATATATBEAtATATA[AqAqA*ATAmAmAmAVAmATATAtA*AtA2",
"ACA4AoAoA4A4AoAoA3AoAoAoAoBKBJAoAoBLAXA4BLAJADAJA&BGBDA3A%AIAQBJADBRA~AJA+A)A<A|A<A(A;AJA+A7AdA6AnAQAJA_AWA)AYArBABWAqA%BYA)AJAuA5AJAIAMA(AlAQAQAXAMAxAMAUAKAMAfAfASBOA;ASASA;AeA;AbAbApAXAiA)AUAUA~ADAJBkA3AmBcATA[ATAtATATATA[AqBAAmAmAmAmATA[BWAmBEATAtBEAmA*",
"AIBLA@AoBQA/AoA0AzAoA4A4A/BDA)AoAoBLAiA/A@AiAwAwA_A_A6A3BHAhBOA?BTBRAQA<ARA]AWA|A(A)AJAwAiAJBkA+AWA~AKA^A<AnBAA7ApBWA:A}A;A+AfADA5A#AIAKAUAUA;AeAKAXAlAMAKAKAGAUAXADAJA&A;AXAQA;AXA?AAAKAiAiAlAuA(AHAKAKBbAzA:A6A2AtAtAtATAmAmA[ATBEATAmBEBEATBEA*A2A2BEBEBEAmAt",
"AIA@BDA4BRA@AoA3AoBhA/A4A$BPBRA4A/A$AiA$A$BZA{AJAQAJBTA0A|A#ADAeAcA{AWAIAlA^A(AWAlA;AfAiAJAXBaA(A+A6AaAqA#A{BWA-AnAAAmA]AwAgA~AXA5A{AIAaBZADBOAxAKAiAaANAaApAaAUAfASAWAXADAiAQAfA+BWARAnA)A(A;AxAXAZA(AeA%AzAmA6A.A*AtBEATAmA[ATATAtAtATBEBEATATAtA*A*AtBEA*ATAt",
"BBARBDA6A/A@AoAoAoBPBPA4A#A/AoAhAhA<AGAbA?ADASAXADAWA<A0AqBJAMA)AgA{A#A<A7BGA|AfAlAGAWAfA&AQAWAWAxBkAQA<AJA-BeA?AKAXBAArA;A&AJApA5A#AIAaAKAGAMA;AUBOAlA7AUAMAMAUAJASAXBOAXAQA~A~AQArBTAWAlAlAfA;AUAiAXAJARA0AmA6ATATA*AtA*A@A@A*AtAtA:ATBEBEAtBEAtAtAmAtAtAtAmA*",
"BBA@A$AgA/A/A/AoAoA|A|A$A@BLA$BPBDBUA)ADADAQA+A&ASAnBHA>ACACAKBiARBHA#A(AgA~AhAWA&A_ASA&BHAJAJA~BGA+ASAfAZAqBAASADAJAgA?A(AUAnApA5A#AIAaAKAaAMAlAaAUAUAUAUADAMAXASASAfAiAwADA;A(AMA6A;A;AMBTA+AQAQAXAMAwAHA0ATBKA:AmATAmA*BABLBEATAtATATATBEATAtATBEBEAtBEAtATAt",
"BBBLA/AaAoA/A?A4AoA|A{A7AoBXA{A/A4BJA)AJAJAwAbAGAlAQA7A>ACBBAWAWA7AuA&BGAJA&A#A{A&ASApAeAwAWAJAlA~AWAfArA1A}BaArAgAWAWBHBKAgAWA)A5AJAhAaAMAGADAMAUAUAXADADASAXAXADASAiAMADAUAUAwBgAQAQAlBGAUAnA(AfAQAUAiAxAzBABYA*AmAmAmA*ATA[BEBEATATATBEBEAtBEBEATATATAtAtAmAt",
"ACBVBKA4A$BSBJA4A4AgAlAXBPA)BRA4AoA/AJA$BQAJAWAwAbA|AfA>AyAhAMAnAnA+A(A;A~AXAJAJAZBCA7AgA#AWAQAiA]AJAXBAA1AHAqA7AWAJAwAnA~A)A<A(A>A{AIA7AKAMADAUADAUAXAMAUAMAQAUAiA;AJA#A%ADAIA<AKAKAfAlAlASAXAiAfAQASAQAgAzArBGA2ATAtATAtAtATAmAmATATAtAtA*A*BEBEATAmATBEATAmAt",
"ACA@A$A/BJAMBDA4A@ARAlBUA|BPA$A/A/A@A_AlAQAXA_A_AQA|AQA0BhA6A;BiA#AnAwA_AWAfAGA&AYAZA(A+A{A&A?AlAxAbAgAYAZA(A^A(AnAQAiAfAJA;A<A(A>A#AIA7AMAlAUAUASBOAMAGADADBOA<AnAMAfA<A6BUACA#ApA(AQAJAnA;A(AQBOADAUAQARA.BABJA2ATATBEA*A*BEAmAtA*AtATATA*A*BEBEATATBEBEATA[At",
"AIAoA$BZA7ADBDA@AgAKA?BXA|A$A4AXBgBJA$BgBRADBGBHAfA)BlA0BLA$AWAIBHAIAhAhA<AwAZAHAAA~A<A<AnAtA2APBZAVAjASAQAZAeAiAfAMASA;AJA~A<AlA5BgA#AaADAlBOAQAXAXAUAMA(AiA~AWAQADAlApAcAQACA{ADADAKA{AIAfADAGAQA|AQAwAcAzATA6A*A*AtAtAtATATAtAmAmAtATAjA2ATATATATAmAmATATA[At",
"ACA/BPAbAXA$A/AaBdA4A@BdBDA4BKAXBgBSBSBUBJAKBRBHA|AlANA5BJAIAnBTAWACAIBGBTA(AKAwAhAgAuA#A)A.A3ARA~AHA-AnAiApAnA#A]A.AXAWA|A)AWA&A5AWAIAaAUAUAXBTAlAXAXAXAGA7AMAUADA&A~AQBTA#ACAWAGAbA#A#ASA<AIBUADA&AiAiAAAzAjA-ATA$AVA2A:ATA2AmATATATAjA_A6A2AmAmAmAmAmAmAmAmAt",
"BBBKBDASAKA6A@BZAJBLA@AJAgA@ApAXAQAXA;A$BDAuA)AWAWAWAaA>AhACA#AhAGAhAMA;AhAIAJAWAhAKA)AQAnAHAtBUA_BUA?BTAJA{AWA_BHBcAqA%A+A~AnBGA5A{AIAKAUAKAKADAUAUAXAiAuBbAMA(A(A&BHAJAQBHAIAJAUAMAJAnA~AwA{AiAbAGAIA{AAAzA*A%AtBLA-A:AtA*A*ATA*AtATA2A6BWA*ATAmAmAmAmAmAmA[At",
"BBBKBLBKARAaAcAGAnAgA6AJBSAMAUAlA(ADAeBKBSA+BGA<A|AnAaA>BHAIAhACAeA{AaA#AIACAhA|A~A_AnAbA#A{A+AwAyAaA&ARAwAfA_BHA<BRBcBaAwA&AJA+A5A{AIAMBHAKAMBOA(AMAXA;AKBGA;AUASAfAlA-AeAyAKAXAwAJAMAwAWAGAUAMA7BUAnAJARA0AdA+AjATBaBWAtA[AmA*ATATAtBEA2A*AmATATATAmAmAmAmA[At",
"BBBLBhAzA/AlA)BRA~A~AfA@A4AbADAGAUBJA4AgADA?BGA_BRBUAcA5BYAhAfA~AfAJAnAfAnAIA<AnAAA&A_A|AIAhA#A|AYA&A_A)AlAiAnAJBHA&A&AgAHA^AJA+A5AJAIAaBZAUAMAMAUAXA;A(AKADA;BOASAQADA-AAAgBOAXAnAhAMAfAwAKA(AUAWAXAKAQAZAzA2A1A2ArA[A6A:AVAmATA*AmA:A*AmATBEBEATAmAtATAmATA[At",
"ACA4BcBLA$BdAMASADASA)BLBbAMAGAGAUBDA@A6AcADAhA|AbAWBRA3AIAIAuA+AGA<AhA_ApAIA#AWAQAhA<AnBGA~A<A|AwA#A|AHARA{AWA|BGAWAeA?A%AaA_BTA5A{AIAaBZAMADAMADBZAXAGAGAMAMADASBOBOAuAaAGAUAUAQAwAXAMApADAJAMAQA;AlAlBbAzAjAVA2A2AVBaA:AtAtA*A1BKA-AtAtAtBEBEATATATAmAmAmA[AT",
"ACA6AQBSA$AMA(BdApAbAXAUADAUADADAMA)AqA4A@A;BHAJAQAnA_A3AhACAKAfApA)ACAhAxAiA<A{AwAhAnA!AeAhA#AHBHBUBSA%BHA|AnAhAhA)A)AwAiAXAWAeA5A#AIAaAMAMAMAMAKAUAXAMAMAKAGAUAUAQAiASAQA7AGAlADA(ASAXAQASAJAGADAMAUAlBWA0AVA?A*AtA2A*AmATATA*BaBWA2AtATAtAtATATATATATA:AVA[AT",
"BBAuAQBUBKARApAfA+ApAUADAMADAMARA)ARA:BXAaA?A<AWAnAJA6A3AnAhAGASAXA;ACAJAuAJAiAwAIAhAGA_AIA)A_AeA|ARA|ACAnAnAnBYAfA&A)A(A(AQA#AeA5A{AIAKAMAGAMAMADA(AUAUAMAMAMA6AKA%A_AJAQAQASADA9AgAQASA(ADAMAKAKAGAGAXAyA0A*BcA2A*ATAmBEAtBEATA[AmA2ATATAtATATATATATATAmA:A:A:",
"BBA7AfA~AuA6A)AfAeADBOADApAUAGAcAlBcA^ARAlARBRA&AwAfAZA3AAA_AUA;ADA&AhA&AlAWAiAQAhAwA|AhAhA)A_AwA_A&AhAIAJAJAiAKAlA;AiAGBGAUAhA7A5AWAIAKAMAeAUADADAMAUAMAlApAXARA(A?AwAwA(AQADAMA)AHA7AfAuARAGAbAaAMAGAXAAA0AjBAA2A2BAA:A*AtA*AtAVA:A*AmAmATATAmAmATATAmAmAmAmAT",
"BBAbAQAlA)BTBSAGADADAGAlAlAMAUAJAcAeASApAKAUAaBeAMAJBTA5AIACA7AgAiA+BdAWA#A|AiA{A#A{AhAnBHAhA#A|A)A+AWASAEBWBWAiApAlAJAXAiAXA<A9A5AWAIAKAUAUBOAXAMAMAKAGApAGAQAQAiAiAeAMADA;AIASAJAcAKAfAGAMAfA_AGAGAMAWA9A3AVA?A2BAAVAmATA*AVBAA2A[BAATAmAmA[AmA*A2A:A[ATAmAmAt",
"ACA!AiAhA~AbAeA&ADAXAQA)A)AQAJAiAFAKAWAHAHA?A)AKAJA)A]A5AhAIApBTBGBGAAAnAhA<AwASAIAnAbAcA+AnAIAhADA_AhA;A,AkBFA(A#AnASAXAiAXA|AcA>A#AIAaAMAUBOAUBdAKAnAXAKAKAUAUAfAQA~A{A&AQAIAJBGAyAaAJA&AbAnAWAKAUAXAJA6A0AtBXA*A:AtAtATA*A@A-AtA[AmATA[A[AmBAAIBGAVAVAdATA[At",
"ACAAAiAiA+AAA&ADBSAwAJA+ASAQAIAXAMASAXAAARA6ADAGAfAaA^A5AhAIASAXAaA&AnA#BHAIAWA7AIA&AHA+BYA|ACA<ApA|AhA<AUAuApBZAwAXAXAXAiAiAJAeA>AJAIAKAXA(BOADAKAKAhAWBOARARADAbA(AgA;ASAiAJAXAxAvAaAfAMAAAaAaBOASAUAwAZA0AzAVA*A2AtATAtA*A:A:ATATAtATAmA:AdBABGA6A:AAAZAmA:AT",
"BBAuAUAlAHA1AJAGBDBSARAGAwA&AwASASAMARAXAaAeAXASAQAGBkA5AnAIASAfAKAaAIA_AwAJA|A#ACA_AuAhBYA_ACAxAbAbAJAIAWAaBZBOAKAXAiAXAXASAfAuA5AbA#AMAMAUAUAUAMAlAiA|AcBAAYA?BjAxA*AmAMAQAJAfAxAEAXAXA(AGAGAbAXAXAMAwA6A0AzA[A2AtAtATAjA*ATBEATBEATAtATA[A}BAAzA2BCAJAgA:A:Am",
"BBARAlAGApBYAlAlA&ApA?ADASAaAKADADASASAQAXAaA;AfApAuA}A3BYA#BOAQAQAWAbALAIAIAhA&AhAIA_A|A_AgAnA&AaAaAlAfAgAyA;AbAGAwAJA(A(AUAwAxA5AXAIAKAUADAMAaAbAMA{ARBjAgAbA%AcAbAuA7AGASA{AnAWAcAJAwA(AGAMAUAQAXAXAXA%A0BEAZAjAtAtATA2A*AtAtATATAmAjA+A_AAA&ATAcAwAJAWBHA:AT",
"BBAAAlAGAlAMA)AGAQAUASAKADAbAUAlAMAiBOAGAiAUAQAQAGA+AHA5AhAhAGAQAQAQAcAgAJACAhApBHA#A|BdBGAbAnApAGALAgAfAcAxAKApASAwAJA~ADAiAnAuA5AJAIAMADAaAMAKAaADA{AaAcAUAUApASAMA(AXAeASA{AJAnAiA#AWAlAGADAUAXAiAXAiA6A0BEA6A2AtAmATA*AtAtAmATAmATAtBQAWAfA<ArAdA~AJAfAQA-At",
"ACAgADAMAMAlAGApADApAbASAnAXAXBOAfAwAUASASAXAiAQASASAcA5AJAhADAiAXAGBJAiADAWACA_AHBHA|A7AxAnACADApARAGAXA&AiA~ADBOBZA~AfAiAXA_A+A5BgAhAKADApAGAMASAUAMAMAXAKAUBOA;A(AGADBOAfAfASAGAJAhA&A?AgAIA#AQAQASAQAeAzAmBDAjAtAVATA*AtATAmAmAmAtAtA_AIA#A<AYAzARAQASAQA7A2",
"ACAgASAXAlA)ApA7AaAGAQAQAgAaAXAQAcAcAKA7BOAQAbAGAQASALA3AhAhAbAKADADAlAaA#ACA<AaA_A#A<AgAbAiAIAIA_AWAWAIA{A{AUA;A)A<A~AbAeAiA_BTA3A;A#ApAKAaAcAGAuAUAUAKAGADAUASAcAlAUAeA9AwAxBGADAfAiASAUAlAWAnARAbAUAiARA0A:BJBABaA:A*A[AtA*A[A:AtATA2AtA)AWASAuAVA6AJASAuA:At",
"BBArAHAfAlA&ApAcAKA(AJA&BWBTA;ASARAAAcAcASAcA]A~AQAQA!A3ACAIAYAgAxAbAKApA#ACBHAuAWAIAIAcA_AnA<ACA<AbAaAIAwADAQAUARAhBGALAAAfAJAgA3AnAIAMA7AHAZAgAAAaAUAKApAMASAlAAA7BYAHAuADA%BGASAXAQAiAiAXAQAlAsAaAaAMAgA.ArA<BABWAVA*AqA[AmBAAVA2AqA^AzBbBOAbAxAEAgA_AnBDAmBA",
"BBA:A^AQAKAlA)AyAhAuA%AWBHAJAnAbADAfA?A+AXA9BABBAAAQA7A0BTBGAxBBAdA-A&AfAiA#A_A)AcAhAIA|AhA?AgA<A7AuA7AwAwAMAWAuAABHAkAZBBBlA~BHA3AIACA9ACA_AVAXAUADAKAKAHA?AQAGAUA]AZAlAuAGA?BkALAiAXAXAMAQAeAEAVBBAEANBSA.AvBQAjBBA|AjAVAqAeAJA)AtBXAnBAA_AZAiA[AYAMA+A<AlA<A)",
"ACArAiASAKAlADAKA{A)AcAiBdAiAJAGASAnA9BTAQAiAmAYANA{A7A5AWAWBVAEA[AqAKAnA#AhA{A~AbAiA#AhAhA+AAAUA)AKAwAhAJA7AXBOAUAnAyA[BeATAfA|A5AhACA9A%AdAuAiADAMAKAaAgADAfAbA;AUA#AlA7ApAeAAA9BOAeAGBZAUA7AZATBeAEAeBDA.AsA|BbA|BWATA:A6AnAWAiArBSAIA&BRAZAZA%A+AfAJBiBGA#A)",
"ACApAJAQAQAXAwAJAiAwAJAXA;AnAJAJAiAiAWAJAUA(A8AHA#ACAcA5AhAIARAdAABGA;A#AhAJBgA#A#AnA#ACAhA<A_BZAIAIAIAIA(AlA{BgAWAnBYA1ALA?AWA(A0AhACAUAyAYAJAJAJAUADAMAXA{AiAKAJAIAWAgBOAGAGAwAnAiASAUAiBOAMAUA]A-BgAhAgA3A9ACAGArA:AVA^AWA#AJA+AxA#AIAIA#A#BGAIA#AJA<A|AnA{Bi",
"ACA1AvA8A!AEAHAAAcAkAOBMAYA,A8AAAyAAA}AFAkA2A%A+A(A%A.A>BEA%ANAYAvAdAKAaA8A+BFBNAHA}AAA9AABAAtAyAZAgAHBVA-A[AZAuARA%A:A%A?A6BWA:A>A.A%A%AYAAAHAHAqA:ArBMAYAqAVAtAEAyATAjAqAOALA}AsBCA,AEALALAPAVAmBYAKBFA2A>A3BbAcA%ATA0AzAVBABXAVAzAzBWA9AEBABTA]AYA9AkA.AVA9A:",
"ABABABABABABABABABABABABABABABABABABABABABABABABABABABBBABABABABABABABABABABABABABABABABABABABABABABABABABABABABABABABABABABABABBBBBABABABABABABABABABABABABABABABABABABABABABABABABABABABABABABABABABABABABBBABABABABBBBBABABABABBBBBABABABABABABABABABBBABABAB"
};
