/* XPM */
static char *texture[] = {
"128 128 128 2",
"AA c #3D3B36",
"AB c #49473F",
"AC c #463D30",
"AD c #504E46",
"AE c #4C4942",
"AF c #56544A",
"AG c #47453E",
"AH c #383025",
"AI c #3F3D37",
"AJ c #82807A",
"AK c #535048",
"AL c #3B3A34",
"AM c #3F3D34",
"AN c #392B1F",
"AO c #4E4B44",
"AP c #4B4840",
"AQ c #433F35",
"AR c #4F4D44",
"AS c #181714",
"AT c #44413B",
"AU c #413F39",
"AV c #37362F",
"AW c #272520",
"AX c #444137",
"AY c #1C1A17",
"AZ c #6F695B",
"Aa c #514F46",
"Ab c #474034",
"Ac c #403F36",
"Ad c #312E28",
"Ae c #2E2C26",
"Af c #48473E",
"Ag c #67645A",
"Ah c #403E37",
"Ai c #424039",
"Aj c #3D3529",
"Ak c #49473B",
"Al c #47443E",
"Am c #4C4A42",
"An c #161410",
"Ao c #59554A",
"Ap c #292823",
"Aq c #747166",
"Ar c #535248",
"As c #3E3C34",
"At c #8F8D86",
"Au c #403F39",
"Av c #1F1D19",
"Aw c #525045",
"Ax c #36332C",
"Ay c #7B776C",
"Az c #3E3D37",
"A0 c #4E4436",
"A1 c #45443B",
"A2 c #4D483D",
"A3 c #3E3C36",
"A4 c #14110E",
"A5 c #605D54",
"A6 c #46433C",
"A7 c #32302A",
"A8 c #40392F",
"A9 c #23231E",
"A! c #4A483F",
"A# c #0E0C0A",
"A$ c #665F51",
"A% c #554D40",
"A& c #4D4C42",
"A( c #414139",
"A) c #35271B",
"A* c #2C2118",
"A+ c #3C3933",
"A, c #261F18",
"A- c #5F5748",
"A. c #12100E",
"A/ c #171512",
"A: c #463729",
"A; c #2D271F",
"A< c #45433B",
"A= c #3A3831",
"A> c #1B1612",
"A? c #221B15",
"A@ c #100E0B",
"A[ c #4E4C43",
"A] c #43423A",
"A^ c #3D3B32",
"A_ c #3C3B34",
"A{ c #494438",
"A| c #45423A",
"A} c #33322C",
"A~ c #0B0907",
"BA c #3A3731",
"BB c #3A362C",
"BC c #3A332A",
"BD c #535147",
"BE c #322B23",
"BF c #322217",
"BG c #22201A",
"BH c #474337",
"BI c #565148",
"BJ c #201F1A",
"BK c #211811",
"BL c #3A3932",
"BM c #27231D",
"BN c #141311",
"BO c #4E4A3F",
"BP c #2D2924",
"BQ c #4F4D41",
"BR c #0C0B0A",
"BS c #47453B",
"BT c #3F382E",
"BU c #4C4A3F",
"BV c #43403A",
"BW c #41382C",
"BX c #4C4B41",
"BY c #43433A",
"BZ c #4A493F",
"Ba c #070401",
"Bb c #504E43",
"Bc c #47463B",
"Bd c #413E36",
"Be c #10100D",
"Bf c #3D3A33",
"Bg c #524E45",
"Bh c #47443A",
"Bi c #4A443A",
"Bj c #4C493E",
"Bk c #514C42",
"Bl c #504B42",
"AtAyAyAJAJAJAJAJAJAJAJAJAJAJAJAJAJAJAJAJAJAyAyAtAtAtAtAtAtAtAtAtAtAtAyAJAJAJAJAJAJAJAyAyAJAJAJAJAJAJAJAyAyAJAJAyAJAJAyAJAyAyAyAyAyAyAJAJAJAJAJAJAJAJAJAJAJAJAJAJAJAJAJAJAJAJAJAJAJAJAJAJAJAJAJAJAJAtAtAtAtAtAtAtAtAtAtAJAyAyAyAJAJAJAJAJAJAJAJAJAJAJAJAJAtAJAJAJ",
"ApBaA#A.A#BNA#BaBaBaA#A#A~A~BaA~A~A#BNA~A#BaA~BWBkBABBBBA=AxAxAQBIA=A#A@A4A@A.A4A.BeA@A#A#A#A~AnA~A#A@A~A~A@AnA~BaBaA~A~BaBaBaBaA~BaA#A#A~BaA~A~BaA~A#BRBeA#A#A#A@A@A#BeA#A#A~BaA#A~A~A~AnA4A~BaA4A:AHAHBCAHBEAxAQAQA%BJBaBaA#BNBeBeBeA@BRBaA~A@A@A@A@A.A@A#A#A4",
"AyBgA%AgAqA2BIAgAoAZAgA5A-A5A5A5AgAqAoBUBCBMA>A$AqAPA$A-AlAOBIA1AyADBMA7AiAKA-A%AgAZAZAoAgAqA5A5AFA$A$A5AZAoAHA:A0AZAbANA0AZA%A-A:A$A-A-AqA$A5A0A%A%A$A5A$AgAgAgAZAZAqAZAZAZAZAZA-AqAgBIA-A{A;A?BGAyA0A%A5A%BOADBQAgAJA7AYAdBhA5A5A5AZA5A5AgA-AgA5AZAqA5A5A5AZAo",
"AtA-A-AZAqBkBIAgA-AZAgA$A-A5A5AgAZAZA5BOBCBGAnBIAgAlAFArAfBgAFA[AqABAYApAUBIA5A%AgAgAZA5A5AqAqA5AZA$A$A-AZBIANANAjA$ACA)A%AZA-A-A:A$A-A%AqA-BIA0A%A-A$A-A$A5AgAZAgAgAgAgAgAZAqAqA5AqAqA$A%AbA;AnA?AqA%BOBIA%BgARAkAXAyA}A>AdBjA5A5A5AgA5AgA$A-AgAgAqAZAgAgAgAqA-",
"AgAbA2BSACAMAVAiAHAhATAsBCA^AAAMAkAcATAVA;A>A.A2AoAlAmAEAPADAFAOAgAuA.ASAdAsATAsA<AGAkBABABLA^A^BOA8BBAQA8ANA*A,BKAHBFBFA:ACACA2A)BWAjAHA_AHBFA?BFA:BWBWACALA=AUAVAVAVBLBLA}ATAlA]A]ABAXBEBEBMA4A?A$AoBgA%A%BIADABAXAqAVA/BMA8AGAIAIAUALAuBBAVALAAAIBdAhATA<AXBW",
"AZAMAGBjAbAXA<BlA2A!AUBMA?BAARBIBcAKBQBHBEA4A~AFAqAiA&AKBbAFAFA!AyA6A4AvAHAQAOABAGA&BZAeAxA]A1AKBOBHA2ADAkAHAHA*BFAbAHBFACBOA0BkANA0ACACBSAHA*BKBFAjA&A{A{ABAGAGA<A|A<A1A}BMA7A6ARA|BZBZAQAMBMA?A,A:A%A%AoA%A%BgA<ARAqAdBNA;BTAfABABABBYBSBPAeBYBYA1AkAUAOAKBHAb",
"AgBbBkAXAQAkBOBUAkBjAdAbAJBCABBIAEAaBHA|AdA/BRACA$AaAKA6BBAfA[BQA$BBAnAvA=ABAGABA&BXA1AtAXAVA&AEBXBjAkAfA&A8ANAHBFACANA)A$AoAbA2ANACACAbBcAHBKAyA%A)AEAGAQBgBbAGA]AkAfA1ALAtADA}APA{BjBXBcA8A;AnA?AZA-A2A0ANAHAkA[ARA5AeBNBPAQAPABA6ATAkAeAyAgBAA!AcBcAPAPAEARBU",
"AgAQA^AMAcBbBbBSAkA2BMBiAJBCA}BQBUBQBOAiAdAYA.A0A$AFABBiBHBCA^AXA5A=BNAvAMAPABAPARA!AVAyAlBPA[AEBXA[AkACA0A{A8AHA)A0A:AHBiBTA{A0A0A:AQBiA2BCA?AgA%A*AiAGAkA$AoA!A!AqA5AOA}AZAgA9AIARBUBOBOBWA;AnBJAZA-A0ANBCBCBCBbADAoAeA.AWAQA!AlA6ABA(AxAqA5BBAPBSA&BgBgADAFAF",
"AgAeApA<A!AwBXBUBQA2A?BMAOBKAxArAFBOAoAsBEA?A4A-AZAKBPAZAtAjBEAXAqA<A/A9AfA&AmAmA&AGBJAdBPBPAaA[AkBOBUBWACA%A%AHA:A0A{ANBKA*BHBOA,AHBHAkBQACBKBTA,A?AiBSBIAZAoBIBIBiBgArApBLAYAYAIADBQBQA%A8A;A>BGA-A-ACBKAJAyBFA0BIAZA}BeBMAcAfAlAfBbATAvBBBPAxAGBUAFAwA5A-AlAo",
"AgBWACABABADAoAmAfAGBBBMBMAdAfArAkAfA!AGAxA?A4A5AyArApAeA5AWAdBQAgAiASApAMABA&A<A1AGA}AYBMBdADAmAwBOBiAMAOA{ACA:AjBHAbANBFBFA;ACBFAjAkBjA2A2ANA*A?AHBdBhA2BjAPABAPA|AxAmA+BGBMAdAGARBUAkBHAQAHAnA?AqA0ANA>A2BHBKBiBIAZAVA/BMAcA!A6AlA!ATA}BMAeAsAmBbAkADAoAFAEAF",
"AgA8A{A&BbArAEAEAkAfBcAjANAQAmBQBjA[A1AXBCAvA@A$AyAGAxAvAdBGAMAFAZA6AYAWBBAQAPAGAGAGABBBA^AEARBUBOA2BOBiBbAbACAHANAbA{AHA)BFA)A:A{ACAbA{ACA0A:BFANA0AwA%A%BOBOAGBiAwACA2BjAjACA6AmA{AkAkAQA^A;A4A?A-A0ANBKAeApA?AkA%AqA}AYA;BBA<AmADADA!A<AjA^AlAaAwAEAoAwBSAOBU",
"AZAKAoArA-AoAAA5A-BOAwA%A0BgAmAkA-A5AEAjAHBGA#A-AgA]AmAdA>A;A&ArAyADAvAWA8AbAOAFAoBXA5BOBDAoBIBQA{BQA5BQAqA$A2AjBWA-AoACA)ANA:A0AyA%A:A0A0ACAbANA:A%AqAZA$AZAZA5A%AqA$A2ArA%AFArA[BWA!ARACA8A*A4A>A)ACAjA)A>AnBEBHA0AqA}ASAHAHAiAFA5A5AFAoA0A{ADBIAEAoAZBIAVA5A0",
"AOAvAWBJBJAvA/BJAvBGA9BGA>AYAYAYBJBJAYASA>BNAnA-AgABArAXAjAXA&A&AJAKASBeA/ASAYBJAWBJBGAYA9AWA9BJBGBMA9AvA7ApAYBKBGAeApAvA>A>A,A,ApBMA,A;BEBMAYA>BKBGAWBGAvBGAWApBGApA9AvAvAYAvAvAvASAvAvA>AYAnBeBKA:AbA0ANANA)ACA|BOAZAxBNASAYAYAvAvAvAvBJASASBJAdA9AWAeA9BNBJAY",
"ALA~A.A#BRBRA~A~A~A#A@A#BRBRBRBRBRBRBRA#A#A#A>A-AgAlAFA2A0A&AKAaAqADBNA~BRBRA#A@A#BRA~BRA~A#BeBRA@A.A~A#A~A~BRA#A#BRA@BeA@A@BeA#BaA#A@BeA.A.A#A#A#A#A~A~A~BRBRA#A#A~BRBRA~BRBRBRBRBRBRA#BRBRBRA@A,A-A0A{A2A:A:A2AGAKAZBAA.BRA#A#A~A~A~BRA~A~A~A@AYA.A#A#BRBRBRBR",
"ALA#A/A.ASASASAYAYAYASASAnBNASASAYAYAYAYBNA#A/AoAgABADBbBbAKAKArAgATA4A#A/AYA9BGA/AnASBNBeBeA/A/ASASASAnA@A#A.A.A.A.A.A.A.A.A.A.A.A@A@A@AnAnAnA4A>AnASAYAYAYAYAYASASA/A/A/ASASASASASAYAYASA/BNA#A?AyA%A0BZANA:A2AEAOAgBLBNA#A/ASASAnBeASASA>AYASA/BNAnASASAYAvAY",
"ATAnA?AvAWAWAWAWAWA9A9A9A9BJBGA9AWApApA9ASA#AnA5AZAPAEAkAwAKAKAEAqABA@BNA9A9ApApA9A9A9A9BJBJA9A9ApAWAvA?A>A>A>A4AnBKA>A4A@A4BKAnA>A>A>AnA?A?A4AvA>AvAWAWApApApAWA9A9A9AvA9A9A9A9A9A9BGAWAWBJA.BRA?AyA0ACARBWACAEABAEAqAVBeA4BJAWA9BGAvBGAWA,A,ApAWBGBGA9AWApAeBP",
"ABA?A*BPA7AdAdAdApApApApApBPAeAeAeAeAdAWAYBeAnA$AqAOBDBOBQBDBgABAyAOA4ASAWApAdAeAeAeAdBPAeAeApAeBPApA9BMBGBMBMBKA>BKBKAnA@AnA,A>A?BKA?A?A,A>A>BMA?AeA7AeAdAdAdAeApAdA7ApAeBPAeAeAeAeAWAeAdApA/A@A?AZA0ACBbACBHAOBSAKAyAVA@AnAWAeApApAWApBPA*A;AeAeAeBPAeA}AVAVAd",
"A5BEBEAzAsA+AzALAVAVBLA7AeAAALA_ALA_A(BPA9BNA/BOA5AwAFBQBcAwBIBDAZAPA/ASApA}A_BAALAcA(AdBAAcAcAsA}AVBLALAxAVA7A*A,BKBFBFAnA,A;BKA)A,A;AdA;BKALAdAHBcAiAIALA(A]A(AuAuAcA=AuAuAxBAAUAIAdA}AuApBJA.A,AyA0AbA0A2A[ARAEBDAyAVA@AYApAVAzAzAsAVANAHAxA7AxAxA}AVATAfA1A]",
"A5AHAHAuA=A=A_BLBLBLAVA7AxA+ALAAA_A_A(AdBMBNA4BIAgBUBQBQBQARAoArAqAEA.BNApA}A_A_AsAzA(A7A=A(A(AsBAA_A_A=A^A=A;A,A,A?A)A*A>A?BEA?BFA,A;A7BEA*AsBfAQAUAhAuBAA(A]AcAuAcA^AVAzA(A=BdAlAiA7A}A_AeA9A.BMAJA0ACAbBgAFARA[BDAyBABeAYAWAVAIAAA_BLAHBEAxA7BBAxAVAVAhA(A(BY",
"AFBCBWAMA=A^AVAsA(AxAxBCAHALAuBLAxAVAsA}AWBNBeAoAZAiAmAFBDAaAFBQAgAcA#ASApAeAQAXBLA=A_BAAIAcAMA^A^A^BLA=BEBCBMA,AHBKA)BFBKA*AHA*BFA*A?AdA|ANANAQAHAHAVA=AVAUAGA=A_A^BBAeAsAuA]AUA&BXAfAiAxA7BPA@A>AyA%AjBOBbAwAKBXBIAyAVA.AYAWAVAUAuBAAIAHA)AsBTAjBBA6BVBSAGAVAV",
"AgBTAjBTAMAIAAAXA(A3AUAXA=BVBUA<A|A]A=A}ApA/A#AoAZATA!ATAsAEArBgAZA|A4AYAeA=BcAiAUALAAA=BdA!A!AcAMA8AQBYBCA8AxA;AMA,A)A*BKANAXA*BFA?A*BfBHAjACBHAHBBA1BcAlA6BYA=BYBYAcA_A]A]ABA<AfAkBcAGAUAxAWBeA4A:A:ACA2A8AXAaBbA-AyBAA.AvA7A=BHAPAUAMAjANA^BVA<AiAfAXBSA&ATAA",
"AgA^AjBWA1A|AfAkBYA6ABAEAuA6BQBjABA&AxAxA7AYBeBDAgAKBdAEAgBVAKABAyAEA/AYA}A(AkAiAlAIAUAMAMAwAwATAhAMAfAmBfBdAMBCA!A*A)A*BKAjARA*BFBKAHBUAXANA{BHAjAMArA5AKABAiA8A&BZAGA6AGAiAEABA<BhBSABBZAIAWA.AYAjAbA[BBAgAoAuAoA$AJBLBeAvBLA^ACAXAGAMA8AHAjA]AmAGA1AXA|AmBcBY",
"A5A_AQA8A]AQA<BYAcAPAEAUAIA6APA]AGAmAGBAAdAYA.A$AqArBPAFAtBhAxBDAyAOAnAvAeAVA1A=BAAlBVAMAuA6A<AUBSAXAGBSAMBBAhBTBSBKA)BFAHBOAjANANBKA,A8ARANAbBHBWACAKBIAKAmA<ARBZAfAfAcAGBVA!AiAiA+ATA[AEAxAWA@A,AZBOAmAWAJAZApBIAoAyA=A@AvAeAcAiAhA1AcBcBWA8AlAlA3A1A(AIA1BZA(",
"A5AAAQAMA1BUAiBUA(APAEBVAQBhAmA6ABAEA[AVAeAYA4A$AqAKAdA+AoBMA7AFAyAmA4AYAeAVAfAcAMABAcBAAuBVA1BSBSAfBSBiA8BABdAXA!A,A)BFA8BlAjA:A)BKA*BHArANBHA{ACBHAKADAOAlAfA[BZBZAmABAGA6ADATAcAsA6AEAmA}AWA#A>A$AjA{AeAFAPBGADAoAyAVA@BJAdA|A<ATAfAXAfBWACABABAiA<AUAUBSAfA(",
"A5AAA6AiA]BXAmBUA(AGABBVA{AQBZAMAiAUA!AxAeASA@A5AqAOAhApAxAvBLADAyAPA4AYBPBAAPA&ABA(AcAcA<BVA!BXA|APA|BiBTA^A<APBhBFBFA*A8A2A:ACBFA,ACBIBcA:BjAbBHAPAOBXA6BAAEABBUBXAOAKA6AOAEA<AVABABBdAfA_A9A#A4A-A%A&BPA7AWBMAPBDAJA}BeBGAsAlATAGA&AfA&AjBTA<BOAfATAUAfA[ATA]",
"A5BAAbA<AfARBXA1A&AlBVAmAkAXBjBUBSAGAmAIA}ASAnA5AqAKAEAdA?A}BXAKAyAEA4AYBAAGAlAEAGA]BcAcAcAlARBXA6AGAmA1BHA8AUAGA6AHA)BFACBDACA{A)BFACBbBQACA{BHBHAPBZBbA&ARBDAwAGA6AEAwAEAlAEABAmA<AOABBYA_A9BeBMA-A-ArA+BGA?BfAEAoAJAVA.A9ALA&A<BVAfA^BZAjBTA1BhAOABAPBQADARAF",
"A5A8AbA<A[AOBZBXAFAlATArAkBhBQA&ARA[A[AUA}ASASAoAgADAOAMBBAhAOADAJAEAnAYA_BZAlAaAEAGARBhAcA!AwA!A|AmAKABBHBHA<A!A6BTANBFACBbACBjA;BFACA[BQAbAbAkBiAPAmBOBUAaAwBQA<AlAEAwARAlBSBbAaAGAaA&A1A_ApA4BMAqAoAaA6BCBCAlADAoAyAVA.A9ALBXBXA<AcAcBXACA8AGBQAKAEAfA!A&BQAo",
"AgAQAQAUAiBVAwArAFAaARBDAwBlA6AEAmArAmBAAeASA4A5A$BVAKAPAXAmBIAEAJAfA4AvAVBZBbAEADAlAUATAhA[AFA&ABAKBIBUAQBUAmAEA!AQAHA)ACA{AbBjANBKAjArAoA2A{A{BiAfAaBXBjARAmAGA&A[ARA6AFA&BQBQA|AwBgBQA<A7BPA.A,AtA5AOAaAXBHADAOARAyA}A#A9AVA(BXADAmAmArBHA8APBDARAaAUAIAfAwBX",
"AgA^AQAlARAPBXArAFAEAmAaArAPABABARA[BXAzAdASBeAgAyA6AKAaA[ADAKAEAyA<A.AvAVAfBDAGAOAaAPA|BcAFBgBUBbAaBDBZBUADADAfAQANA*BFACA1AbAbA)BFBiA5A%AkBQAkBhAGAaAPBdAKARAGADA&BSADAKBVBXBQBXA|AmAKAmA}ApAnApAyA5AmAKBjBjADAEADAyA7A@A9A]AaARAEArAGArA0BBAfBDA!BIAlA6AwAwAU",
"AgA^BdAGBDAPBQAKAFA&BQA&AaAKArAwAwBXA[AuAdASA@AoAZAPAFArAaAKAaAEAqBSAnAvAVAfAoABARAKAGA|BQBbAwBbBUABADA[BgArARA!BjA:A*BFACABACA0ANBFA2AoBOBOArA{AkARBDARAOArADAEA[BUABAaAaAlADARBQA6ADAaAfBAApBNAeAyA5AmAKAaAwAKAOAKAyA}A.BGBVAoADAEAFAlAfBWBBABAFAwAwABA!BIA&AX",
"AZAQAMA<ADA<AFADAFAFARA&AKAKBQAKAPA[AFA]AdA/A>AHBHAOAoAKARADBgAOA$A|A/AvA=A!ArAGBDABAAA6AwA&A!BXBZARAKAaBkAwBjAPAFBWA;A)AbARBWAwA;BFA8BSBIAFABAQAkArAFAOAlArBXBIA!BXBDADAOAKAFAaBYAFAFAEBfBAAWAnAWAqAoAPAFArArAKADAFAyA}BeA9BAAEAFAaABA6AmA8A8AEAFArAmA!ARA!ATAF",
"AqAXAQAGBDARBbAEAoAaArBDArARAkAKADBXABA(AeASA~A$AqAlAFAoArAaADAlAqABBNAYBLA6BZBDAfAfAEBVA[A&ABBQBXARAKBDBDBbAwBgBjA8A)ANA0ABAbBkA)BFA0AwBgBDBSAQBHARAaATAlAwBQADAPBQAKARADAKAGAaAoAEAaArBZAVAWA4AWAyAoA!AEAKAFAKAOA!AgA7BeA9BLAfAwAaAGAGADBHBhAKAoBXAPBbAPAUARA!",
"AqAQAMAPADAKA&AlArARAFBDADBXAkAaBDAEAUAuAeA/A~A$AyATADAoADArAaAOAtADBeAYAVATAkBDA1BSARA!A[BUAEBbBXBQAaAwAaA[ARAKAkAMANAHAkBXBUA{ANA)AbBIBIARA&BHBiAaAOA6ARBDARAaAGABArADAaAKA6AKA5A6BUAwARA=AWA.ApAqAoAEA6ADArAKAOBhAJAVBeBGALA1AaAFAOAlAKAMBhADBIBXARADABAmAFAh",
"AyA2AQATAPAEBbBDAaArBgAmAaAwBbAfA6ADAlAUA7A/AnAjA-AoBIBkAPAFArAZAyBdBNAYA}A3BZAoBXABAGABAfAmARADAiAfBDA&BOBDARARA[BHANAjA&AOBOA2ANA)A)AjBkBDAaBhBhADAlAPABAFARAKA(AGAKADARAPAFAoAFBbATAlArA(AWBNA9A:ARADAKBDAwAKAFA5AJAVBeBGBLAGADAFAKA6AaAXAQBQAaAKAKAPAmAoAPAT",
"AqBcAkAkAFAlABBDBDADAaBDAwBXBUA!AEAaABBVAeASA4A%AZAaBlAEAKADBlA{A:BCASAYAVBVBXArARA<AlBSA1APAOAPAlA&AwADAaBDAaADBXBBA)AjBUARBOBjA:A)ACA{BOAKAmAPBSBDAOARARAaAKAaABAPAOArARADAFAKADArABAlBDAcApA.BJAgBlBHAaBDAFBkA0BDAZAVA.BJBLAwBUA6AaAEA<AMAQAPAKAKAEAPA[BXAmAw",
"AgBYA2BOAaA6AEArBDAlAEAFBDBbAFBXAFAFA3AIA}AYA~AgAJAPAKArADA!BiBTAqBHA/AvALBZBQBSBcAGAaA1AfArAKATAlAaBDAaArBDAaAKAPBBA)AHA0AaARBjA:BFAQAwARADBZAEArArArBDBbAEA6ARAFAOAPArBZArAFAOABAoADAOA[A=ApBeA9AtA2BTADArAFBgA0A%AZAVA4BJBLBbAwBYA<AaAEAXAQAPAKAKAPAEAKBDADA5",
"AZAUBcAaA[AEAOBIArAEAOArARBbAoA&ARAOA3AlA=ASA~A-AyADAKArBZAkBkBgAJA[A/BJALAGBUBcAfABADAfAPAaAOATAGARBDAKBDAwBQADADBiANA:A0ADAOBUANA)A{BQA&AaBjBgAKAaAaAwBbARAPA[BDAOABAwA&AKA&ARAaAoArAaBUA}AWA.ApAyAFAGA2ARAKADAKA5AqA7A.BGAAARAFA[BcADADAcAXBgAaA[AKAEAmAFAKBb",
"AgAUBXBDADADATArAFAaAKAaAlAGADADBVA6BVAmALASA4A%AgADBgBQAaAmAPABAJAPA/AWA3ATAfARAmAmAOA1ArAKATATAKAEAOAFAFAwBZAEArAwAHANA0AOA!BgANAjA2BUBIBlBQAoAaAOADADBIArARADAOAPAlAwAaAFA|A[AoAoA&A!BUA7BPA.ApA-AgAaAQAEADADAKBgAJAeA.A9ATArAKADAwABADAXAsAKAFAXARARAGAfBDBV",
"AgA6BXABAoArBDArArAlABARA3AlArAaAmA6BUAmBLASA4BIA5AGAFADARAOAmAfA$AbASBJA_AmAwA]AOADAEAfBQA!AuAKAEAKA!BIARBXArAKBgBgANANBHA1BlBbANA)BiAFAoARBbAoAaADAKArAFAKBbAwATAOABA&BDAOArAFBIAEABAFA[AsApBeAWAqA5AEADAKADAOA2BiA0BPBNA9AuArAPA1BbABARBcAGARAFBbABBZA[BZBVA6",
"AgA1BcAlBIAaADAFAOAEADA!BVAPArAOARAEAwAmAVASA4BIA$BSAKADAOARARAmA$AQASAYA=AOAFA&AKAFABA|A<BcBZAFAEAEAfADAPA&AoAFA[AwAHA:AXA|BkBQANAHBlAFAaBDBbAkAEAKADAKAFAKAwBDABADABAfArAOAoArAaAUA!AFAaAcApA#BJAyAoAOAKAFAKBUBHAkA$AeBNA9A(ArADBUAEADBVBVADAKADAmBUA!AmAPATAl",
"AqA]A1AFA[A[AGAoAlADAKAlAOAPArA!BgAFAFBZA}ASA#A-AyAQAmAlABAKAOArAqAUAnAvALAOAFAFAKAKADATATAGADAoA6AlAFAGABBIAFArBUBUANA8BZAkA!AkANAbBgAOARBgARAlAPArAEADAoArBUBUAaAKAKA1AmAFAFBXBDAAABAFAFA]AeA@BGAZAFAFAKADAOARAPABAyAdA.A9A]AFAmAfA[ArATAEADADAKADBUBjAPA!AFAl",
"AgA<A&ARA[AmAPBDABADAFA5BgAfAKAaAoAFA&AfAVASAnA-AqAPAOAGAPADAOAaAyAXA4BJBAAPAFAFAFBIAKA6ATA!A!ABAcA6AKAEAEAoAaAKBIAwA)BTBDBbBSA{A:ACAPABA[A&AaAEAPAFAGAEAEAKAwBQAmAFAFAwA<ADAFBXA[BVA[AKBDAfAeA.A9AZAgAFAaAKAOAEABAGAqAVA.A9AuAaAfBZBgBIA6ABAEAEAKBbAkA!AEAOAoAm",
"AZAGA[ADAmA&AGARADAmBbAoA[A&AaAPArAKABATA}ASA/A5AZA<AKAPAOADAOABAqAXA/A9A_ABBDA&AEAKAPA1A<A6ABAUBcAzA1AFAKADAKAEBgAwA)A8ArBOA[BQA0AjBdAEABA[BIAPA6AFAOABABAaAKADAFAFARAoAlAOArBZBDArAmABARAcAeBNApAyAoAEAKARAaAOAiADAqAVA.A9AIA&BgA[AGAOAPAmATA]AaA(A!AaAaARAOAw",
"AqA6AEAFAPAaBVBbARA&BXAKABBgAFAmAmADADABAVASAnA5AZAcAKAlAOAKAOAcAgA6ASA9A(BXA&A6AlAOA1A1BYA6AEAGA1AiAfBDAEAEAFBSAkBXA:AbARBOBgAwAbAHAXAOBlAPA!A6AEARAOAEARAKABAlAFAaAGAEAPBQAfAwAoAoAPAlBZA}AdBNApAJBIAlAKAfAOBIAlAKAgA7A4A9AIARAKAEA]AlBXAwATA|AFA(AOAoAKAmA1BU",
"AgA<AEAlA&A6A[ArARAPA&ADArARAEABADADAKA6A}ASA4AoAZAOAKADADADAEAXA5ATAYA9A(A&AlABAKADA6A6ATA&AaBVA6BgA[BSAOAoAFAEAOARAjAbBDAwBDBDBEA8BdAAAlBgBcA!ARAuAOBIAKAoABARAwBZATAKAoAwA&ArAOAFAKAOA[BLBPA4ApAJAFA6ADAOAaAFAaAoA-A7A.A9AuAmAaAKAmA6BSBUABABARBcAKAOAhBSBDBc",
"AZA|APA[A&AGARBbA[APABAGBDA[APA&AOADBIATA7ASA/BIAgAOAKADADAOABAcAgBVASA9AuBXAEAEAKBDAGATATBSAEAGADAOAOARAOAKAOAPAaA1AHAMAwBgBDAwBEBHBhAhA6BkBUBSABADAFAEArBIA!A[AfA!APAKAFAEBDA[A6AKAKADBDBYAeA4AWAyAoAPAOAmARAKARAoAZAdA.A9AUBXBbARA&A6BYA6AGAEBDA]ADAOAiBSAwAw",
"AyAlATARAUAlAPBUArAaBVAAAFAwArArAPAEAOA(A}ASAYBlA5ADAKA[ARAOAOAGAJAPBNBJALA&AoAaAaAoAFATAiAhAlArAoAlAmAoAoBIA!BUBjA_A8BBA<BgArBbBFAbBDAPBVATABA3AiAFAoABBIA1BZAmAOAEAPBDAOABAFAEAPArAKAFAFAfA}BNA9AgAoAOADAOAEADARARAyAeA.AWAuBDBUBZArAkAMATAEA[ArALA!AOA6BQBDAR",
"AgATBZBcAGAmA|AwAmA6APA&A[AOAPAFAPAaABA]A}ASA.A5AqAEARAOAOAOARAOAZAiBNAvAVBZAFAKAaAFBXAUBZAPAlAwABATAmBZBDBIA[A!AMBXAjA8ARBbAwAwA)AHAbBbBbBjAGAPA|BbAkAaAoAEAPADAFAOABAFA[AaAEAlAKAwAfAEAFAfA}A.AvAqAoAEADAOAOAOAEAOAyA7BNAWAIAaAOA<AlBgATAlAaAGAsAGAGAIATAwArAw",
"A5BVARBXA&ADA6BXA[ATAEAKARAEAlAaABArA[A1A}ASA4A$AqABAEAmAEAEAOAPAgAMA4BJBLAfBDADARADBZAlAwADAlBbATAUAPA1BQBgADBgA&BZA:A0AFA[A[AwANA)AbBDBDBQA&BjBdBSBSAEAFAOAOAKArAPATBXBbAPA&ARArBXA]AGBIA1A7A.AvAyAFABADARAOADAEADAqA7A4AWAzAOAOATAUAaAlABADAXBZBbA1AUAlBDBIAw",
"AqAGAiA!AGAGAIA<ArAPATAOBDATAaA<ADARA[BYA}ASASBUA5AKAKAlBdAEARAmAZAhAnBJA]A[AwAPAiA&AFBDBZAmArBXAEAlAPADAaAoBgAFArBXACA%ArABAEA2ANANA2A-BIBQBiAHAxA]AFBXA<ADADAKAmAEABARA1AlBZAwAFAlAUAOAaAfA}ASAYAyAaAOBlAbBiArAaAoAgApA.AWAcArA&AEAmAlAaA!A]A&ADA<A<A[AmBXARAX",
"AqAPAGBZA&AlAUA|ARABAGADAwA!A[AfArAmA[BYA}ASBNBgA5AEBOAHA;AXAwA!A5A_AnBJAzA[ArA[ABARADA&AIA|AwARAGAlAlAmA!AKBgBIAwAwACA2AFAEBkA%A)ANBkA-A%BQAXA7AMA1AFBZBYA&AaAaAGAGABADAPABBgA[AOAOAlAOAoAfA}A/ASAZAKAmAQBTACAPBIBDAgAeA.A9AzArARABABAPA&BUATA6ABA6AiAlBbA&AwBU",
"AgA!AEAfAFAGA<BhA!AfA1A1AwA[ABA&A[ABADA1A}ASBNA5A$ATAHA-AqAHAQBbAoBLA/BJAVAmArAOBDBQAfBXA1A3AcAaA6AfAGARA!AOBDBgAwAwBiBOArAEBbAwBFBFAbA%AbAmBdA+BQAGAkBHAPA<ARARA(A(AGADAmAPA[ATAlAaA[BDA5A]AdASAYA5ArBiA*AtAJA;AKA[A5AeBNAWAuA[AwAGA6BIATBjAiAAA&APAAA1AwBgAwBD",
"AZAiBVAKA<A<AmBVAaA]AiAfArADAmAwAfARADATA}ASA/BkA5AEBMA2AZA;A7AFAqBSBNAvA=BZADAEAPA!AwBXABA<BhAUAiAcBXAFAoAOAaBDBDAwACAbA!ATAEA|A*BKANA0A%AFABAiBHAGAkA&ADAPAOARBZAmADAOAEATAGA]BXAwBZAOAFAUAdASAYAqA5BTA?AqAoBGBlAFAqA7BNAWAuABAOABATArABBUBZBZA<AEAGBbA&ATAPBD",
"AZAXATABAhA6ARBVARBVBVAlA[ADABBbA[ADAOATA}ASBNARAgAOA;BEA{A*AVAFAqA6A4AYAVA1AEAOAlABAwAmAGA|AXAuA<AMA]ADAFAaAaBDAwBOACBHBjBVBSBhANA*AjA%A0BDAfBSBOA&AwARAOAGAEADAPAOADAmAEABA1AfBbA&ABABAPA(A7ASAvAqA5BdA?A=ApBGBgAKAqA7BNAWAuAlABAlAEBbA!AmAfBUAiAEAGBZA[A!ABAr",
"A5AXARAfAcBXARAGAoAfAIA6AoAGABAwArBlAOA(A7A/BeA5AZAEAsA,BKA,BiA5AqA|A4AvA=AUAGAOBVATAEAPBQAAA+BXAmA(BLAfAoAFA!AwAwBOBUAkBXADBAABANBFA%A$A:A{A&A1BcAFAPABAOAlAGARAGAmAKBZA(AOAUA!AaAAAGAmA1BYA}ASBJAqAoAGBPAnAnBEAFAFAyA}BNAWAuAlABABBDBXAwAmAiA|BdABBSAiABAaAlAF",
"AgAlAKAfA(APADATAwAQAsA6ARAPA&BbAPAKARA(AdBNBeAoAZAOAfAHANBWBkAoAJAPBNBJAVAlAaAlAiAiAlA&A!AhA=BYARBcA1A[AFADAEA[AwBUACAbAkAkBSBiANBFBWA0ACA!AQBEBdA&AiAlABABAmA[A<A6ABAfAAAEATA!ABAfAmAmA1BYAVAYBJAyAFATBABEA)A=ADAFAyA}BNA9AuAGAGATA!AlAmA&A<AIA_A!A<AUAGARABAO",
"AgAPAaAuAIAGBXA]A!A^A^AlAmAEARABATADBXA]AeBNA@A%AgA[BQAbACA{BDA[AqBhA/A9AVAfAFAUA<ATA|AmAMAHA8AsABBHAkAfAFAaADAEBbAGAjACBjBiBOACANA)BFANACAkAMBMBfAPABATAhBXA&AfA(A]AiBZA_AGA|ATA]AwAfAiAGA]BAASAYAqArAlAAAjAjA|AaAFA$AdBNA9AUA1AuATA6AlAGAPAGBABCA&AGAIABAaAPAB",
"AgATAlAiBjAlAUAOARA^AMAEAPBbBXAzAlARBZA(AeAnA#A-AqBOAwBOAbAmAaA]AyBhBNA9BLAuATAGA&A6AEADBHBCA<ATA<BdBdBUBDA<A!ADAlAfA:ACAOAmBgBWA,A?AHBIA%AxAaAhAhABBXATATAGAuA3AOA!A]A1AMA(AlAhAzA&AuAAAmA(BPASA/AqAmAPAKAbAbADAKAFAqApA.A9AVBZA6AuAUABBgBQAfAbAjBcBSAQAGAKAEAO",
"AZAUA<A6A2AGAGAPAOAQA^AlA|BbBZA+ATAGA|AuAdA/A4A$AqA[AaBOAkA&ARAmAqAXAnA9A3BfBBA(A<AGAfARAbBTATAGAiA|AhAcAPAUA<AmA6BSA:AbAGBSA2AHANA*A,AbA2ANBgAEBdABBdA+A<AfA<A3A6AGA(AcAcAzAzBAAIA]AUBVABALApA.ASAqAaAOAFA2AkAKAPAmAZApBeA9AVAGABAuBVATA[BQABA8ACA(A^AMABBlAPAO",
"AgAAA1ARAIAEARBVABBOA8ATBgA&A[ATAGALAPAGA}ASAYAoA$A[ARA&BUA!AEBSAgAcA/AWA(A8ACAuA_A[BIA0A:A8AfADAIAEAGAVAPA!ABAEAPBbA0A0A&AmAbA,ANBFBKANA:A)BiBDA8BhAcA|AhA[A&ATALAuA(A_A<AzA]AiAfBcAfARA|AxBPBRAYAqAaABAKA&A2AEA|AEAgBPA4BPAzADAKATA6BOAaBSA(A8ACAfBBAXBDAaAEAO",
"A5A=A]A<ALAVAVBAAHANAxBLALAuALAVBAA7BAAdA9A/AYAZAyABAEBhAXAOADA&AyAkASASAeAdA7A7AdA=AEACBdAsBAAhA+AhAGAhA3BABLA3AzAuAbAjBBBTA*A>A*A?A?A*BFA*A;BTAdAeBAA}AdAVAVA}BAALBLAVA_AxA}AVAVBLAuAUA;AWASBRAvAJArAlABA!BOAmBhAoA-A*A4A9BPA_AhA}AxA^AhAMA_AHBEAxBEBBAlATATAu",
"A5AkAFBiAPA|BTBIACANACBkAjBHAEAfAQA2AHAjBEA>A>AgAqAXBiACA8A2A%AFAyA2A>A/A;BdAbA8A<BSA%A2BUAQA8BdBdAMBiAKBiA2AmA|AlArA2AbA8AjA?BKAHA)BFA)A:ANA*AHAjBTAjBBA3AfAEA6A[A!APAKAkABAGAQBjBIBgAbAjA=AvAnA9AJAoA6BiA0A0BZA|A%AyBEA4AeA=AQAbAOBiA2ADA!AbBHAbACAHBWBkBIARAF",
"AyAyAtA-AqAyA%AtAJA0AZAtA:A$AtAJAZAtAZAqA%A)AnAoAZAXA0AjBFA:A0AFAyBiA>A;A%AqAyAZAJAqA$AyAqA$AZAZA$A%A%AJAZAtAtAqAZAtA$AqAJAZANA:AyA-A:A0AZA-A0A:A$AyA:A$AJAJAJAtAtAyAyAtAZAtAtAZAyAtAyA-AyAyA{A;A9AZAoBUACANA)A{A2A0AqBEBKBIAqA-A$AtAqAyAtAyA-AtAtAJAZA%AZAJAyAt",
"AZA0A{AHBOBiAjA-A2ANA:A0AHAjA&AkACA0A%ACAHA?BeAoAZBhBWANANAHA0AFAyBHA4A>A)A{A2ACAQBTA%BOBQA0A:AbAHAHA:AbA2BgAwA0ACA{AjAQAQA;A?A?A:ANA)A:ANA*A)A)ANA:A:ACBkACACBIA2ACACBbAbA2AoA2AXA!A^AjACAbBEASAYAZBbA{ANAjAjAjA%AoAgAxA/A;A8AQBWA{BkA:BkAoANAjBIACAbAbAjBWAkBO",
"A5AjAjBEACAbANACBBBFA)ACAjAHBHACBWAHA8ANBFA>A#BIAZA{A*A5AtAjAHBIAyAXAnBKA)ACAbAHBCBEAQAQAMA:A:BWBFANAHBEBWAbAQAjANAxA)AHAHBKA?A?A:BFA*ANA,A,A;A*BFANA:BTBHANANA<AMAHANAcA^BBA{AbBTBCAHBBBWANA;A4ASAgAkAjBKAtAJA*A0AoAgAVA4A?BEA_AHAjA1ANBWBXA;BFACA:AjACAHAHAQAj",
"AgBWAbBbA{A2ANACBOAHANA2A2A:BIA0A%BOAQA)A*AnA#BIAZACBKAOAqAxBFA0AqAXA>A,ANACBUACADACA:AwBHA:A0BOA)A0AkANACA{AmBWANAmBFAHAbA:A)A*A:A:A?A)ANAdAMA)A)A:BkAaBOA:A{ArAkACA:BjBQA8A:AbA1ANAjAfAmA:A)A4ASAZBQA*AYAZAoA*A:BIA$A}A4A,AHA|A2A2BcA:ACAwACANACA0ANAjA0BQBOA0",
"AOA>A?A9BGBGA>BKBGA>AnAvBGBKApBMAWApBJAnA4A@A@A-AqA2A;BPA[BMA*A0AZAQAnAnA>A>BGBJApBGBKA9AvA>BKBJAnA?BGBKA?AvA9A?BKBJA4A>BGA,BKA>A,BKA@A4AnAnAvA>A>BKBGA9BGBKAYBJAvAYA?A9A9AYA?BGBGA>AvBJA9BGA>A@ASAZAwAjAYA<A3A?ACBIAZA}BeA4AnAvBMA,AYA>A?BMAYAnA>BKAnAnAYBGApAW",
"AVBaA@BRBRA~BRBRBRA#A#BRBRBRBRA#A#BRBRBRBRBRA@A-AyAwAjBKA?A>ANBjAZACA.BRBRA~A~A#BRBRA~A~A~A~A~A~BRBRA#A@BRA~A~A#A@BRA#A#A#A@BeA@BRBRBRA~A~A~A~A@A#BRA~A~A~A~A~A~A~A~BRBRA~BRBRBRBRA#A#BRBRBRA#A#BJAqBIACA*A?A>A?ACBIAZA7A@A~BRBRBRBRA~BRBRA~A~BRBRA#A#BRA~BRA@A@",
"AzA@ASASA/A/A/A/A/A/AnAnA/A/ASASASASASASBNA#A4A-AyAFACA*A?A,AjBjAqA8A@A~A.A/A/ASASASASASA/A.BeA/AnA/ASASBNAnA>A4A@A4A.A4A4A4A.A.A.A4A4AnA@AnAnA/A/A/AnAnAnAnAnA/A/ASA/A/A/BNBNA/A/A/A/ASASASA4A@AWAyBIAQA)A,A,AHAQA&AZAdA@BRBNASASASASA/BNAnBNA/ASASASASASASAYAS",
"ATA/BJBJBJBJBJBJAvAYA?AvBJAvAvBJBJAvBJAvBNA#AnA$AqAwACA)A*A)A:BQAqAMA@A@A/AYBJBJBJBJBJBJAvA?BKAvBJBJBJAvAYA>BKA/AnBKA>AnA.A4A>BKA@A>BKA>AnBKBKAvAvAvAYAYAYAvAvBJBJBJAvAvAYBGAvAvAYAvAvBJBGASAnBeApAyArAMAHA)ANACBhA!AgA7BeBeAYAvAvAvAYAYAYAYAvBJA?BJBGA9A9A9A9Av",
"AEAvAWAWAWAWAWBMAWA,A,AWAWBGBGA9AWAWAWBGA/BeA/A$AqBQAbANA)ANACAwAZAQA.BNAYAvAWAWAWAWA9A9A9A,A*A9AWAWAWAWAWBGA,AYBKA?BKA>A.A4BKBKA4BKA?AYA?A,A,BMA,A,A9A9BGAWApApApAWAWAWBGAWBMA9BGBGBGA9A9AYA>BeApAJAFAQACANAHBiBXA[AZA}BeA.AvA9A9A9BGA9BGA,A9AWBMAWApApApApApAW",
"AFApAdAdAeAeAeA;AeAWA*BEAdApApAeA7A7A7BGAvBNASA0A-BjBcA8AHAHA{BQA-BWA/BNBJA9A,AdAdAdAeBMAeAdAeAeAeAdAeA7A7BPA;BMBKBKBKBKA>A?A,BKA*A?A,A;BEA;AeAdAWBPAdAeAeAWAeA7A7AdA7A7BMA;BMApBPBPBMBPApApAYA.AeA$A%A{A{AjAHA!BUBZAZAHA@A/AWBPAdAeApApBPAeA*A;AeA7AeAdAdBPA}A}",
"AFApAeAeAeAeAdA;AeApBMA;AeApApA7AdAdA7BMBGBNBNA%A-ACBSACAHBWAkBjA$ACA/BNBJAWBPAdAdAdAdA;AeAeBPAdAeA7AeAeAxAdAdAdA?BKA?BKBKA*A*A?BFA*A?BMAdA;AdA7BPApAdA7A7AdAVA7AdA7A}AeA;AWA;BPAeApBMApAeApAYBeAWAZA2AbBOAjAjAkBOBUAZA7A@A/AWAeAdAeApBPA;AeA;A*BPA7AeA7A7AeAxA}",
"ArBPAdBPAeAeA}BPBPAWBMBMApBMBMA7AeBPA7BMAvBNBeA$A$AHA{A{A:AbAkBHAgAQAnA/BJAWA}AdBPAeAdBPAdApBMAdBEA7AeBPA^AxAVAVA?BKA,BKA?A*BMA,BFBFBKAYAdA*BEAVBPBMAeAdAdAAAuAeAdA}AVAWBMBMAWApAdA;AWAeBPA,AvA#A9AyArAXBOBWA:AkBQAwAoA}BeA/AWAeAdAeBMBPA;AeA;A*ApAdAeA}AdAeAVAd",
"A5A=A^AzA(BBBBAzA^AHBCAuAzBCBCA1AIA3BCAxA9A#A~AoAgAiAbA:ANACBQBOAqAQA.BNBGAVAMAjAUBAA=BCA=BBAxALBEA=A3AzA]AMBdAXBEA>BFA,BKAHAbA)A)A*A*AHA^BFBOAEBBBBALALAAA+A+A=AuAsAIAAAHAHA^A_BfA)BCATA+BMAYA#BJAJAaA8ACACACBiBQBQA$ApA#AYAWAVA]BTAdAABBA^BCBEBBAUAIBAAxA3AsA1",
"AgAsA^AsA1A=A^AUACAjBTA(AuBBBBA1A(AUBBBAAWA@A~BIAgAXACANANACAwBgAqA8BeA.BMAABdA8A1A+A+BCAMA^A^AsAdA=A(A]BYAQAcA<AjBKA)A*A?AjACANA)A,A*BBA(A)A|APAQBYBLA3ATBfAsAhAiAcA(AuBCAHBdBYAIBEBBATAsAWAvA#AvA$A&AQAbACACAkBQBQAZApA#AvApBAAlA=AdAuBTA^BTAjA^A]A]A^BBA3BTBZ",
"AgAzAMBBAGAcAcALAQAMAjBCA]BCA^A1A]AiA^BAA9A.A@A%A%BTBWBFA)AQAFBbA-AjA4A.BMAVA]A8AhA3AsBABfAMAiAxAdA=AUA]A|BSATAVA8A?A*A,BFACATA*ANA*BEAiAIANBdABAfAfAcAuBVA=A^AGA=AcAkALBBAHA=A]AuBCA=A1AMA;A9A#BGA%BQA{ACBFA)BHBUBQAgA7A@AvBPAVATBfA7AzAMAIBCBCAQA(AUAcAcAUAXA1",
"AgAAAhAMAlA=A=AiAXA^BTBBA(A8AcBYATAIAMAVA9BeA@A%A%AjAHBCA0AjAXBjA$ACA4AYApA}BYAMAIAiAIAxAxAMAcAVAxA^BdA3AcA1AiA=A8A,A)BFA)AQAMA*ANA*A;AMBdBWBfABBhAsAkA<AhA=A_AUBLAMAXAsBTAHBTA]AhBBAsA1AsA;A9A#BJA$A%ACANA%AbAHAkA!A-BPA@AvBPBAAQAQA+AUA^A3BCBCAXA|A(AXAiAhAiAc",
"AgAsAcA3AiA7AdAUA^A+A=A(A^AQATAcA1BAAmAxAWA.BNA0A-A:BKA5AtAHA;A2AqBhAnASApAVA1AUBSAXAIA;A7AcA=AAA+AQAQA3A(AiA]BYBTBPANA)BTAcAxBFANA)A*AxBhAbBAAAA8BLBbAPA+AIA]BYA_AsAMA(A(AHAHBVA=A^AcAUA]A7BJA#BJAqA0A:A*AtAyA,ACBlA$A9BRAYAeAsAMAMAuA_BBBLBBBTATAUAPAQBdA+AhBf",
"AgAIA]AMA+AhA_AzA{BfBAAsAjAMA(A(BYAIAGAxAWBNAnA%A-A0A*BEBgBMA;A2AqAXA4AYAWA7BSBcAcBdAIAjBBAMAMAABfA8AMAuA(AiATAXA^BCANA)ACAXBBA)ANBFAHA0AkAQA8AhA8BdARAGAUAIAMA^AIAUAhAuAuAHA=AcA=AMAcAsBCBPAvBeBJAyBOAHA?BgBiA,AbA[A$BMA@AvAeBLAQAQA_AxBCAVA8A8AuA|BVA^A^AAAhA3",
"AgALA]AQA=ATA3AzA2AhAAAsBWAsAiA1A]AUA|AxAWBNAnA%A$AbA)A>ApBKAHA2AqAQA.ASApAxA1BYAiA|AIBCA=AcAhA3AAAMAQAIA1BcA<A|A^BWANA)ACA|BTANANA?BTBbAkAXA8AhA+AhAPBVAGAUALBLAhAUAAAuAzAHA^AuAUAcAcAsBEApAYA.AWAyBIAjA?AHBPBGAXAmAZA7BeAvAeBABVBhAsA_BTA+A8A8AIBcAAAiBVAAA]AU",
"AgALA^A^A(AIBfAIAhAIAzAMA8AhA1AhAIAUAIAxBPBNA.A$AyBOBWA?BKA)A{AKAZBWA.ASAeAzBYA_AkAkA3A+AIA=A+AhAAAQAXAuAhA|BXBVA|BfBMA*BTA|A^A=A*BKBTAmA(AiACBdBLAzAUAhAUAAAVAkA3AAAIA(AsAjBEAhA]AMAUA=ANA}AvA4ApAZAoAkANBKBKBEAiBbA-A}BeBJAdALBVA|AUAuBTA+BTBTAiAkAUATAfAIAABV",
"AgAzAMA^AcA_BfAXBdAzAsA8AMAuA1AhAAAUA(AxApBNA4A-A$ACAbAHANAjBOArAqAQA.A/A7A(AkAhBSAGAUAAA+A^AhAAA=AMAQAUAhBVABBVA6A2A*A*AjA]AMA8A)BFBTAGAXAXBHAiAsAzAcAkAhBLA=AXAAA3AIAzAIBBBBA<AUAhAuA+AHAdAvA.ApAZA%A{AjA)ANBBATBgAZBAA@BJAdAhBdAIAiAzA=BLBTA8BVBYA1A]AXAIAABV",
"A5A3AUBLAcAzAUBhAsAABLAHACATAhAIAAAUAGA}ApA/A/A-A%AHBSA8A:AbBQBOAgAuBNASA}BcA&A<ATAGBYAAAVA+AhBABAAQBdAiBdAUAUAiBHA-A*BFBWA<BSA:ANBFBTATA]A|BZAGAiAiA]A1AABLAiAUA+AIAIA]AhBBAMABAhAIAIAUAuA;BGA.AWAgA0BHAXAjAjAiAlARAyBLA@BJAdAAAsAXAXAVA=A+AMAMA6AUBYAcAsAhAIAU",
"A5A=A^AzA_ABAiAuA3ALALA^ACAUAhAAA6BdAmAxA9A.AnA%A-AbBZBHA:A2AwBgAZAUBNASAeAzBZBYAGA]BhAiA+AMAsBAAsAQBdA|BSAIA]AkAQBdA)ANAQAuAXBSANA)A8ABALA|A|APABAIA6AcALAXAhA+BYA|AhBUAUAXBBAhAUAIBBAMBYAVBGBeBJAqA{AQA[A:BWA!AfARAqAVBeBJAdAzBYA|ATAcA^A^AhBfAIA+A1AXBABABdA(",
"A5BBA^AzA3AlABA(BVAhAIAQAcAUAuAIBhA^BcBLApA.A@A%A$BSAmA{ACBOAwA&AZAXA/AYA7AzAfAGAiA3AMA<AuAAAcA3BYAXA]A|BcBcAfA|BdAUANANAXA(AXAGA)BFA8AkAcAXBVAGAfAIA]AcAzA1AhBAA1A|A3A<AcA]AiAfAIAsBBAiAGA=A9A#BJAqA{AQADA0AbBQAkBQAZAVBeAvAeAcA|BVBVA(AcAsA3AIBdAiA<A6AsA=A(BY",
"A5A_AQAUAPAuA1AABgA6AMAQAcAUAuBYAfA1AcAVAWA.A@AgAqBiADBlA0AkA&AfAqAbAnAYAVAcA1AGA3BVAAA3AUAsALAIBLAMAUA1BOBjAGAUA!A6A*AjAkBYA1A&ANBFAQAPA3AhAIAAAXA!AAAzAuA3AAAhAGA3A3AkAXAAAlA<BYBCAsAGATAeAWBeBGA5AkA|A&A2A0A&BjBgAgA}A@AYAeA^BhATAsAcAUALBfAIAAAkAUATA1AsA3A<",
"A5ALAUAiAiA(A&AhAUA6BhA^AzAIA+A(AuA(AcA7ApA/A4A-A-A|AFBjAbA&BOA!AqBHA/AYAdAsBZAGAlABATBfAMAsALAAAcA]AiBUABAlBdAGAQAXBEAjBHA(AiBHBFANAQAfAuAUA6BZA1AIAUAIA_AGAhABAEA3AhAkAiAiAiAiAIA^AsATAGAxA9BNApAoBOABA!AkA0A&AGAPAqA}A@BJAeA+A6A<A=AcAUALAAA3A3AhATAUA_ALAAAA",
"A5ALAuAUA1AUBZAAAUATA]A+AuA+BBBYAIA(AUA7ApA/A4A%A$BgAFA{A0A&BjA!AZBHA/ASAeAsAfAfAlAlATA=AsAsAAAAA(BYBcA1BVA|AIATA8AQAHANAQA(AXAQBFBFA8A|ATBVBVA[AfAhAIAhALA]A3A3AhAIBcAXAAA|A6AiBLAzAAAUBYA}BGBNApA-A%AmAPA2A0AEA6AGAqA7A@BJA7ALAUAiAsAsAuAsAAAIAUAIBVAMA+ALA3Bf",
"A5BBBfAzA(AAA3A3BbA(ALAMAMBAAQAPATATBVAxAWBNA@AgAyBgBjAbA{AmAPABA5A3BNA/A}A+BdAEA]AhA|AAA(AXBfBVAuBYBYA(A]A|AGAhAMBYAHAjAMAGABA]ANBFAMAXA{AUAAAGA1A1AIAUAzALA+A=A_AhAUBfBhAXAhBABCAzA3AiAzBPBGA4BGAqA0ACAOBiA0ABAlABA5A7A@AvAxA]AIAIBhBfAMAsAIBVAkA|AMAsA3ALAhAA",
"A5BLAMA_AAAhAUBcBcAhA3AcBYAcAIAGAiATAPAVApAnA@BkAoAXAaBOA0ADAOAfAgBdBNASA}AuAfA1AhA3AiA+A(AcA+AIATAAA3BYAIABA6AiA2A1ANAjAQATATAuANBFA8BSAiAUAABZAiA]AAAAAIA3A+A+A<AuAABfA|AfAuBfBfAzA1BUAzAdBMA.A9AJA-A2A[A{BHAPBSA|AwAeA.BJAxA&BZAiAhBfAXBYAABVBUAIAAAhAUAhALAA",
"A5BLAcAsAzBVA<BUAUAhA3AABZAMA+AGAUATA&AxApA/AnANA:A|AwA%A2ADADAfAgAQAnASA}AuBcA(AUAiAUBfBfA+AsAAATBABfA1AfAEAUAzABA6ANBTBYAiA]A]ANBFA=BcBSAfAIA!ATAuALALAAAAA+AAA!AzAhAiAIAfAiAhA3AIBUBUA3AdBGBeBJA$A%BOADBiAbAfA<AMA-A;BeAvAxBYAcAAAABfAUA(BfBVA1AIAhAAATAlAiAI",
"AgA_AIAIAsA6A!A<AAATBVA+BSAAAiBXBZATAPAxApBNA/A:A:BEAwA:ANAUAaA2A:A)A/ASAVA_A^BZAiAAA|AhBfBAA(BAALAIABAfA<A|AAAAA3A]ACAQBYATAlA6A)AHA(AkA|AhA6AEA6AAA+ALA+ALA_A_A+AzAfBUAhAcBfA+AsBcA1A]A+AeAWBeBGA:A:AHA&BCA;AQAOBIAZAdA@AYA7AMAuAAALA+ALA_A+BdBcA1AMBfAAAhAPAI",
"AgA3AIAUBUA|AuAhBVAUALAIAfAIAhBUAkAUA1AVBPA/A@AoAgACA{ANAbAgA|A2AqAbA4AYAxAhBcABBfALAkA1BLA^AiA+A(AcA]A1A1BdBdAiA+A1ANBWBSA6A6AUA)BFBdAkBfAUAGAlA6AcA+ALALALALBLAcBYA1AIATAUAAA+BAA|AUAhA=AeAWA.A9AyACANA^A5BIAHBHAoAyAVA.AvA}BcA(AMAiAIAIAsA+AsBYAcA+A+AAAXAzAL",
"A5ALAuAIBSAhAAAhBUA(ALAUBYAAAhBZAIBfAfAVApA/A@A$AqACACA)ACAFA|BgAJAPA.ASA}AiBZAlBVBVAiAIA^AMAiA+AfBcAuA1BZAMAMAQAVA]ANBWBYAXATA]ANA)BdBSAMATATAGBcBYALA+ALAsBLA_A(A(A]A6BcAuAhAIAAA+AAA3BfAdBGA4BGAyAbBCBTA5AFBEBiAoAqA}BNBJBLBYAMAXBhAIAhAsAABdBSA_AAALAsA|AAAz",
"A5A_AcAMAAAAAIAABYAuAsAMA^AAAIBVAAAIBcA}AWBNA4A-A$AMBhAjANBCAOA6AqAQA@ASA}ATA!A<A!A6A+A3A^BfAAA3ATABA<AfBSAsAiAXBAA+A)BCA]AUATA6ANBTAhAXBcAhAABSA1BYA3ALALAzA_A_ALALAuBUAzAzAhAiAuBLAsAcA3AdA9BNBGA:ACAMA8AQBCAQAFBiANBJA.BJBLAcA1BYAAA3ALALAAATAfAAAzAVBLAIAcA1",
"AgAzA8BBAzAAA|AhA]AUAMA^A^AABfAIAIAIA]AxApA/BRACA-AGAlAPA;BdAFBlACAHA4ASAdAAAlA!ABBYA|A]BLAAAIAIAAAAA<A1BZABAcA]BSA^A*BCA]BVBHAGANA)BfBcBhAAAIALBSAAAIA|BLAsA=A=A_AzAzALAzAuAIAIAAAiAVA^A<A}BMA.BGA0A:AjBjAPAXAQBhAjA-AWBeBJBLBcAXBfALBHA^BBAMAIA+ALAAA=BLAzAfAs",
"A5ALA=BCA3AAAUAuBSAcAIAXAAA3A3AhA3AcA(AxAWA/A#BlA5AMAkAEACA2ADANA-BTA.AYA}AAA<AGBcBYAiATAuAsA3AAAAALA]BSABAfA|BYA^BEA)BTA]AiBHBXANANAAAiAcA3A3ATA1AcA3AIA_AsBLA=ALAIA1AAAIAzAAAAAAAhAsA(BYAdBGA@AvAZA%A:BOA!AMAjAQBDAJAeBRAvAVAUAAAIAQAcA^AxBLA_ALBAA=BBBLAsAABA",
"A5A+BLAxAzAIA3AuBBALA+A+A_BfAsA]AcAcAzA7AWBNA#AoAgBTBhA!A2BlAGBCAqAXA4AYA}AzATA(BYA!AAAGAlBfAAALAAALAiAfAfA1A<BcBBBMANACA<AUAXBSA:AjAsALALA3AsAmA!AMAAALAcAsBLALA+AcBUAiAIAAAAALAAAAAuA1AcAdAvA@AvAJA-ACAPAGA^AHAbA5A5BPA#AYA}AiAABdA1BLBLBLALALALA+BTA=AzAIAVBA",
"AoAxAzAIAzAIA3A3AVAABLA=A3AAAuBHAhAzA_A7AWBNA@A$AZAQA!ARACAhABAlAyBiAnASAdAsBcA(A(A6ATAzAIA3AAALAAALA<ATAIAIAUBVA<BAA*BCA|AiBYA]A:A)BAA3A+AcAXABA&A+ALAzBYA+A+BLA+BSAkA1AsA(AAAAAAAxAUA^BEBEAvA.BMA-A0AfARA{AQAGA|BfAgA7A@AYA}A3A3BVBcA_AsALBCBAAAA3BABAAuA(A3AV",
"A5AVAAAVAhAIAsAhAAA3AsBAAAAUAhAXAIAIAAAdA9BNA4A%A$AGAEA[AXAiAEAEAZA{A/ASBPAVA<A<AUA6ATA]AIA=A=AAAzA3AAAhAhAAAuA]A6BEA*BCA<AQA(AuAHBFBBAsA+AcAAATAfAIAAAAA_A=AAALAhBhA(AcA_AsAcAuA3A=A(BBBEAeBGBNApAZBOA8AmA2A{AGAMAiAqA7A#AYA}ALAIAXAXA+AAA3BBBCAVALAVBAA3AcA(AM",
"A5A_AxBPAIA3ALAhALALA(A+AMAXAAAAAAA3AIBPA9BNA4ACA-A!AmAPAPABA!BhA%AjA/AYApBLAGA6A6A6AuBYAcAxBCAAALA]A^AsAcA=BdBcAQA*BFA8BcAMAIAIANAHA_A_A_ALBLA6A<ATAABLAVA+AcBcA+AsA1AsAsAzAXAXAAAcAzA_AxAdBGAnBPAZAoAjBHA[BOBSA^ABAqA7A#AYA}AhBSAiALA+AAAAALBCAHALALBLA_AuAkAk",
"A5AxBEBEAzALAIAhAIAcAIAMAXAAAAA3AxALAfAeA9BNA4A-A$BWA2AOAPA!AQBTAyAbA.AYA7A_BYA|ATATAiALALBBBAAUBCAsA(AcAMBfBdBCBFBTBFBWBcAsAIAcAHBCBAALAAALA_A+A+ATBfA3A(BAAsAXAsALAIA]BYAIBfA=BABLA1A1A_BPAvA.A;A:BWA{BhABA&A!AbBWA-AdA@AYA}A1BYA+ALBAAIA+AxAxA8A]BABAAuBYBdAA",
"A5ALA^A=AzA_AMA^AhA(AIA^AsAAAAAABABBAzA7AWBNA/A-A$AjA0A{AEADAbAHAqBTA@AvA}AsBYBVATBVAuALAzAxAxAuAMAXA]AcBdAABCANBTA|BFBCATAIAhAUA)BEA_AABfA_AzALA+AAALALAsBAA+ALBLBLAAAcAcA3ALA+A=ALA|BYA=BPBJA#BJAZA2AbABABBHAMAXBjA$A7A.AYA7AcAcAAA+ALAAALA3A=BBA3AsAABABAALAL",
"AgA+BCAVAIA3AsA+AIAzAAA+ALA_AAAABfBBAAAdAWBNAnA-AgA|A{BWBiArBiA8A0BEA4AvAVAcA(A(AhAMAMA3AzA7BPAzAfBYA^AcA(AzBEANA<BfA*AHAuBfACA8BFAHAzA3A_ALAzAAALA+BfBABAAAALALAVBLAMAcAsBABfA+A+AxBCAcBBA;AWA#AvAqBkA{APABAMAHA^ArA5AxA.AYA7AcAXAAAAAAAxAVAzA7BEAIAIAsBBALALBA",
"AgA+BCAdAzA_A7A_BAALAAALA_AAA3AUAVAsAAA7AWBNBNA%AgABA!BdBBBSAEAbA0ANA4ASA7AAAXAMAXA1A3AAAzAVA7A3AcAXAXBCAIA(A=AMAiBKBFBCAzA_AMAQANAHA=AzA_A_A_AzBLAxAAA+A+ALALALA+BAA=A_A_A=ALAAA+A;BBAiBWBEAWA.A?ANAjA-AEAQAjBCBYBbA$AdA.AYA7AsAhAAAAALAsAAAzAVAHAuA3AcAdA}AzA+",
"AgBBAHAxAMAMAVA<BfAsAIBfAAAzAzA^AxAMABAxAWA.BeBIAgAkBQAMBEAMAmAbAyA0BeASAWBABXA=A]BZAuA_BAAdBCA_BAAsAcBCA+ABAQAHBEA?BFA)AxAIA_A]AHAjAzAzA_ALALA_BLBLAhALALALALBAAAALALA3ALAAALBTAMBCA+AuBfBMBGA4A;A-ACBiAGBTAjAXBhBOA%A;BNAvAeAsAzAAAAA<AxA7A<AxBMAIAzAuAxAxAzBL",
"AgAdA;A=AQAXAuAGBdA3AzALBfAsAsAxBLAQBkAVA9A.A@A-AZBhA[BfA;AMAmA0AqA|A@ASBGAxAmALAuA!A|A=BAAHBBAzBLAxA=BCBCBUA{BFA,A>BFA*BEAcA^AMANBBAsBLA_AxA+BLA_AuAzALA+ALAAAVAzAzAzA3ALALA+BTAhBdAcAuAdBKA?A4AdAJA{A7AhAjA8A!AbA0A%A;A4AvApA_AhAAALA6A7AdAUAdA,AsAsAhAiAAAzBL",
"AgBPA;AiBBAUAIAuBCA=ALAAAiBTAVA}A]BhAbA;A9BNAnA0A%A8AGA<AGABBSAXA$A8A4A/AWAVA1AUAIAiAiA7BAA8BBA(A3AzAzAXA;BPAfBTBFAnBFA,BEBdAMAMAHBBAzAAA_AxAVAcAsAsAuAuAVBBAUAAAzAIAIA_BdAXA+AxAuAjAHA8AdA>A?A.ApAZBiBTAHBWBiBcAQA8AqA7A.AYApA=A3AAA+A^AhALA3AdA,AcAhA<AIBCAuA1",
"AgBPBMBfBBAzAIAABEALAzAAA3BBA_A^AcA1BWBEBMBNAnA%A-AjBhABA!AEBcAXA%AHA/ASAWA}A(AIALAhAiAdA}A^A^AuAIA+BTACA;BMA^AHBFA>A,A*BEA<AHBCAjBTALALA3BAAAA3A=AzAAAuBABBAuAuAVAIAIAzAsAhAsA_ALA=AHBCAdA,AYA.A9AqArA^AQA|AGBhBTAjA0A;A.AYApAVA3ALA_A8BfBAAAA7A,A3A(AuAuBfA=As",
"AgBPA;BfAHAIAsBAAMAuA3AzAAA7AcAcA(A|AjBEAWA.A>A2AoAXBHA!AEAmBcBTA$ACA/ASApAdBBBfBAAUBSA7A}AMAMA_A_A=BTACBEA,BCBEA*BKA*A*BEBhAxBEANAHAdAxA3BLA3A_AxA_A_AzAhA+A3AzAdBAA3AIAzA+AAA^BBAxAdA8BBA,AvBeBGA$BOACA|AlAlA<BdACA-A;A.AYApA+AcA_BAA=AMAVA_AHA*AVAzAsAzAMA7AV",
"AoA*BEAhBCAsAxAVA(AhAxAuA3A+AVA_AsA)BTBEBMBNA>A%A-A|A{AkABA!A{AXA$AbA/ASBGA;AxAzALAuBVAxBLAMA_AxAxALAVAHA,BCA8A*A,BKA)A*A*BCAxBFA)BEAVBLBABLBPAAAAAVAzAzAxAdAxBLAVA=A3AzAuAcA+BCBfA*AxBfA;A,AvA#BJA0A0AbBSAfBSBhAiACAqAdBeASBPA7AVA+A_BLAMBBAVBFA)BPALAIBLAxA+Az",
"AFA*A*AdBPAxA7AdAVA=A7AVBLAVBPA7AxBFA7A;BGBNAnA-A$BdA!AkA6AkAkBQA$A8A4BNAvAWAVA=AVA=BAA7AxAVAxAdA;AdA;A*A,BEAHA,A?A>BFA,A?BEBEA;A;BPA}A7AeAeAWA}AVA7AVAVAeAeAdA}AVA}A}AxAVBLA7AdAxA*AdAxBMA?ASA#AvA%A0BHABBSBhBSAXAbA5AWBeA>AWAeA}AxAxA}AxAHA;A,A;BGA7A=A7AeBABL",
"AEA,A,AYBPBMAeAWApAeApBPA}AeBGA;A;A;AWBMAYBeAnA%A-AiAPABAlAkBOBZAqAbA@A/AvAWA}A7A}AeApBPA9AWA7AdA,BPBMA,A?AnA,A?AnA4A,BKA>A*A*BMA,A,AWAWBGAvBMAWAWA9AeAeAeA7AeBPA}AeAWApBPApBPAWAWA*A;BPBMBKAnA@A?AqA%AXAPBhBhBcBYBHAgA9A#A>A>ApAeApApAdBPA;A?A?A,A>A,AdBPAWAeAp",
"AAA~A@BeAYA>A>BNA.ASASAYASA4A.AnA>AnA4A4BNBeAnA-A$ACAkAfAiBiBQBgA$BTA@BRAnA/AYASA/A/AnA@BeBNASASA>A>A4A@BRA@AnAnA4A.A4A4A4AnAnA4A@A4A4A@BeBeA@A.A@A4ASASA/AnAnAnA4A.A.A.AYAYASA4A4AnA>AnBeBeA~A#BGA%A{BhAbA{A{BHAbACA$BPA#A@A.AnA4A.BNASAYAnA@A#A4AnAnAnBeA#ASAY",
"AGAnA>AYApBMA,AvAvBGA9BGAvASA/BJBGA?A>A>A>A/AYA-AZA8BHBVAsAkBOA!A$A8A4A.A>AvAvAYASA9AWA>AYAvA?A/A/AYAvA>A>A?A?A?A>AnAnAnA>BKBKAnA>A>A?A>A?A,BJAnASAvBJAYAYA4AnAYASASAvBJApAWAWAvBGBMAYA@AnASA@A4BMA:AbBSACACACBTAHAjA%A;A4AnAYBGBJAYBJA?BGAYA>AYAvBJAvAYA>AvBMA,",
"AtA$A0A$AJAgA%A-A-AZAyAZA$A5A$AyA%A0AoA{A;A,A?A%A-A+AUBBAHBHAkAhA$A8BGANAjAgBIA%AgAyAJA-AqAyA-AqA-AyA$A:A:AZA$A:A:A$A:ANANA:A%A-A0AJAyA-A0AZAyA2AgAJAZA$AyA$AZAJAgA$AZAgAZA5AZAoA-A$AgA:AjA{BFA,AvA-A2AQAHA*A*AHBCA2A:BKBGA;BIA$A5AgAqAZAyA$AZA%A%A$AyAZA0A-A$A0",
"AZA{A0BOBQBjACAbBkBIBgAkAkBDArAFA2A{BQBTBMASASBOA-A3BCA*A,BCBHABAZAbAvA;AjA!AEAPBgBIARBiAGBgA0BUA%A%ACANANACAbA,A,A{A)A,A>ANAbA2ANA%A%A2AHACA2A8A{AEA2A2ARBIBkA5AOA2A{AmAOAaAwBZA!AkAkAQBWBWA;A>BMAZA%AHBKAjAHA,A{BOAgBEA>A;A{A2AkAPBUA[AFA2A2BHA{BHBDA%AHBWA{BW",
"A5BCAMAXAQAkA:ACAmA1AUAxBPAQABA1BcAkBHAjBMAnA/A%A-ACA*BIAZBEBCAaA$AbASA,BEA=A|AlAhBdAhAxA7A^BBBBAQAjBTA^BFAHAHBKA*ACA)BKBKANBWAQBEAjBTA^BEA;AxA?BEAsACACA]ATBVBSAVBTA8AiAhAdBhBcBhA2AMAQACBWBEAnBGA-A0A)BKAZA$A?BHA%AqA}AnA;BWA:AbA6AQAMAXBEAHAQAQAMA{AkAjA)BCBH",
"AgBWAMAQBHAfACBHAkA{BdA|BdAHAGBUAkA2AwACA;A/A4A%A$ACA,AIA-A,BPADA$AbA>A?AHA8BSBhAMAMBfAIAsBfAMAiAQBWAMBdANAHACA*A*AbANA*A*BWBTAxA*ACACA8AxA7A;BBBEBTBHBHA<ATA<A2A^AXBhAcA_A2A7A^BOA2AkAbAbBWA;A4BGA$A0A)A4BHACA>BWBIA$AdAnBMA8AQBiAkA|BhBdA8BEBTAQBHA{AfAMANA8AC",
"A$AbBOAAA)AMAuBhA0A2BCA$AtBMAMA-A2APBgACBEA>A.A2A$BHA;A;BEAnBBABAZAQAnA>AHBWBhAXAMBHAWAyA$BMA1AiAQA8A8BVBCAHBHBEAHAyA:BFAHBOBBBfAyACBWACAQBBA?AtAbBMA]AXBWAoAkAkA|AcAcAQAxAtBIA;BhAQA2BHACA8A,A4A?A-BIBCA@ApAWA,A0A2A%A*A4A,BLAhBHAkBhA|A;AtA%A,BHACAbA1BYBWAbAH",
"A$AjAbBVA*A8A<A!A0BOAHACAaBGBBA2AkAOBSA8BEA>A.A0AoBdAQBEA,BEA2AfA$ACAnAYA;A^ABA<AXAQA;BIBiA,AcA=AuA8BTAiAHAHAXBEANAZA:BFANA0AQAjAFBEBCAMAXAjA,BkBMA;A(BhA0AoBkAXBiAkAQAMApBCBlBJAVA2A{AbAXBBA,A4A>A%BlBhA)BKA,BCBQBOA%A;A4A,BCA8AQBhA{AcBMAbBCA;AbA{BiBQBiAjAbAC",
"AgAHBWA6A8AkBiBXA2AkAHA,AWA>BBA|A<AaADA^A;AnAnA0A%A|AGAHA)A8BbBjAZAbA/A?A)A8APBjAfA6AHA?AYA;BBBAAhBfBWAXBCBEA8ANBFAjANBFA)BWA{BEA>A*BTAQAbAjA,AnA>BCAGBiA%BiBjAMA2BkBHA^AWAvASAYA+BkAkAQBiBBA*A4A/AZBIA2A:A)A)AbBkAwA-AHAnA?AHAbAXA8AQAMA?A>A?BEBHBjAEBIA2A8A{A2",
"A$ACAbAQABBUAkBZAkA{ACA;AYBEAMBjBQA&A[BTBMA/A4A%A-ACAOA8AjBZBUArA$AbA>A?BEBTBcBHA|AmA|BEA7AVBBBVAQA(AQAMBCAjAjANAjAbA:BFAHA{AbA8A)BCA^AQAQA{BEA*AHA<AUBdA=AMAMAMAxAQAXA]BBA,A*AHAXBSAXAbBWA)BEA/A>A0A0BOA{ANAHBjAkBIA-BEA/A,BTA8AQAQAXBHBCA?A;BTAXA6A2A0BHAkA2AM",
"A$ACAbACBOBOBOA2A2A{BHA8AHAQA!A2BQBOA{AjA;A>A@A%A-AXArAbBWBZBkBbAZAbA>A?BFA8BHBOBkA{ARBWACBcBUBQBiBcAQBWBWA:BQA:ANBkAjA)A:A2AbA0A)BWAbA{A[A2A:ANACBcA{AbBHARBDBIAwA%A0A[AkACAbA2BOA{BjAQAHA)A*A>BGA-ACAQBhA:A:AkAXA2A$A;AnA,BWAbACBHA{A0BcAHAjAbAbBSA2A0A{BXBjA2",
"AoBCAbACBHAbA0AbACA8AMA8AjBdBdAQAiAhBCBEA;ASAnA%AoAiAKA2ACBjA2A{AgAbASA?A*BCAMAkBOBTAGAjAjAkBQBcAMAMBBAHA:AjA[AHBFAXA)BFBWAbBTA2A*BTACA{BUACA:AHAMAQACBWAQADAoAoBDBOA0APBhACBhBhAkA8AXBBA)A)A,A>AWAgA:BWA{ACACBcAXBHA$BMAnA,AHACAjBTA^BWA(AjBWACBWAQAbA8A8AXA{A%",
"AeBaA4A#A~A@A#BaBaBaBaBaBaBaBaA~A~BaA~BaBaBaA#BFANA,A*A)BEBEBMA,A*BKBaBaA~BaA~A#A@A#A~BaBaA~A~BaBaA~A~A~A~A#BaBaBaBaBaBaBaA~BaBaBaA~A@A#A#BaBaBaBaBaA~BaA~A#A@A~A#A#BaA~BaBaBaBaBaBaBaBaBaA~BaBaA4BKA*A,A,A?A?BGA,A*BKA4BaBaA~A#A~BaA~BaBaBaBaA@A#A#A~BaBaBaA~A~",
"AtAJAJAJAtAtAtAJAJAJAJAtAtAtAtAtAtAtAtAtAJAJAtAtAtAtAtAtAtAtAtAtAtAtAJAJAJAtAtAtAtAJAJAJAtAtAtAJAJAJAtAtAJAtAJAJAJAJAJAJAtAtAtAtAJAtAtAtAtAJAJAJAtAJAJAtAtAtAtAtAJAJAJAJAJAJAJAJAJAJAJAJAtAtAtAJAtAtAtAtAtAtAtAtAtAtAtAtAJAJAtAtAtAJAJAJAJAtAtAtAtAtAtAJAJAtAtAt"
};
