/* XPM */
static char *texture[] = {
"128 128 127 2",
"AA c #8F731B",
"AB c #5F594D",
"AC c #634A15",
"AD c #1B1B1B",
"AE c #765C16",
"AF c #2D2D2C",
"AG c #1C1C1B",
"AH c #1D1D1C",
"AI c #252423",
"AJ c #7B6018",
"AK c #282726",
"AL c #553E15",
"AM c #261C15",
"AN c #2E2E2E",
"AO c #282827",
"AP c #896E1B",
"AQ c #272626",
"AR c #262625",
"AS c #262524",
"AT c #272726",
"AU c #575043",
"AV c #6C5316",
"AW c #726A55",
"AX c #2C2C2B",
"AY c #292828",
"AZ c #0E0E0E",
"Aa c #3D3B37",
"Ab c #2B2B2A",
"Ac c #191917",
"Ad c #262422",
"Ae c #242221",
"Af c #292928",
"Ag c #323230",
"Ah c #272523",
"Ai c #694F15",
"Aj c #1A1A19",
"Ak c #110F0D",
"Al c #866A1A",
"Am c #715819",
"An c #676154",
"Ao c #47361A",
"Ap c #282625",
"Aq c #4A463E",
"Ar c #473F34",
"As c #2D2924",
"At c #0D0B0B",
"Au c #141414",
"Av c #58534B",
"Aw c #2D2721",
"Ax c #171614",
"Ay c #ADA898",
"Az c #7F6319",
"A0 c #292726",
"A1 c #252524",
"A2 c #2A2724",
"A3 c #23211F",
"A4 c #2A2928",
"A5 c #242320",
"A6 c #312C27",
"A7 c #312118",
"A8 c #816619",
"A9 c #382C1E",
"A! c #201F1E",
"A# c #121211",
"A$ c #141210",
"A% c #241F1A",
"A& c #2B2A29",
"A( c #27221E",
"A) c #282420",
"A* c #402E19",
"A+ c #242322",
"A, c #201E1B",
"A- c #39352F",
"A. c #19191A",
"A/ c #2C231D",
"A: c #2A2A29",
"A; c #2A2521",
"A< c #181715",
"A= c #282522",
"A> c #7C6319",
"A? c #826819",
"A@ c #1A1A1A",
"A[ c #322F2B",
"A] c #715815",
"A^ c #23201E",
"A_ c #1B1A19",
"A{ c #554A37",
"A| c #2A211A",
"A} c #181817",
"A~ c #151515",
"BA c #1A1A18",
"BB c #201C17",
"BC c #32251B",
"BD c #191816",
"BE c #2D2A28",
"BF c #161617",
"BG c #605E58",
"BH c #2A2825",
"BI c #2B2927",
"BJ c #1D1713",
"BK c #1C1B19",
"BL c #171717",
"BM c #1D1A17",
"BN c #101112",
"BO c #493B23",
"BP c #1D1C19",
"BQ c #2E2C29",
"BR c #282725",
"BS c #33291D",
"BT c #26211C",
"BU c #24221F",
"BV c #28211B",
"BW c #2D2B29",
"BX c #2A2827",
"BY c #262523",
"BZ c #242323",
"Ba c #222221",
"Bb c #2B2A28",
"Bc c #58441D",
"Bd c #262727",
"Be c #1B1B19",
"Bf c #272525",
"Bg c #937A2E",
"Bh c #292A29",
"Bi c #1B1C1B",
"Bj c #715D27",
"Bk c #60512B",
"AyBGBGBGBGBGAWAWAWAnAWAWAWAWAWAWAWAWAWBGBGBGBGBGBGBGBGBGBGBGBGAWAWAWAWAWAWAWAWAWAWAWAWAWAWAvBGBGBGBGBGBGBGBGBGBGBGAWAWAWAWAWAWAWAnAWAWAWAWAWBGBGBGBGBGBGBGBGBGBGBGAvAWAWAWAWAWAWAWAWAWAWAWAWAWAnBGBGBGBGBGBGBGBGBGBGBGBGAWAWAWAWAWAWAWAWAWAWAWAWAWBGBGBGBGBGAvAy",
"AyAtA$AkAtA$AoALAoA7AoALA*A*AoALAoALA7AtAZAtAZAtAtAZAZAZAZAZAtALALAoA*A*AoALAoALALALALALAkAtAtAtAtAtAtAtAZAZAZAtBJALALALALA*ALA*A7ALALALALA*AZAZAZAtAtAtAZAZAZAZAZAkAoACALALAoA*AoA*A*ALALALA*AkAtAtAtAtAtAtAtAtAtAtAtAMALAoA*A*AoAoALALAoA*A*AoBJAtAtAtAtAtAtBG",
"AyBJA/A%A%ACAVACAVAmBcAzALAoBcAlACBcA^A.A_BAA}AjA!A!AHA!A3A.ALA>AmA8AlACBcAlACA?A8ACAPA9ADA!AHAHBLAjAHAHAHAHAGBTAJAVA8AAAJAEAPA8BcAzAJAlAVA.A,AGAjBABeAHAHAGADA,BFBcAJA8APA>AiACAVA8AVACAmAJA)ADAHAGA}BLA}A!AHADADA@A%AVAiAzACALAmACACACAmBcAmAoA~AHAcA}A_A,A#BG",
"AyBJBTBJACAiACAVA]AVBcAEAoBcAVA>AmBMA@AGA_AcAxAjAGA.ADAHBFA*APAJAmA>AlAmAmA>AiAzAmAzAoADAHAGA.A@AjADADAjAGAGBKAmAPA>AJAPA8AVAAAEA>A8APA>BVADBKA_BLA}BeAGADA@BKBFAoAEAVAJAPA>AiAmAlAzAmAmAmA|A.AGAGAjAuAxBDADADA_A.BDALACAEAAAEACAEACACAJAEA>BcAuAjAjAcBLBDBPAkBG",
"AyBJBBAoAJACACAEAEAEALAEALAmA?AJAoBFBKADADBAAuAcAGAxADA@BCAEA?A8A8A]A8AEAlAJAiAJAiAiADA@ADBKAcAcAHAHBiBFAHBFBcAPA?A>AEAJAlAEA?AmAAAPAAA9A.AHADAHA}A}ADAHAGAGADBVA?APAVAJAAAlAiAJAAAJA8AlBkBNAGADAGA_AxAcADA@ADAGBAALA]ACAVAPAJACAEAiACA8AEAmAwA.BKA_ADAcA~A_BNBG",
"AyAxAoA>AEA8AVALAEAJAEAJBcAEAzALBNAjBLA@AcBLA}A~ADBeAHA.AiAzA]APA]AJAAAAAzAPAEA?AiBFA}BABFAjBPBAAcBiBiAHBFAoAPAzAlACAJAiAPAAA>AmAlAAAoBFAHAGAGAcADAGA}AGAGAHAcAJAAAJAmAPAAAlAmAPAlAmAAACBFBKBLA@AGBKAHADBFAjAHAuAoA?A]ACACAlAzAVAAAiACAJA8A/A.A_AjA}ADA_AjAHAkBG",
"AyA|A8AmA]AEAiAmAVACA]A]AiA>AmBDBLBLA.A@A_AcA@AjADAGBFACAPA]A>A8A]A8APAJAPAAAEA?BSAHBAA_AjBLBeBPAcA@AHA.BSAlAAAAAJA?AAAlAlA>AAA8APACA!AGADAHAGA_AGAHA_ADAHBFAiAPAJAPAiA8APAiAEA?A8AJAJA|A.A@BKA%A}BAAHADAjBPAuBCA?ACA8AmAiAJACAEAlAmAVA?AoADBPBAADAGAjA@ADAHAkBG",
"AyAiAmAmAVAiAiAzALALA]AJA]AEBSBFAcA.A@ADA_ADADADAGA.BSAlAlAJAJAAAJAEAzAEAPA8APAoADA!AHADAGAcBLAHADADAGBBA>APAAAAAzAPAPAPA>A8APAAAmBPADAHAGADAjAGAHAHAGAHBFAoAAAmAJAJAJAEAzAJAiAmAPAPBCBFAGAGAHA,A~A}AGAGADA@BBACA>AVA8AmACAiAoAiAJAJAEACA.A.AGAGBAAGA}BLA@AHA#BG",
"AyAJAVAVAiAVA?ACACAEAVAzAJA9BFAcAcA@ADAGADADADAGA.BBA?AlA8A]AABgAzAzAAAPA8AJALA@AHAGAHA@AHAHAcAGAGA,BFAVBgAmAzAAAPAzAlA?AJAAA8AABSA.BeAHAGA@AjAGAHAHAHBFA*AAAAAJAJAJA?AJAlAPA>A]AAAoBFAHADAHAcADA_AHAHAHAGBFACAlA]AJAEA]ACAiACAiAzA?A>BPADAcA.ADAxADA}A}ADA!BNBG",
"AyAiAVAVAiAmAzAzAAAzAmAlALBFBPA@A}A.AGA@AcAGAGAGAxAmBgAPAJAzAAAAAAAPAPAAAAAiBLAHAHAGAHAjAHAHAGA}AHBFAoAPAAAPAPAAAAAiAAAAAAAABgBSA.AHADBiAHAGBiAHAGAHADBBA>AAAAAPAAAPAAAPAlAPA?AAAoAjAHAGAGAGADBKBKA,A_A!BNALAPA?APAJAlA8AiAJALAEAAAmA(ADAHAjA@AGA.A}AcAGAHA.AMAy",
"AyA]AmAVAVAiAVAlAlAVA]ACA~AcA_A@A.AjAGA@A.AGAHA.ALBgAAAAAlAPAPAAAAAPAJAJAPBPADAHAHAHAHA_AHAGADBeA.A|AlAAAlAAAABgAAAVAAAPA?AlBjBFAGAGAGAGAGAjADAGAGA!BFACBgAAAAAAAAAAAAAPA8A>AzAEA,A@AHAHAHAHAGAcAxBDA,A.BCAPAPA?AAAlAAA>AiAlACAmAPALAuA,AGADAjADADBLA}BeAHBUAmAy",
"AyA]AVAVAVAiAiAEAmACAJBMA}BLA@A@ADADA@A@ADA,BFA9AAAAAPAAAAAAAAAlAAAAAlAEBSADBiAHAHAHA@AcBPAGADA!A}A?BgAAA>AAAABgAPAEAJAzAJA>AuAGADAGAGAHBAA<ADA@A,BFAoBgAAAlAAAAAPAAAVAPAAA?AJAcAGAGAHAHAHAHADA_A.BPADA%A8A8AAAPAlAAAAA]AVAPA>AVBcBFBAAjAGAGA}AcADA@A~BKBNBcAABg",
"AyA]AVAJACALAiAEAJA8A*ADAjA@A@BLAGADA_ADBPA.BSA?AJAzAlAAAlAlAAA8A?A?BgBcA.AGADAGAGADAGAGBPAHA!BFAVBgAPAAAAAAA>AlAPAlA8AAA>BCADADADA@A}AjAGAHAHAHBFA*AlAPAAAAAAA?AmAPAPA>AAAAA9BiBKAGADAHAGAGAHAGAjBLBMAmAzA]AzAAA?AEAzAEAVAiAzAVBBA.ADADAGAjAjAjAcAGBABNAoAJA]Bg",
"AyA]AVAJACAiACAmA>ALA.ADA@A@A@A}A@ADADADADA_AmAAAEAlAAAAA>AEAAAlA?A?AmBUADADAGAGA@AjAHAHAGAHA.A*AAAAAPAAAAAPAEA8APAAAAAAA*BFAGA@AjAcBLA_AHAHA!AHA/A>AAAJAAAAAAAPAzAAAAA?A?AVBFAGADAGADAGA_AGAHAGAjBLBcAAAJAJA>APAJAJAzA?A]AVAmBSAuAcADAjAGBDA_AjAcA,A.BVAmAJAVBg",
"AyAEA>AzAEAEACA>ACBNAGADAcBLADADA~A.AHBKBNBcAAA?AEAAAAAlAiAiAAAAAAAAAcA.AHAGAGAHAjBKAcBiA,BLA%AAAAAAAlAAAAA>AAAAAAAABgAoBNAHADA_A@A~A<ADAHAGA!BFAVBgAAAlAlBgAAAAAPA?AlAAAmAuAHAGADAGAHAjAGAHA@AHBLA9AAAlAEAJAlA8AmAPAPAAAJAlA/A.AcA}AcBLADA<A_AcBeA@AcAmAJAiAEAy",
"AyACACAJA]AmA]AmBVBFADBLA@ADA~ADAjADAHA~A*AAAAAPA>AAAEA8AzAzAEAJAAA9A.AHAHAHADAcAGA_ADAHAHBAA>AAAPAPAAAAAlAAAAAAA>A8AiBeADAGADA_A,A~ADAHAGA!BFBcAAAPAAAAAABgA?AAAAAAAAA8A|ADAGA@AGA@ADAGAGAGAHADBVAlAPAlA]AEAPAPA8AAAAAAAAACA_AHADBLA~AjADAjA}AcBKA.BcAlA?AEACBg",
"AyALAoAEA]A]A]A9BFAcA.BLADBiA~ADADAGBLA|A?APAPAPA>AAAiA?AAAlAVAEAiA.A@AGAHAGBiAGAHADADAHA.ALAAAAAAAAAAAAAJAAAAAAA>AEA%A.AGAHBiADA,ADAGAGA,ADA9AAAlAPAAAAAAAAAlA8APAAAAALAuAHADADAGADADAHBiAHBiBMALA?AAAlAVAJAPAJAzAAAAAPAEA|BFAGBiA}BLAHADAGA<BABFAoAAA>AAA?AiBg",
"AyACAoAiAEA8A*BFAHAjA~A.AjBLADA@A}A@A,AVA]A?APAPA?AlAzAlA?A>AlAEBPADA@AGAjA@A!AHAHAGAGA.BOACAEAAAAAPAAAAAJAPA?APAABCBFBKADAHADA}BeAGAGAHADBTAAAlA>AAAAAlAAAAAAAmAzAAACA~BPA@ADAcAGADADAGBiAHAHAoAoACAAAEAEA8AEA]A]AlA>APA|AuAcA@BLA<AGA<AcA@A_A}AMA8AEA8AAAAAlAy",
"AyALAoAiAzAoBLBDAjAjA~A.BAA<ADAcA}AuBcAzAiA?AAAPAlAAAiAPA>AEAPBVADADA.AHAcAcBKADAHA!BFAoAAALA>AlAPAPAAAPAJAPA>BgBcA.AHADA@AGA@A<BeAGAHAGAcA>BgAPAPAAAAA8APAAAAAJAAAPA,AjA}ADAGAcAcAjAjAGAGBFA*AmA7AiAlAEAJAzAEA]AJA>AlAoBNBAA~A@A<BDAcA$ADA_A}AxAVA?AVAEAPAAA8Ay",
"AyALAEALA*AxA<A<AxAjAuBAA}ADAjAuBFA*AVACACAlAPAJAVAAAAA?APAPBSA.AHBLBLADBFA~BiAGAHBFBCA>AEAoAJAEAlAPAEAAAEA?BgAmBUAHADADADAcADAjBeADAHA~ACAAAAAPAPAAAlAzA>APAAAAAPA|ADADADAGAGADA~ADA}BeA@BVAJAVA*AiAiAAAlAVAVAAAlAlALA~A~AcAcADA<AxBABAAjAGBLBcA?AVACAJAlA?AEAy",
"AyALACA*BJAuBDAxAuA<AuBDA<AcBABNBCAmAiAVACAPAPA8A]AAAAA8AAACBFAGAGA.A@A}A~AcBAAGA@AxAmA?AEAoAJA>APAAAEAAA8AAAPA,A.AHA_A@ADAcBKBeBiAGBFA*AAAAAAAlAPAAA?A8A8APAAAAAoBFA@ADAGAGA@AjBFADBAAcBMAEA>A]AoALAVAAAPAEA>AAAAAEBLBFAxBLA}A}AuAxBAAcADBFAoAPA8AJAiA>APAJA]Ay",
"AyALBCAxAuAxBDAuAuA$AuAuA~A<BFAMAEAVA]AlA]AlAAAAAAAlAPBgAmBNAHA@ADBiAHA.ADAHAxA!A@AVAAAiAEACA8BgAAAAAAAPBgAPBVA.AcAHAHAcADBLAHADAGA.BVAPAPAAAAAAAAAABgAAAAAAAABcAuAHA@AGAHA_A~AGAHAHAHA.AiAAA?AEAJAzA?AAAAAABgAAAzA|A.AcBLA~AcA$A$AjBAA<A.A9AlAJAPBgAmAEAPAAAPAy",
"AyAMA$AtAtAtAZAZAkAkAZAZAZAZAtAMA*A*A*AoA*AoALALALAoALALBJAZAkAtAtAtAZAZAZAZAZAtBJAoA*A7A*A7AoAoALAoA*AoAoAMAtAkAtBNBNAtAtAZAZAZAZAZA7ALAoAoAoALALALALAoALALA*AZAZBNA#BNBNAZAZAZAZAZAZAMALAoA*A*A*A*A*AoAoALALALAMAtAZAtAZAZAZAtAtAZAkAZAkA*ALAoAoAoA*A*AoAoA*AW",
"AyBCBHA,BKA!BBBBARBBAMBPA+BBA5A9A7BSBSA-A9BSA9A9AoA*A9BSA!ARBYBUBaARAQBYA2AdBBA!AwA9A7A7A|A7A9A*A9A9A*AoBOA5BBA(A[A|AMBRA^A%BHARA1ApA9A9A9A9A9A*BOA9A9BOBOBOAsA1BHAfBIA0BYAdBbAeA!BRAhBOBOA9A*BCA9A*A9BSA9A9A*A9A!A+A+AYBRAhA!A,A^A+A^BPA(A9A9A9A9BSBCBSA9A9AMAW",
"AyAaAvArArAqA9A6AqA-A*AgAqA9AqArBOAaAaAqArA-AaAaAqAaAqAqAqAqAvAUAvAvAqAqAvAvArAqAUA{BOAoArBOBOArArAUA{AUAvAvArAqBGBOA*BGAqArABAvAvAqAvAvAqAqAvAUAvAvAvAvAvAvAvAvAvAvAUAvAqAqBGAqAqABAvAvAvAqAUAqAvAUAUAaAaAqAqAqAqAqAqAvAqAqAaAaAqAqA-A-AqAqAqArArAaAaAaArAqAgAW",
"AyBMA0A;A^A(BVAMBBBMBBBJBMAMBVBVA)A!A3BHBTAdAhBIBEA2A2A0A[BWAFA[AgAgAFANAFAbA5BRA:BUAMAMA;BCBVA/AwAwBSA[A6A|AMA/AwBMBJAsAsAwA6BHBEA[AbA4AYAXAOAYBQAXAFBQANAFBIA&AbAFBHARAOBIBbAfAfBbAbAFANAFBEA[ANBEBbBQBWBQAFA&BWAFAFAFAdA0BXAhA(A;BTA^A+AhAIAeA%A^BIBWA;BEA3AW",
"AyBMA=A5A,BJA%BBAMA,BBBJBBAMAMAMBTA,A!A)A^A+AhA2ApA=BRAhBHA4A4BWAXA&A&A&A&A0AhA)A2A5AMAMA|AMAMA|A/A/A/AwA;BVBJA|A/BBBBAsA/A)A;BHBHA[AKA0A0BbARAKA4AOA4AYAOARATAKASARA=AIARBXA=A0AKATAfBIAXAbA0AsAbA&A4BWA4AfAYAQApApAbA:AdA)A;A)BUA/BUBUA(AeBaA3A,A^AbBIBUA5BKAW",
"AyA^BEA=AhBJA0BVA|BHA,A%A)A2A=AMA/A|A:A[A=A:AXA&A&AXAFAFBbAbAXAgANANAFBEBWAgAgBSAwAFA|A7A7A|BCA7BCA9AgA9A6A2A7BCBCA6BCA9A9BHBWA-ANANAFAgAgBQANAFAFANAFAXANAFAFAFAbAbAbAFAFAFAgBEAFAgA[A[A[ANAgA6AgAgAgAgAFANA:ANAFAbAgAFA[AwBCBSBEAwBHBRAwAdAOAQAIAfAgBHBWBIAGAW",
"AyAtAuA#AkAtAZAkAkAuA$AkAkA$A#AkA$AkA#A$A$A~A~AuAuAuAuAuA~A~AuA~AuAuAuAuAuAuAxA$A$AuAkAkA$AkAkA$A$AxA~A$A$A#A$A$AkA#A$A$A$BNA$BJAxAuAxA~BLAxA}AxAuA$AuA#AuAuA$A$A#AuAuAuA~A~AxAuA~A~A~A<AuAuA~AuBFAxBLAxAuA#A$A$A#A#AuA#A$A$A$A$A#A$A$A$A$A$A#A#A#A~BJA#AuAxAtBG",
"AyAtA#A#AkAZAkAkAkAkAkAZAkAkBNAkAkA#AZAkA$A$A$A$AuAuA#A#A$A#AkAtAkAuAkA#AuA#A$A$AkAkAkAkAkAkAkAkA$AkAkAkAkAkAkAkAZAkA$AkAZAkAkAkAkAkA#AkA#A$A$A#AkAkAkAkAkAZAZAZBNA#A#A$A$A$A#BNBNAkAkA$AkAkAkAkAkAkA$AkA$A$A#AkAkA#A#AtAkAkAkAkAkAkA#A$A$A#A#A#A$A$A$BNA#A$AtBG",
"AyAkA,BMA~AxAMBBBDAxA<A<BJBJBPBJBJBMAGBMBPAHAHA3BaA!A!BMA!AHBJAtBiAIA^A^BZA^A%A!BPBJBJBJBJAMAMBBBBAMBMBBBBBBAMBMA<AMA7AMA<BBA%A.BPBPAGBAAGAHAHAHBPAGBiADA.AjAjA_A!A!A!A!A!A!BPBPBPAxBJBJBJBJBJA%BJBJA,BKAeA(A!A!A!AHBKA$A,AHAcAMAMA_BPBPBPAHA!ADBBBBAGBiA_BKAkBG",
"AyA$A5BPBPA,A$AMAMBDAeA,BJAMAKA^BJA^A0A%A,ARASAdAeA3AdAdARARBBAtA1A&BfAhAeA0AhA+A%A7AMAMAMBBAMBCAMA|A6A;AwBVAMAMAMBCBOA7A!A(A;A1A(A+A5BUA1ARA3BaA+A!AIA5AeA+A+AeA1ARA3A1ARA)AMAMA(BBAMA|AMBJAGA-BVAMA!AHASA6A6A=A5A3BBBJA=A9A%A,A%AMBaAeA3A5A+A!BMAeAIA!A,AeA<BG",
"AyAxBYA,A,A^BJAMA|A,AhA3AMA%A:AIAMA)BEBVBUAfAYA0ARA!AgBQAIBhA3AtAbAgASAgAFA+A0A1A(A7AMA7AMBBAMBCBVA/A6AsBSA|AMAMA|A6BOBCAeA;AwBWAwARBYBYAQAYA5A1ASA+ATAhAQASARASARATAeAOAfA2A(BVAeBBBVA7AMBJAHA-A%AMA5BHBaA[A6AsBHAdA^BBAwA9BTA%A%AMAIBYAdA5AIAeA,ARAKA+A,ApA@BG",
"AyBDAhBVA%BUBVA7BCBRAdAhA%AKAYA)AMA)BHA%BRAYAYBHA4BDAqAaAxAQAYAtAgAaA_AqAvBNBEAwA/A;AMA7AMAMA7BCA2BEA6A9A9BVAMAMApA&A[A9AIAwAwA[A2BYAQASARAKAKAQAQAQAKAQBfASAQASA1ARASBHAsA[BEA(A(AMA|A7A=BBA!A-BTBJAFABBPANA4BIA;ApAhA)BCA3A/A;BaBJA3AhA0A^A3AeBUAOAKARBBA=AHBG",
"AyBMA^BBA,A3A(A|A|A0BRA3A(BYAIA;A/A)AhA/AQAQAYA0AKAHA3A,A,A&AYAZAgAaA!A5A0AjANBWAwA/A|AMAMBTA/A|A)AwA6A9BQAwAMAwA9A=AsA9AsA)A-A-AdBRAIA1A1A5ASAKBRAKAKAQBfAQASASATARBYBUAdBIBQA2A2A|BTBVBTAMA;A-A%AMA3A[A(A:AbBbA2AQA^A1AwA5A2AsA!BBAeAeBfBUA5AIAIA5AhATA^A^AxBG",
"AyAcA,A,A,A,BTBVA(AfAfA,AdA5BYAwAwA=AIAwA0AeAKAfAQAhAxAxAdANA4AkAaAaA1A_BDAXAgANA&A;A7AMAMA(AwA7AwAwBIA9A6A)A/BWBSAeA0A6AsAhA[BOBbASA5AIAIA3ARARA1AKAKATAOASARAOATARAdA5AeASBQAbBRAMBTA^A|BCA[AaBTA%AGBMA%AFAFBWAXBRA^ASA/AeBhAfBBA%BYAeA+A+A^A^A3A5AhASA3BUBMAW",
"AyAcA,BUBPBPA%BVA|BHAKBVA(A+BIBSA/AhASAIA5ASA:A4AdA=A^A^AKAFBXA#A-AaAbAOATAgANA-BWApA7AMAMA)AwBCAwAwA0A6A9BCAwA+A(AwA6BEBRAdAsBOBRAIA+AIAIA1ARARA1ATAKAKAKARAQAQARA1AdBRAIAdBEAXBRAMA%AdBCA/AFAaBTA%A%A(AbANBQBQA4AhA+A+A/AeATAbBUA,A+BYAeA5A!A,BUARASASA^AhA3AW",
"AyBMBPA,BAA,A1BVA7AwAhA/AdAIBHBSA(BYAIA:A3AfANAbA+A5A^AdA4A&A[A$AgAaAFAXAgAgAfA[AsA2BCAMA7AwAwAMA=BHA0ApBCAwA/A%BSA9A9A;ApAdA2BEA1AIA1AIAIAQAIARBRAKAKAKAhAfAKAdARAOBRAIAeA;BWAYAfAMA%AFAsA)ANArBMA|BCBHAgBQAsAFAOA1ASAdA/A5AIANBYA!A!AIA+A1A,A!AOBdAdAOBUA=A!AW",
"AyBKA+BMBDA,A5AdAwBSAeAMA,BZA+A%A%A3ARAKAwANARAdBHAfA3A0AbA&A;AZAaAqAXANAgAbAFA[A6BEA/A7A7A;AwA=AhApBEA[A*A[A^A|A=AsAsA9A5A,AwA-AIAIAIAIAdAQAIASAQAQATATAKAfAQBYA1A1ASA1AhAwBEA0BIAMAMA%A;A0BQAaA%BTA0A0BIAsBWAFBbARAQA3A/A5A0BWA5A^A%A!AIARA+A3A!A!AdASBYAYBPAW",
"AyA_BZBMBBA,AeA=AwAwBaA%BBBZA3BMA^AIARBHA6ANAOAdA)A4AeA4A:A&AwAtAaAaAFAgANAXANBEBEBbA6AMA|BHA;ApAhBHBQA[A9A6AdBVA=AsAsAsA3A,A2A6ATARAQASAeAQAQAKAQAQATBRBbBWANBbBbBbBbAYA2A;AsBbBbA|A%A%A=BRBWAaA(BUAKAYBEAsAKAFBbAXA&A%A(AhBEAbA5A%BBA!AIARASA3BPA5ApAhAQAfBPAW",
"AyBAA5A5A,A,A5A/A|BMA3A5A5AeASBVA)ARAKA[BIAFANAXBIBUA5A4AXAbBCAkA-AaAFAfAFANANA0A2BIA9AMA;BEAwA/AsA6BQBWA9A9BhA=A9A6ApA0A0A(ApAfA&AIASASASATAKAKATA:AeAwA-ArAWAvAUAnAUAqAqAqA9A4AXA|A(A=BHA5BbAaBTAdAbA4AfBEA2A!AUAUArA9A{A9AqAbA5A^A,BaAIASASA3A%BXA3A^BYA4BKBG",
"AyBeARA5BMBPBQA[A|AMBdA5A%A3AOAwA%A1AKBXA=AFAbA4AKAdAeBHAFAXBVAtAgAgAbANANANAXBEAsBHAsA|A7AsAwA7BQBQA&A1BSA9AOApAsAQA-A-A1AIAhAgApA!AeARAOATBRAQAOBXAeA[AUAUAWAnABABAvAqAUAUBOAfAbA|BTAKBIBRBWAaBTBYAbAOBbBEAdATAvABA{AoArArBOAYA^A,A,A!A5ASAOA3BMA0A5BTAhA&BPAW",
"AyA<AOBaBMA,A0ANA/BVBdA,A,A5A^A%A^AOAYARBWBWBIBEAKA2BaApA&AbA3AZA-AaBdAbAgANAFA4ApAbA:A|BCAsBHA/AFAbBEAFA6A9ATA(A%ARA6A[BdARAOAFAdA3AeATAQATAKARASA0ASA-AnAvABAWABA{AnAUAvAnA{BIA=A|A(A0AwBHA&A-BVBYAXARA6AsApAqArA{AUBOA*AUA9AhAeA^A!A,BYA5ARA!AHBfAhBHA5BXA,AW",
"AyAxARA+BMBBAIAYBEA2AeBBAeA3A5A5A)A4AQBZAXAfBWBEBWA;A!BYBIAbA&AkAaAaA1AOAgANANAQA4ANBQA|A/BEAwAwBQAFAFAXA6A-AOA(A%ATA6A&AbBfAfANA+A5A1ATARATAKAQA+AOANAqAWAnAnAnAUAqABAnAnABAUBQBRAhA=AhAsBHA&AgA%AdAFBbA5BRAvABArAUA{A9AUABA{AOA1A!A3A+AKA!A+A3A!AIAdAeAdBIA!AW",
"AyBKA3A3A,A%BUAfANAhBTBUASAeAeBUBUApAeAeBXAXAYAOBhBIA!AOBEA;AYAkAaAaAfAFAXANANAfA[A[A6A|AwBEBCA2BQA[AFBHBHAKAYA4AsA6A-BQASAOAFAFA3A!A0BEA1BaASAQAKAYAgAvAnAnAnAnA{A{ABAnAnABA{A[BHA/A(ASA6AwA&AaBCA;AfAdA-AUA{BOArABA{ArAqBOBCA5ARA5A3AIAIA3ARAIA!AdA0ASA0AXAHAW",
"AyAHBRA^BUA^BVBHBEA=A(AIA0BfA+A(A)AIAdA0A&AFAKAYAYA:AIA:BWA;A)AtAgAaA:AFAfAFAFBWANA[BQA|AwBSAsAfA[BQA&BIAsBEBWA4A6BQA[AYAKAbAFAOA5A5ARBXA1A3AYBfBRBZAaABAnAnAnABAUAUABABABAUBOArAsA)BUASA;A;BIAaBCA/A-AaAUAvArA{A{ABAUAqArA9A9AdAKAhA3ASASA3ASAeA^A3AdASApA:BMAW",
"AyAHBXA!AIBaA5BYAwA/BTAKAsAQA4A/A3A+A0BQA&AXAXBbA[A=AhATAbA2AMAtAgAaAXANA:AFAXA6BQAOAXBCBSA6BWBHANAbAQBbA=A[A[ApAwA4BQATAYAOA5A+BRBRBaBZAKAhAIASAQAHAqAWABAnABAvABAUAUABABArBOABAYBdA0BHAeAeApAaA%A%AvAWBOArAqAnABABAnArAUA9AvBXAKASBUAeAeA,A+ApASARBUA3ApBRBPAW",
"AyAHA&BYA3AdA)A!AsA2ASAhBHAYAQA(A,A!A4A&A4A=BbAbAYBUA4AXA2A|AhAtAaAaAFANAKAXANAOBEA[AXA|A;AXAsAsANANAFAFAsBQBWBIAwAFBHA6AbAbBYAdAKAhA+AIAdAQAIASAOAeAqAnAvAnABAnABAUAUABABArBOABASATA;A)BZAKANAaA(AeAqAUBOAqABAUArA{AnAUA-ArBOA5ARAQA+ARA3A,AKA0ARASA,A!A+BRA,AW",
"AyBPAYA5A3AdA%BHANBHAQASApBdBdAfASARBIBbAOA(A0A:ATATAYAfA;A(AQAZAaAaA:AFAfAFANAOBWA[A:A7AwA:AwAsANANANAfBHBWBHA2AsBQBHAsA4AOA0A0AOATBZARAIAQAKAKBfBaAqAnABAnABAnAUAqAvAvABA{BOAnBYAYA=A=AdAfANAaAeBaAaA{A{AvAnAUA9ArABABA9A{BOA2AhAIA+AOA!A,ATAKAQBUA3A1A5AKA!AW",
"AyAxARA,AeAeA3A:BQA)AeA)A3AeAIAKA1AIA=A;AhAfAYA1AOATA3A3A0A=AQAkAgAgA1AbAfAgA:ANBQANAXA7AwAbA6A;ANANA&BQBRA0BHApBIAsA=BRA&AIA+AOAKAIARATAKAOATATAKBaArAWABABAnABAaArAnABAnABArABA+AYA=ApAYAsBEAaBRBaA-A{AUAWAnA{AUAUA{AvArBOABAbA:A5A^A+A^A^A!BUBUBYAQAeAhAYA<AW",
"AyBDAIA^A3A!A5AhBIAsA(A(A3A(A1AeAdA=A+ApA=A:AYAeAeA1BRASAYBVA)AkANAgARAFA:AgAXAFAFANAfA/BIAbAsBEANANAXA[A0BIAKARAQBHAhAQBXAYASASAOAIARATAOATAKAQApBIAqAnABABABAnArAaAWAnAnAvArABA6AOApA=AbAsAXAaBRA^A-ABABABAqArAvA{AUABA{BOAUAYAfAhA3A)A5A^AIA!A3A1AQBUATAKBDAW",
"AyAGBUBUA,A,AhA+BHA6AdBaA(A/AfAeA)BHA1AIAeAYAQBaA!ATAdA+AKA(A|AtA4AgA:ANAXAbANAFANANASAwBEA&AsANAFAFAXBdApBHASAOA&A1AOA4A0A4AhBYATATBdARAOATAKApA+A[AqAvAvAnABAWAqA-AWABABAUA{AnAaA0ApA2AbARAbAaA=BTAaABA-A[AIAaABArABABAUA*A*A0ARAQAQAYA2A3AeA!A3BZAIA%ApAhBMAW",
"AyAGASA!A!A+BYBfBWA6AdAwA;AYAIAeASAKA2BYAfAOARBZBaATA+A5A)BRAMAtAaAaBhAFAXAFAbANANARANA|A2BEAwANAgANAFBdA+AeAKAFAFBQA:AfAQASAeBYAOATAQATATAOAOATA!AaAnABAnABABAnAaAgAnABABABAvAUAvBRAfA)BRBbBbAaA=A|AKAhBaARATAaAWAnAUAnAvArA9A^AKA4AYBXA2AeA,A,BaA^A^BYASAKAHAW",
"AyBKAdA3A,A3BZAKBWA2A5A)BXAKAdBYATAYAsA0AQASASAIBaATApA)A2A=AMAtAaAaAfAFAXANAFANANA:AXA|A2BbBHAXAgANAbBdBRA2AQBRA4A&A:AYAKASAdASAOA1AQARATAOAQAOBaArAnABAnAnABAnA[A-AnABABAvABABABBXAYAdA=BbBWAaA2BVAIAhBbBIAIA-AnABA{AnAUA{A9A^ATAfA4BIAIBaA+BaBaA5A)ATARAOBeAW",
"AyA<A^AIAHAHAIBEBEA+A3AKAhAeA+A&ATAYBIAQAIA+BdARBaAKAhAIA4A0A%AtAgAaA:AbATANANAXANAgBdA|AsAFAbBhANAXAQAfA5ApBZAIAYAIA:A4A4BUA(A4AfBZARARATATATA:BZAqAWABABABAvAWAaBfABABAvABAUABABA0ApA;A=A1AXAaA)BMBUA5BbA[AIA-ABA{AqAnABA{AvAdAIATA:AKAeA!AeA!A!ARAKASARA+BDAW",
"AyAxA5A+A,A,BZAhBIA=A3AIAdA)A1AQAQAQBXARBZBZBYA)A3AOA0BaA&ApBTAtA:AgAFAFA:AbAgAfA:ANAQA;BEAXBhAbANA&AKATBaAIA=AYBWA0A:AQA5BUApAfAKAIAQARA1ATATAYBZAqAWAvABABABAnAgA!AvABAvABA{A{AnAwApAhAhA2AfAaAwAMAdAQA4A[BfA-AnArA{ArABAUArAhAIA1ATAQAeA!A,A3AIA5BYAQAQA1BDAW",
"AyBDA5AeA,A,A1A+A;A;BTAeA5A)AQAYATASAKBdA1AIAeA=AQAQAhA,AKA%AMAtAXAgA:AFAbAOAgAOAYAXARA;BEA4ARAbANAXAfAeA+A)A;AOA0A4A4A)A^ASBdASAOARAIAIA1ATA+AhBZAqAWAUAvABABABAgBZAUABAvAvArABABA9AdA1BIAwAfA-A6BBAhBbA&AXAdA/BOBOA{A9AUABBOAhA3AeASAQAQA+A,A!ATAeAdA0AdA+BAAW",
"AyBDBYA1A,AeAYASA0A0AhAIAdBHBaAQARAIAIA+A:ATAIA:ATAeAeA(BUA%A;AZAaAaBdANAbAFAbAbANA:AFA|A2A:AKAfAgA:AbAYBZA3BUAOARANAbA5AQAQAIA%BRARASA1AQAQARAOBaAqABBOAUA{ArArAgBaABAWABA{ABABABArA1AOBXApAOAgAwBBApA&A4A=A+A-AnArBSAvA{AnAnAeA+AIAOAXA3A1BaA5ATA1AIAKA&A0AcAW",
"AyBJAIA3A3ARApAdAYA0AdAdA5AhAeAKARA+A3ARA1A1AYApASA+AhA0A(A(AKAZAaAaAbAFBbAXAbANAFAbAbA/A2AOAQARAbBhAfATAIBUAdAQA1A[AKBZAOASA5A5A1AQARARAQAKAKAOAQAqABArAUArA{ArA4BZAaAnAUA{AnAUAnAUBdApA=ATAOAgAwBVAYA&A4ApASA[A{AqA-AUArAUAvA^A5ATAfAfASAIBaA5A:A5AIAQAQAKBDAW",
"AyA,A3A3ATAOA(A5A&BHA,A)A3A3AeA4A2A)AeAYA)ARBIA)AeATAKAhAwA/AbAZA-AaAXAXAOAbAXANA:A4AKA/BHAYBXAQA:AfAIBaATApAhAIAYAgBZBdA:AOAIAOATBZAQBdAQAOARASAaAUAUABABABAnAqBZBfBWAnA{ArAUBOAnABBfApA;A=BRAgA)A^BbBEA&BIApA/A9AUAUAUBOA{ArAeBYAOA:AQATBZA,BUAbA5AdA5A!ATA_AW",
"AyA,A+BUASA+BfA1A0AsA^BdA2A3AYANBHBHA1A(A;AfA3BUAIAYAdA(A;A4AwAtAgAaAFAXAbAXAFAYAOANAFBVApAbAKATANAfAbAQAOAdA+AbANBhA1ATBXA1ARAKATARAOATAKASAKBaAqA{ArABAUAvAWAUBZASA-ABAqAqABA{AUAnAIATBRA2A2A-AwA5BbBbAbA=A)A-ABA{AqAvBOBOA{AXAYARAQAXA3BfA+A3AOAKAeAIA+AOBDAW",
"AyBKAIA%AeAeAQARA2AwBUBdAsA(A:AgAKARAhBTAdAOA+A+ARAOA3BTA=BXA7AtAFA-AbAXA&ANAFAOAfAFAXA/A2A:AOAOAgA:AOATA1AdAIAXAgARA1A1ASAIARApBRATAOAOAKBZAYA!AqAUArAvArAUAnAqATASAgAUA{AUAnAUA{AnASA4AhA(BIA-AsBUAKBHBIApA^AaAWArA{A{A9A9BOBIAfASA+AbA^BfAIA3ASAfAdBYAIAYA<AW",
"AyAxAIA!A3AeAYAOA:BRA(AdAhAYA&A6A=AKA)A=A0AQAIAhA5BRA(BTAbA4A|AtAbANAOAXBXAgA:AbANBXA+BVA2AfA&AXAXA:BZAeAeA)ASA1AgATBfARA1ARAQA0AQATATAKAOAKAfA,ArAnAUABAnABArBQA&AQA3ABABABAnA{ArABBIA1AsBHAOAgA[A^AbBEA;A0A^AaAWA*AUBOA$A9AMA,BRAQA+ASBTAeAeA+ARA4A2A=A3AOAGAW",
"AyBKARA3A^A)BWA&AKAdBTA1ATA)ApAFAsAdAhAFA4BTAdApA|A;A5AhAsBCA%AtAaAaAIBbAfBdAbATAbAXAfA)A=A4AKATAbARASAIARA)AdAOAbAIA1A1BZA1A1ATAKATATAOAYAfAYAHAUAWAvABAUABAUApA0AYA!ArArA{ABA{AvAUA-AeBSBYBIA-AXA^AfASA)A=AhA[AUA{A9A9ArAqAqA;A=AOA4AYA5AeATBHA;AKA0ARA!ARAGAW",
"AyAHARA3A^A(BIBEA2AeA^BYA0A)ASANAsAhARA&A4AdApA2A=A0A(AhA/A7BBAtAaAaARAfAfAOAFAIATAgBEA)A;A&BhAbAgAOBZAeAhAdAdA4AfA!A1ASASARAIATATARATATAOA4A4AeAvAWABAnAUAnAvAeAYA4A1ArArArAUAUAvAqArAhAsAKA2A[BWA/A0A5BUA;BbBVBSAUA9A9AUAUAUAsA)AYAXAYBYA5ATAQA;ASATA1A^AQAGAW",
"AyA!A^A^A3BdAIAdA/A)AdAsBbATASBHAwAbAOA+AXA+AeA;BXAwA/A=A|BbBCAtA[A-AFAgAOAgAXA:AFAXA)ApA;BHAXAYAXA4BhAeAhARAKAKAOAIARASASATAQATATBaAKAIASA&AYA[AUAUAUAnABAnAUA!AfATBaABABArAnAnBOA*ArARAFAOAKAgBQA;BZAdAQA=A=A%AMA{ArBOAoA{A9A:AdBXAFA2ApA4AIBaATA+A+ARA(AdAjAW",
"AyAHAdA3BaARA;AdA=A0AhA=A4A4AQASBEA4BYAdAhA^AIA0BIApApBVA|BTA7AtAaAaA:ANA:AOARAbANA&AsA;A2A0BIAOApA4AbBYApBHAYApAhASARAIATAYApAKAKA1AQASASA&ARAqAnABAvAnABAUAqA-A-AqAUAUABAvAUAnABA{AvAFAbAIAKA-A[AeASBIAKAIA2A/A7AUAUA9A9ArABAXAYAYA:AbBHAdA5AIAYARAQAOA5ApAHAW",
"AyAHAOA3A5ApA)A1AIASA(A)A0A&AKASAFA&ApBWA)A|A;ApApAKA=A|A%AMBJAtAaAqAfAXAbARARAFAFAQA&A/BIAYAKA:AfA&AIAIA=A2AKBRAhAdASARATApApAKAQATA1A1ARBWASAUAnABABABABAUA{A{ArAUAnABAnAnA{AUABAnAWA-AIASBRAgA-BCBfAKAhAsAfAsA7ArAUArBOA{AWAFAFAYATAfAbA(A(AOA&AOARATA1AKA,AW",
"AyAHAKA(A5A1BIA3A^AdBTA(AYAfA4AeA:AFAFAgBHA|A%ApAKA2A|AMA(A7BJAtA-AaAfASAXA1AXAgAFA1AbAsA&AFASAfANAXAfAIAdBYAKARASASASATAQAdAhAKAKAQA5A5BYAYATAvAnABAnAnAUAWABA{AqAqABAnAnAnABArABABAnA[ASA0BIA-A-A/AIA+A(AwAOA6A9A7AUArABA{AoA)AQA0AfAYAfAdBUAKA:A1A+A+A+ATBMAW",
"AyAHARBUAeBZA=A%A%A5A5A0AYA&AYBfA:BhAgBEA2BHA|A;ApA/A7A|BVBCAMAtAaAaA:AXANAXAFA&BQBEA&A=A4AbAYAbAKASAQAOA)AhAKASA0ATATBRBRAQAQARAeAKAIAIAQAhBfABABAvAnABABABAUAvAvAvABABABABAUAUABABAnAaASAKA6AgA-AwBRAdAhASAeA6A{A9AUAvBOAUBOA(ASApBRAOA1A1BUAdARAQBIAhAIAhBJAW",
"AyBKBYAeBZARA)BVBVA+ASAfBXAbAOA:ATAQAFAwAwA4A/A/A;A)A;A7AMAsAMAtAaAaAbAgANAgAFARBWANAYA(AhAfA:A:AOAIASA:A/AhARASBRAQAQBYATAOATASA^AKAhASA0AhBWABAUAvABABAnAvABAUAvABABA{AUABA{ABABABAnAqAOA0A[AgAgBSBQAhAYAKBBA-AWBSAUAnA7ABA{A(AhAhARAIAQATA)BUBaAKAFA0A+A(A$AW",
"AyBMA5AeAIA4BTA^A+AYAKAOA(A0AOAXA:AXAsAwA4AIBTA(AhA2A)A|BCAwBCAtAaAaAYAFAFAFANARAKAgAfBVA2AfAQASANA:A0A+A(AdARASASATAQATATA0A0AKARAIAfAQAYAdA-AqAvAnABAnAnAnABA-AUAUABAnAnABAnAnAUArAnAUARAKA[AgA[A9BQAeBZAKA,AgAUA*A{AUBOABArAhA1ATAKAdASAIA^A^AeA+AKAdA1A=BMAW",
"AyBKA)A3A1A)A^A/AwAhAQA4AdAfAYAbAXA&A;AsAKA(AMA%AwA/BTBTA/BSAMAtAaAaA:AbAXANAFAKAYBbA2A)A0ATAKA:AFAfAeAIA=A=A1ASAQARASAOAOApApAYAKAIAOA1AfBfAaAqAUABAnABAnAnA{ArAvAUAUABAvAvABAnAUAqABAUAXA4AQANAaA9AIAeARBXA3A6BOA*A{ABA{AUArA3AOAfAQAdA3BZBUA^AeAeA1A(AIAdBMAW",
"AyBiA(A%AeA2A3BCBCA,ASANAOBdBIAsAOASA(A;BUAMAMAMA7A7BSBRA7A7BJAtAqAqA:AOA:ANAFANATA&BHBhAdBXANANAXATA5AOApApAIAOANAIASAfAYA+AIA4A4BYAKAOAfAYA-AUAqABAnABAUAqABAUABAnAUA{ArA{ABA{ABABA{ABANA=BIAgAaA*AwA2A4BEA;A6AUArBOAnAnA{AUA3AfA:BZA3BaBhAIA!A!A3ATA0AhA(BJAW",
"AyA_AIA,A%A5BaBCA9AMAHATAKBQBHA/AQAhBSA|BJA-A%AkAMAwA6A6A/A6BCAkA-AaA:ANAFANAFA&ATAXBWASA2A&AXAFAXAbA:AQAdA1BdAbAbA1ARAKBXAOAKA4A4AKAhA+AQBZAUArAUABAqA{AWAqBHBQA-AgAsA6AUAWABABABABArAnA6A3A&AgAaA*AsBXAYAYAhA-AWA{ABArA{AUBOARAQAQA4ASA=A2AeA3AeA3ApA5AKA4BJAW",
"AyA_A3A^A,AeAeBEA6A%AMBSA0A[BHA;ASApAwBVBBA-A%AkBBA6A6A6A;AFBCAkAgA-A1A:ANANAFAYA&AOBXA;ApA&AXAXAFAbAXBIApAhAhAXAFARAQAeAKAfAKApAfAfA1BUAhAeABArABABArArAnArADAeASBZA^BZAqAWABABABABBOAnA[AdAYAgA-A9A4A0BQAXAKA-AnAUABArA{AUBOA:ATARAfAQA(A=A+A^AeAYAdAIA2A4BDAW",
"AyA_A%A%A,A!BHA&BWBTBCA6AXAYAFA6AbA&BHA7A7AMBJAMA7A6BEA;A;A6BCAkAaAaAYAbAbANAFApAdAOAXA;BIAXAFANAXAXAFA0AYA2A)AbAfA1ARASAKBRBbA4AfAYAOAOAIAhAnAnABABAvA9BOA-A1ApAeAIAwA4AwArABA{ABABArABArBXAYA[BXBEAYAYA6A6AbA[BOA{AUAUAUA9ArAXAbAQA1AbBfA1AhA)BaAXAYBaA(A=AHAW",
"AyA_AeBBA,A^A;BSA6A(A/AOBWAbAFBQBIA2BHA;BCA7AMAMBSA6ApA/A/A6BCAkAaAaAXA:AfANAFA4AYAXAbAwA2AXAFAFAXAXAbApAKApA0ATAdApApBYAhAQBbBQAYA4BfBYASBEABAnAnAnAvBOA{A-ASAdA+AIA0BfA-AvAUAUAnABBOAUArAKBXA[ASA6BEBIA6A6A&A-AUA{A{AUA{A*A7AFAYASAYA&ApBEA=A(AIAKAQBZA(A2A!AW",
"AyBJAQA,A%A^A^BSA6A@BMATAFAXAbBEBSBSBEANA2A|BCBCBSBSA2A/BSA6AHAtAaAaAXAXAOAFAbAgAFA&BRAsA)A4AFAXAFA&BIBWA;A)A3A)A/BIA2AhAQARASAfAOATA^A^ApBSA{A{ABAnAUArAUAhApBTARA4AYAQAaAWAvAnAWAnBOA{ArBZAQAbA;AoA6BRANAFBWA6BOAUArABA{ArA9A0BZA4AFAIAIAwA;A^A:AIBaATAwAsAMAW",
"AyBDAeA%A%A3BdBSA6A)A/AhAhAbAXA&BHBIA&ANA&A|A2BCAsA6BEAsA6AsA|AtA-AaAfAfAXAFANAbAKA4BIAhAsBQAXAFANA2BEBWA(AhA%A;AsA:AKAeBTBRAQApARASASASA2BOA9A9ABAnArBOABAhA(A=AfApAKA:AgAUABABABAnABABAUA3ASAFA[BOAfA0AFAFApAsA{AvAUArABAUABA&A&A&A4AbAIA%BTA%AhA+AKARA/AsA,AW",
"AyBDA1A^A%A3AfA6A6AwBSASA+A&AXAFAYA&BHAfApAMA0BCA6AbA6BEAsAsA7AkAgAaATAfANAFANAOATAXBbAdA2AXAbAFAFA2AXA;A(AdA%AwA0AQA4A%BTA2ApA5ASAKAOAOBWArBSA9ABAnArBOABBbA^A0ATAeAhA4A[AqAnABAUAnAnABABA3AIAgAgArAFBXA4AXAhA[AUAUAUA9AUAUAUAgAXATBXAFAdA;AKBTA(A5AdA+BVAsA!AW",
"AyBKA5BTA^AIBaA[A6A!AQATAFARATANAXA4A)A,A%A(BIA6A;BWA9BSAwA[A)AtAaAaAfAbA:ANA&AfAXAFBYA(BIAFBbATBQBEAfA)A(A%BTA/AsBIA;A(ASAeA^AQAIBdATBdBIA{ArA{AvAnABArArBbAYApA+AeAYAbAOAaAnABABABAnA{AUApAYAgAFAaAXBQA4A0A^AgAnAUBOBOAoA{A*BIApA1AsAsAFA0BhAfA(A(AdBRAXAOBMAW",
"AyBKBUA(BTAeBZA6BSBZASASAKAOAfAFBhAQAdApA2A0AdBVA=AfBQBEA6AgBIAtAaAaA:AFAXAgA:AOA:A&BRA)BEANBXARANAsAwBIA)A%AMAwAsBHAMA(A1A^A(AQAIA=AKA1A[ArBOArAvAnAvA{ArARAYAKAIAIAYAbARA-AWAUAvAvAvAvABArAXANAsArA4A4A4BIAhA-AnAUA{BOArA{ArA=AhAYBWBQAXA;A0AYAhAeA2A0BhA2BJAW",
"AyA}A5A1A%A%ASAwBSATAIAIAeA&AXAXARAIAOANBWApBPBCA6BdAbAFANAgAwAtAaAaAbANANAgAXAOAIA1AdAfAFBWA&A&ATAsA/AXA)AMAMBEAwA)A|A/A)BTAeAYARA/AYA1ArA9BOBOAUAnA{ArA[BaAYA&ARA1AYAbBdA-AnArABAvAqAvABAvAXAbAsBOAIBHA[AFA&A-ABArABA9AqAUABAhBIAbAFANAYA(A=AhBhA+AwAsA1A;BJAW",
"AyAxAeA!A%BUAYA6A6A1A1A+ASBfAFAFAXA4AbBIA2AQA)A9A6AbBEA2ANAgA7AtAgAaAXANANANANAfApARAbA)BHA0AbA&A=A=AwBQA2AMA|A[AsA2A|BBBVA)A0A0AKApA0A!AqArBOABAUA{AnABAdA1BfAKBYAIAYAbAOAaAWABABAnAUABAvAWA&AgBOA)ASA2BQANA1A-ABA{ABA*AvA{A{BRA2BRA4A[AQA6A;BUAfA5A)A=A;A2BKAW",
"AyBJA5A^A%A^ASA6A6AeAdA=ASAKAFAbA&A&A4A2A=AfBQBQA1AbAsA6AFA[A7AtA-AaAFANANANAFANBQA2AFA/AsAbAbAXBEA2AsAFA/AMAMA6A6A)A/A(BVA0BEAsA0ApA)A,AaA-A-AUArArAvAUAIAOAKBXA0AfA4BIAQAgAnAUAUAUArAUAqABA4ANBOAsAYA[AFAgAKA-A{ArAqBSAqA-ArAOA2AdA=AsAKBEA2A5AQA5BUAhA;BIAHAW",
"AyBPA2BbA+A^A(BIAOA%AdBIAfA&A&AKAfAbAQAeAYAXBWBHASA:AXANBbBIA/AtAaAaAFANANAFANANBEBHA0A4AOBhA&AfA4AsBTBQA7AMAMA7A7BVApA;AMA,A&A-BXA/BfA1BZA!AOA)A%A%A+AQAhAKAbA[A&AOAXATBRATAOATAfAQA1AOAKAYAQAFAwBHA:A4AgA[A:AbAhBTAdA%AIA1ARAXBHBUApANATAIA:AKBZAeA6BEBYBbAHAW",
"AyBMBEApAIAeAKA6BIAeATA:AYA+ApAFANA&AdBXATA0AdBRAsBQBWBWAFBQA6AZAaAaAFANAbAXAIA&A&AFAhBVBHAXA0A3AXA2AMBCA7A)BJA7A9A|A=BCA7A%A2BEBHBVATA5ATASAOA)A(ATA+A%AdASAQAFA:ATAFARATAKAQAXAbA:BRAXAXATAXANBSAsAXAbA[AsAOAIA5ApA1A%AeAQA=AsBWAhAdAFA6BIAQAfA(A(A2A2A^AdA_AW",
"AyBJBIASAeBUAOA6AsBZAQApAhA4ATAOAbAXA)BHAfAdAOAfA;BEAXAFANAFBSAkAaAaAbAgANAFApAbBWA2ARA%A=BEA=AeAYA(BVA7AwAFA$A7A*BCA/BCA|A=A2AsApA3ApBTASATBdAdA)AOBYA(A+ASAQA4AKAOAFBRAhARA1AfA:A:AOBXAXAQA&ANAsBEAFAXAFA6AhAIBYAQAIBTA(ATAhBSBWA0ApAXAsA0AKAYA(A+AKAhA^A5A<AW",
"AyBKAYATBBBBA4AYATAIASAdAKAFA&AfAXAXBWApA:AKAFAQA^BXANANANAgA6AkAaAaAOAfAFANBIANAwA2AOA^AeA(AsAXA)BVAOBBBCA9A$AwBSBCA9A7BBBIA:BXA0BTBTA%AIAKBYARA(A)AOAOBZATA:BUA2AXA:A5AIARA:ARAbA:AfASBQAXBfANA[BQA:BIBXANA0ATAIARAQBTA=ApARApAFBWApANAeAOBEAdBfAIBHAhBTA2BMAW",
"AyAHApA0A^A!ApBXBHAIAIASAbA0A2AOBRAfANA&AfAwBIATApBQA4AQAFAgAgBNAgA-ARA0AYA1ANAFASARA(BVA/AsBQA&A2BVBUA|AMAMAMBCA7A|A/BHBBA)AfAdA5A5A^AeAKAhA+AIBUA5ATAQBZAfA:AdApBhATA+A1AfASAYAfAYAOA4AXAFAsA[AwBHAbBbBHA6A2AOARATAhBTA(AhBYAwAsAfBEA6AdAQA0A0ApA3A0A=BTAQAGAW",
"AyAHA;A=A^A!AsBEAsAhAhAdAfAOA0A1A:ANAfBXBXAsApAYA4AKAeAaBIAgAgAkAgAgAHAaAaAHAgA&AdAIA(BVBVA;A2AwA)AMAMA|AMA7A7A7A7A7A;BbA%BVBHAeA3BEAdApA2BZA+ASA3A5ASAIAIA4A:AdASAOAYAIAIAKAKAYAfAYAOAfAXAFAsA[AsA2BEBIAsAwAdAYAbAYATA)A)AIAsA6AwBIA[AwAeBfAOA=A=A3A4BHBTAhAHAW",
"AyAGAbA3BDBBA6A[AdA%ATA,A!AYBhARA&ANATA2A=ANAfAFA&AIA!AnA^BaAgAkAgAgA#AaAqAuAgAYA(A;AbA%BBA)A)BTBHA|A7AMA7BCAMAwBSA9AwA|A7A/BQA(AwBOAwA)A5A1A5AQA^AdA5A+AQAfAOAhApA:AQASAIASATA+ANAOAeAbAFA[BQA[A[AsBSBbBIBIA!A4BQAwA0A=A=AeA)A4AwA6AOAhAYAOBEA;A3BZBhA2A%AeAHAW",
"AyA!A=AIA%AMApAYA(A(BdA^AdA+AOBYA=BhAIA)AYA:AfANAFBhBABPADAbAwAtAaAaA!A,A3AHAYA:AsA(BhBTA|A/A2BXA/AsA/AMA7AMA7BVA7A7AwAsA;BHAFA)A/A6BCA=AQAIA5A5AdARBUA5A1ASAdAwApA1A&AOAIASA3BZAfA1ATA/A:BEBIAsA6AFA[ApAhA(A=BHA2BXAKBXA)BBA(A)A(BXA0A/A&AIA;A;A1A!A(A;BaA3BJAW",
"AyA^BVAIA,BBA2AKA=A=ARA5A3A+AOARAdAOA5AeAfAfAXANAXANAHAkBaANBVAZA-AaAbBPBMARA&BQA6A=BIA/A|A/A;AwA7AsA[A7AMAMAMAMA7A7AwBSA2A2A6A0AhA&A/ApAYAhA(AdBYAQA=A1A1AdA(A2ASAIAXAYASAQAdAYAfApAsA;AfATA)A[A-A;BQA&A4A;A;AbA)ARAKApA5BTAsA;A|AwBRA/A4AQA0BYAdA3BTA=BdA;AMAW",
"AyA!AMA+AHBJA;A0A2A0BZATA!ARAOBfBfBhA+A!AOAXAgANAOAFAOBaAXAfBKAZA&AgAgBEA2ANANA6BSA[AwA/BVAsA/BSAMA|BSAMAMA7BJAMA7AMA|A|AsA/BCAsAbAYATAKA4ApBUBRA5A=AdARAfAhApBHAIBdAXBZAeAYBEAgAfA;AwBRBIAfBTA[A-AMBCAFAFAFA=ApBTA+ASA+A+BUBRAsA7A/AdA2BXA4A:ApA)A=BUA5A&AwA<AW",
"AyAtAxBiAGAxAcBLBKBDAxADBLA~A@A<AGAGA}A~A~BeAHAGAcA!A<AcADBLAtAtAkA#AkAZAkBFAuA#A#AkAtAkAkA$AMBJA$A$AkAkAtAtAkA$BJA$AkAtA$BJBJA$A,AHAGA~AxBKA<A_A_A<A~A}BABKA_BDA~ADADBLAcAjA}A_AHAxAxAxBDA~A~BDAxAZAxBLA}AjA}BAA<AxA$A~A#BFA@A<BDAcA~A$AHAHBiBDBMBDAxBDAGA^AtBG",
"AyASA|A9A-AgA|BCA6ANAgBSA6A(AFA/A[AgA6AwA[AgAgA[A[AgAaAaAaAgAgA-BQAXANAgA-AgAgAgAsA-AaBQAqArA9A-BCA-AaBCA-AaA9A-A6A/A/AsA[ArA-A-AaAqAaAaA-A-A-AaAgAgA-ANANAgAaAaAaA-AqAaA-A-AgAaAgBEA-A-A-AaA-A6A-AXA-A-AaAgAgAgA-AsAgA/A[A/A/A-AwA/A[AaA9A/AMA6AgA6AgAaA[A-AbAW",
"AyAqA*BOArAqBCA9A-AaAvArArA6AaA9A-AaA-A-AqAqAqArAqAqAUAqAvAvAvABAqAqAvAqAvAvAqAUArAvBGAqBGABArAqA{ABABArABBGA{A{AaArArAqAqABAUAvBGAvAvAvAvAqAqAvAqAqAvAqAqAaAqAvAvAUBGAvAvAUAqAvAqAaAvAvAvBGAUArAvAqAvAqAvAqAqAqAqArAvArAqA9A9AvA-BCArAvBOBCA7A-AqA-AqAqArAqAqAW",
"AyAxBCBBAxA^BJBJBBA%A)A;BBBBA!BTBBA!BKAhA;ApBhA;A^BIA3A2A[BQBWAFA6AsBHApBQAFA!A4A0A(BTBTA%BMA;AsA%AdA)A|A^A;AMA%A/AMA/A7A%A;A=A+AYApAYAYAKBXAeA!BaASA+BaAOAKBaAIA2A0AOBdA0AdA+AeBZAdA=AhAYBZA2ARAQAIAYATBaAwAQBHBUBHA&A(AMAMBJA%BMBJBTA&A^BMBBBMA!BBBMA,ApBXBKAW",
"AyBMA|A!BKAdBBAMA;BIA(A2BBBBASAwBTA3AIBYA(A=A:A[BbAXBbBEA6A6AXA6A[A[ANBEBXAbARAFBWAwAwAeA)A/A;A2AwA2A2A|BYA/A%A/A9A/A;BCAsA6BIAKA&A&BEA4A4BXAYAKBfAQATAQA4AYApBXA2AOA:A=A=AKBWA&AKBEAsA2AbAfBXBWBWA&AOAQBIAsA4BbApA2AfAhA/A|BJA)A3BJA%A2A%BBAMBTAIAeBTA)AdBXA,AW",
"AyBJAMA+A1AOA)AMA[AgA,ApA%AMBEAsBVAeAFA3A3ARARANBQAgA[A6A:AwBEA/BQAgAgA:AIA:ANAFANA6A6BZA/AsApBZA6BEApAMAhA|A)A/BSA[A2A9A6A9A2BXBXBEBEBEA&BXA4BEBXASATAYA4AfAXA:AXAFBdA;A)BEA[ANAfA[AsAwBHAKBIA[A[BQARA1AFA[A:AXBQAwAhBIA/AMAMA;A4BBA%AMAMA|A|AwAQAKA;A(AeA0A,BG",
"AyAtAtAtAkA#AxA$A#AuAkAtAtAZA#A$AkBNBNAZAZAZAZAZA#AuA#A$BNAZAtAkBNA#A#AkAtAtAZAuAuA#AkAkAkAZAZAkAZAZAZAtAtAtAkAkAkA$A$A$A#A#AtAtAZBNAZAZAZBNBNBNAZAZBNA#A#A#A#A$AkAtAtAtAZAZAkA#AuBNAZAtAZAZA#AuAuAZAZAtAtA#BNBNA#AkAZAZAZAkAkA#AkAZAtAtAtAZA#A#AuA#AZAtAtAZAtBG",
"AyAtA#AkAZAZAkAZAZAZAkA7A7A7A7A$BJAMAMA7A7A7A7AMAZAZAZAZAZAZAtAZAZAZAkAZAkAMAMAMAMAMA7AMBJBJAMAMA7BJAZAZAtAZAZAZAZAZAZAZAkAZBJBCA7BCA7AMA7A7BCBCA7A7A*A$AZAZAkAkAZAZAZAZAZAZAZAtBJBCBCA*BSBCA7A7A7A7A7A7A7BJAZAZAZAZAZAZAZAZAZAZAZAZA$A7A$AMAMAMAMAMA7A*A*A9AMAW",
"AyAtAuA#A#A#BNAkA#AxA*AoALALAoAMA7BCA*A*ALAoALA7A#A#A#A#A#A#A$A$A#A#A#BJBCALAoA*A7A*AoA*A*A*A*A*A*BJBNA#A#A#A#AkA$AkAkA#A$BBALACALALAoAoAoALALALALBcA*A#A$A#A$A#A#A#A#AuA#A#AkA$A*ALALAiACALALAoAoALALBcAoBJAZAkAkA#A#A#A$A#A#BNA#AkBCALA7A*AoA7A7A7ALACACACALAW",
"AyAtAxA<AuAuA$AuAZBSAmACACALALBCA*AoAoALACACALBNA_AxA#A#AuA#BMBAAuAxBNBCAmACAiALA*ALAmA7ALACALAJA|BNAcA#A#A~AuA$BJA$A$AxAZALAzA?A]AoACA>AiALALALA>ACBNAcAxA<A<A#A#A<AxAxBLAuAkAiAiALACAzAEALAVALALAEACAzBVA~AuA#AuA#AuBDAxAuA#AxBNAMAoALAoAVACA*AMAoAiA]AVAEALBG",
"AyAtA_AxA<AxBDAZAMAVACACACAVA*A*AiALAoALA8ALBJA<BFBMA<AxBJBNBJBAAcBNA|AiACALAlAiA*ACACAoALAEAzAoAxAuBDA<AuA<BMA$BJAxAxAZALACAVAPAEACA]AmACAVACAmAiAMA~A~BABDBDA<AxA<A<A}BFBBAiAEAEACAVA8AiACA?A]AiAEAVBCBLA<AxAxAuAxAxAuA<A~A<AuAMA*A*AoACAEAmALA7ALAVACA]AiBJBG",
"AyAZBPAxA}A<BLA$ACA>AiACAVA>A*ALA8ACBcACAEBCBFBBBFA,BMBMBBBNA<AcA@A%AEAEALAoAAAmALAmAiACAoA?AVAuA~A<BMBAAuBJBBAuBJBDAuA7AlACACAlAzAmAJA]AiAJAEA>BCBNA<AuBKBAAcBKBeA.AcBABNALAAAEAlACAzA?ACAVAPA8A]AJAoA.AxA$A}A<AuBABJAuBDA}A~AMACAoA*A*AVAEA?ACA*AiAVACAVAoAtBG",
"AyAZAjAuA$BDBBA7ALA>AzACAlAmA*A8AJAVAiACA7A~BPBBBKBAA$A<BeAcAxA~BLACAlAVAiACA]AlAzACAzAiAiACBJBNA<AcBeA<A~A$BDAcAjBFBBAmAJAEACAiAJA]AiA?APAVAPALBNBABAAcA<AcBKAxA}ADBAAuA|AEA>A8AzAVA?A>AEAEAEA8AzAiBNAjAjAxA<A}A$BABDA<A~AxA<ALACAoA*ACAVAPAAACACAJAVAEALAuAkBG",
"AyAtA_AxA<A~BcALAoA8AzAiA]AmA*AVACAiAiA*A}AjA_A%BKAcAMBBA_AcBDBNA*A]A]AzACACAJAmAiACAzAEAiAMAuAxBLA}A_AcBJAxBDBDBAA<ACAiAEAiAiAlAzACACAzAJAEACBDBDBLBKBPA<AxBDBDA.AjA.AMA]AiA>AJA?AlAPA>ACAJA?AJA]AMBFA}A}AuBABAA}BDBDA<BDBNAoAEAoA*A*ACAiAPAJAVAEAVA]ACBMAcAZBG",
"AyAZAGBPA~AoAzALA*AVAEACAiACALA?AVAJAiBNAGA~A}BBBAAcBDAcBKBKA.BJAiA]A?AJAiA?AAACALAzAEACBCBFA_BLAxBDA}AcBMA_AcA_BNACAJACAEA]A]AiAJACAJAlAPA>A,ADBDBLADAcA<AxA_BDA}AjA}AVAEAEAlA8A?AiA?AlAJA8AJAVBCAuBDA.A}A<AjAcBMBLAxAcAuA|ACAVAoAoAiAJALAlACACA]ACA]BBBFBKAtBG",
"AyBNA!AGA|AmAEALA7ALAiAiA]AJALAPA8ACBCAuAjA~BDBBBLAxA<BDBDA}BBAiA]AiA>A>AJA?A8ACAiAzAEBCA}BAAcA}AxBMA<A<AcAcBKBLAoA8A?ACAJA]AVACA]AJAJA>APA*BFAHAjAcBABDAuAcAjBABiBNBcAlAJA8A8AlAJALA?AAA>A8A>A7A.AcA~AjAcBDA<A$BDA<A<AcBBBcALAiACALACAEA*A>AVAiAJAiAoBNBAA_AtBG",
"AyAuA!BFAVAEAVACA*ACACAVAzA>ALA8A>BCBNAxA}A.A_BBA}AjBDBMBKA~ACAAAEBcAVA?AEAEACACAEAJACBPA.BDA}A}A}A_BAA<AcA_A_BBAPA?AlAJAzAVAEAAAEA8A]A8ALBFBAADAHAjA}BAAcADADBPBLA9APAJAEAEAVAAA8AmAAAAA]AlACAuAGADAxAxBKBMA<A}AjAjBKAuBcAzALAiAVALALAiA*A>AVAVAAACBNAcBLAjAtBG",
"AyAuAGALAiA]A?AVACAJALAVAJAEA]AJAoA~AGA.A.BFA_BVAjAGBKBBA~A*A?A]A8AEAJAzACACA?AiAEBgBBAGBKAjAcA~BMA_BAA<A<AcBNACAzAEAJAJAmAPAAAAAlAVAAAiAcA}AjA@A,BKBLBKADA@BKBFBBAPAzAEAJAEAJAAA?A>AzAlAAAVBMA@A_AjAuA~AcBKBLA.A_BKAuA*ACACACA*A*AmAlA>AmAzAmAiAiA<A<AcA~BAAZBG",
"AyA$AoAJAVAEAlAzAVACAVA]AJAJA>ALBBADAGADADA~A}BPAjADBMBLA*AVA?A>A]AEAzAzAVAEAzA>AJAoA}BABeAjBAAxBMBKBKBKA<BMBcAEAJAJAJAVAJAEAJAlAzA>AmA%A.BAA@A@BMBAAcA_AjADA.BBAVAAA?APAlAzAEA8A?AJA?A?AmBVA.AGBeAcAxA<BDBBAxBLAjBLAoAmAiAVAmACALAmAJAVAJA>A8AVA|BLA<BDAcAcAtBG",
"AyAMAJAEAmAmA?APA]AoAEA]AJAEA]BBBFAHADA.A_A~A~BLAcADAcA~AJAzAlAAAiAzAAAEAiAPAJAAACBNBPAcAcA}AcAxBLBPBMBKBFA*AAAEAzAAA8AVA8AEA>APA8A8BCBFBKA@A@ADBFBLBeAjA@BPA~BcAAAlAPAAA?A]AVA8AzAmA>APAoBNBPAGAGAjAcA<AcBBBDBDBKA%A>A?AJAJAmAPAVAVAmACAEAEA8AoBFBABDA<BMA_AtBG",
"AyAVA?AVAVAVAmAEACA*ALAEACA>BMA~AjA_A.A.A}A#A#A#AxA_BLAVAzAEAPAAAEA8AzAlAJAzAPALBDA<A}A_BAA.AxBDA~AxBMBFA%A8A?AJA]AzAJAzAzAAAAAPAAA9A.AGADAjA.A.AjADAjAjA,BNAoAAAJA]AEAPAEACAEAEAlA?A8A9BLA_A_BKADAjA~AuAuBDA_BABDAmAJAEAoA]A]AmACAiAzAmACAzAoBNBMA<AxBAA<BKAZBG",
"AyAzAlAmAVAiA]A]ACAoACAEAEAoA.A.AjADA}A~A~BLA}A}BPBFAoAAAzAzA8A8A?AJA?A8AVA>AVA%A.BDAcA<AcA.A<AjA}A<BFAcAiA?AEAEAEAJA?AlAmAzAPAAACBAADADA@A.A.AjBKADAjBPBFA|AEA?AEAEAlAJAJAJA]AEA8AlALA<A@BDBDAjA@AjA<A<AuA~A_A~AoAVAEACACAiAVAVALACAJAmACBcBMA}BMBAA<BABDBKAZBG",
"AyA]A>AiA8AEAVAEAVALAmAlBcA.A_A@A.AjAcBMBBA.ADBKA.AoACA]AEAEAJA8AmAmA8A>AiAzA7BFA_A,ADAuBDBBAcADA_A_BFBcAAAlA]AJAPA8AEA8AJAmAPA8BPBFAjA.A@A@A@BeBKADAHA.A%AVAPAJA?AzAAA]AmA8AiAmA>AmAxBNBeA@AxAjBeAjAjBLAuA<AuAoACALAEAzAzAiAiAEALALA]AiALAMBLBABDBMA<A}BeAGAZBG",
"AyA]A>AiAJAVAEA>AEAVA?AiA}A.AjA.AjA@AjAcAHADBKA@BDAmAzAVAVAEAPAzAmAzAlA?AzALBFBKA@A_A@AxBABBAjADBPBFAoAPAlA8A8AEAlAlAJAlA?A?AJBSA.BeA.A@A_A@A}A_BPADADAGAmA?AmAlA?AlAPAlA8A>AJAlAlA9BFBAA.AjAjA@BLBAAjAcBAA~BSA8AmALAJAlALAiAJAmACACA]AzA|BFBMBLA}A<AxA<BAAGAZBG",
"AyA]AlAEACBcA>A>AmAmAEBDBLBDA@A@A.AjAcBLA@A_A.AjAiAVAEA>A]AJAAAmAJAPAPAAAVA~A}A_A_AjBPAxBDADA_BKA.A|A>AzAzAEA8AmAlAAA8AlA8APAoBFAHAjA@AGAGAcBDBKAGAHBFAoAAA]AmAPA>APA8A8AAAPA8APACBNBKAjAjAjAjA}A~A_ADBeAcA|AVAEAzACAVAEALAiA8AVA]A]AJACBNBMAcA}BAAxAuA$BDAGAkBG",
"AyA]AlA8AJAiA>AJAmA]BBBFBLA<ADAGAuAuAcA}A_A_BNALA8AJAiAJAlAzA?AEAPAJAPAEBLA.BDAGA@AjBDBDBAA}BAA.BPAmAEA>AVA8AzA8AlAlAAA]APAoBFA_BFADA@BPA,ADAcAcBPAuA9APAEAmAEAAAPA?APAzAPAPAEACAuA$BFBAAjADAcA$ADAjADBKBNAEAlACAVAEALAmAEALAVAVAoAiACAuAcAxBABKAcAcA}BLA}ADAkBG",
"AyAVA>A8A>AmAEAEAzAoBFA.AcA_BeA.A~AcA.AuBKA.AoAPAJAPA?A?AlAmA8AzAEA>A>A9BFAjA}A_AjADBLAjADBDBiA@ACAlA]A8AzAAAlAzA8AEA8A?AiBMA.BAA}A_AcAjADADAxA<BFBCAmAJA]A>APAlAAA>A8AEAmAlAiBJAcA<A}BABKAjAxAxBAA<AjBLALAEAmAmACAVAmACA]ACAVACALAoAMA~A<AuA<BAAxAcA@A}BFAGAZAn",
"AyA]AVAzAEAVAmA?AmA~AjA_BABABKA<BLADAjA.ADA/AJAJAJAJAEAJA?AVAlAPAmA8AoBNAHA.A.A<A<AGAGBAAjAGADAoA?AEA>AEAPAPAJAEAzAzA8APA/A.AGAjAjBKAxAjAGBDAcA_AcACAPAEAJAJAAAJAzAJAEAzAzA8A*BNBPAcAjAjBPA_A<BABAAcBeBCAPAmAiA8AmAVAEAoAiAJAVACAiBSBNBAAxBLA~AxAcA<A}BDBDA@A$AW",
"AyAEAmA?AzACAzAEAxA_BDA@AjAjAHBMAxAjAjA.BLAVAJA]AVAiA8AAAlAiAzAPAABcBNAGADAjA@A_BDBAA_AcBKA.AMAzACAVA>A>A8APAmAEAmA8BgBOBLA,ADA@BAA~AxA_AGA<BPBNAoAlAEA]AlAEA?AVAmA?A>AzAAALBNBPBABABAAjADBKA.AuAGA.A%AEAEAVAiAJAJAVAJALAVAVAVAlAoBFBDA<A<BAAcA<BAA~A}BABPA~A*Bg",
"AyACAPAmAzA?AEA|AuBKA@ADAjAxAGAuA}A_BFAcALAEAmAVAJA8A]A?AAAzAVAAAVA%BFA@A@A@BLBeBeA~BPBPBLA|A]AVAJAEAJAAAmAzAzACAzAABcA,BLBLAHADA_AcAxADAGBPBFAoA>AEAmAJAlAlAmAJAmAlAJAAAiA}BFAxAjA.ADADAxBDAjAcBFBBAiAVAVAJAEACAEAEAEAJALALAEACBMAxA<BeAcA}BKA<AuA}AxA_A~BcAiAW",
"AyACA>ACAmAzBcAuBABAAcAjBAA<AjA~A}AjA~AoAmAVACACAJAzAiA]AzAzAVAEA|BNBAA.A}AjA}A_A_BLBKBKBBACAzACAEAEAzAAAVAmAmACAEAmBPA.A}BLAGAjBeBeAxAcAcADA/AJAlAmAiAEA>A8AVAEAmA>A]AmA/AuAxAxBAAcAjBeAxA<BAAjBMBcAEACACAmAEACA]AVACAmALALACBTBFA<AxBAAcAcBPAcAuBDAxA~BCAmACAW",
"AyALBcALACAoA~BAAuAkA#A~A~AxA#A#AuAuAMACALALALALALACACALALACAVAMAZA#AuAuAuA~A~AuA$A$AxBNA*ACALALALACAiACACACACACALA$AZA$AuA~BLA~A~AuA#AkA$AuALA]AiACACALACAiAiAiAiACACBJAZA$AkA#AuAuA#A$A$A$AxBNBSAVALALALALACACACALAoALALALBJAuAxA#A#A#AxA#AxAxA#A$A#A$ALAoA*AW"
};
